P2
256 256
255
0
0
0
0
0
0
0
0
0
0
0
0
0
0
0
0
0
0
0
0
0
0
0
0
0
0
0
0
0
0
0
0
0
0
0
0
0
0
0
0
0
0
0
0
0
0
0
0
0
0
0
0
0
0
0
0
0
0
0
0
0
0
0
0
0
0
0
0
0
0
0
0
0
0
0
0
0
0
0
0
0
0
0
0
0
0
0
0
0
0
0
0
0
0
0
0
0
0
0
0
0
0
0
0
0
0
0
0
0
0
0
0
0
0
0
0
0
0
0
0
0
0
0
0
0
0
0
0
0
0
1
2
1
1
0
1
0
0
0
0
1
0
0
0
0
1
0
0
0
0
0
0
0
0
0
0
0
0
0
0
0
0
1
0
0
0
2
1
0
1
1
0
1
0
0
1
0
0
0
0
0
0
0
0
0
0
0
0
0
0
0
0
0
0
0
0
0
0
0
0
0
0
0
0
0
0
0
0
0
0
0
0
0
0
0
0
0
0
0
0
0
0
0
0
0
0
0
0
0
0
0
0
0
0
0
0
0
0
0
0
0
0
0
0
0
0
0
0
0
0
0
0
0
0
0
0

0
0
0
0
0
0
0
0
0
0
0
0
0
0
0
0
0
0
0
0
0
0
0
0
0
0
0
0
0
0
0
0
0
0
0
0
0
0
0
0
0
0
0
0
0
0
0
0
0
0
0
0
0
0
0
0
0
0
0
0
0
0
0
0
0
0
0
0
0
0
0
0
0
0
0
0
0
0
0
0
0
0
0
0
0
0
0
0
0
0
0
0
0
0
0
0
0
0
0
0
0
0
0
0
0
0
0
0
0
0
0
0
0
0
0
0
0
0
0
0
0
0
0
0
0
0
0
0
0
0
0
0
0
1
1
0
1
1
0
0
0
0
1
0
1
2
1
1
0
0
1
0
0
0
0
0
1
1
0
0
0
0
0
0
1
0
0
1
1
0
1
0
0
1
0
0
0
0
0
0
0
0
0
0
0
0
0
0
0
0
0
0
0
0
0
0
0
0
0
0
0
0
0
0
0
0
0
0
0
0
0
0
0
0
0
0
0
0
0
0
0
0
0
0
0
0
0
0
0
0
0
0
0
0
0
0
0
0
0
0
0
0
0
0
0
0
0
0
0
0
0
0
0
0
0
0

0
0
0
0
0
0
0
0
0
0
0
0
0
0
0
0
0
0
0
0
0
0
0
0
0
0
0
0
0
0
0
0
0
0
0
0
0
0
0
0
0
0
0
0
0
0
0
0
0
0
0
0
0
0
0
0
0
0
0
0
0
0
0
0
0
0
0
0
0
0
0
0
0
0
0
0
0
0
0
0
0
0
0
0
0
0
0
0
0
0
0
0
0
0
0
0
0
0
0
0
0
0
0
0
0
0
0
0
0
0
0
0
0
0
0
0
0
0
0
0
0
0
0
0
0
0
0
0
0
0
1
1
0
0
0
0
0
1
1
0
0
1
0
2
2
0
0
2
1
1
2
1
0
1
1
0
1
0
1
1
0
1
1
1
1
0
0
0
1
0
0
1
0
0
0
0
1
0
0
0
0
0
0
0
0
0
0
0
0
0
0
0
0
0
0
0
0
0
0
0
0
0
0
0
0
0
0
0
0
0
0
0
0
0
0
0
0
0
0
0
0
0
0
0
0
0
0
0
0
0
0
0
0
0
0
0
0
0
0
0
0
0
0
0
0
0
0
0
0
0
0
0
0
0
0
0

0
0
0
0
0
0
0
0
0
0
0
0
0
0
0
0
0
0
0
0
0
0
0
0
0
0
0
0
0
0
0
0
0
0
0
0
0
0
0
0
0
0
0
0
0
0
0
0
0
0
0
0
0
0
0
0
0
0
0
0
0
0
0
0
0
0
0
0
0
0
0
0
0
0
0
0
0
0
0
0
0
0
0
0
0
0
0
0
0
0
0
0
0
0
0
0
0
0
0
0
0
0
0
0
0
0
0
0
0
0
0
0
0
0
0
0
0
0
0
0
0
0
0
0
0
0
1
1
0
1
0
0
1
0
0
0
0
1
1
0
0
0
2
2
1
2
0
0
0
0
2
1
0
1
2
0
0
0
1
1
0
0
0
1
0
0
1
0
0
1
1
1
1
1
1
1
0
0
0
0
0
0
0
0
0
0
0
0
0
0
0
0
0
0
0
0
0
0
0
0
0
0
0
0
0
0
0
0
0
0
0
0
0
0
0
0
0
0
0
0
0
0
0
0
0
0
0
0
0
0
0
0
0
0
0
0
0
0
0
0
0
0
0
0
0
0
0
0
0
0
0
0
0
0
0
0

0
0
0
0
0
0
0
0
0
0
0
0
0
0
0
0
0
0
0
0
0
0
0
0
0
0
0
0
0
0
0
0
0
0
0
0
0
0
0
0
0
0
0
0
0
0
0
0
0
0
0
0
0
0
0
0
0
0
0
0
0
0
0
0
0
0
0
0
0
0
0
0
0
0
0
0
0
0
0
0
0
0
0
0
0
0
0
0
0
0
0
0
0
0
0
0
0
0
0
0
0
0
0
0
0
0
0
0
0
0
0
0
0
0
0
0
0
0
0
0
0
0
0
0
0
0
0
1
0
1
1
1
0
2
0
2
0
2
0
0
0
2
2
0
2
1
2
1
1
1
1
0
1
1
0
0
1
3
1
0
2
1
0
1
2
1
1
0
0
1
0
0
1
0
0
0
0
1
0
0
0
0
0
0
0
0
0
0
0
0
0
0
0
0
0
0
0
0
0
0
0
0
0
0
0
0
0
0
0
0
0
0
0
0
0
0
0
0
0
0
0
0
0
0
0
0
0
0
0
0
0
0
0
0
0
0
0
0
0
0
0
0
0
0
0
0
0
0
0
0
0
0
0
0
0
0

0
0
0
0
0
0
0
0
0
0
0
0
0
0
0
0
0
0
0
0
0
0
0
0
0
0
0
0
0
0
0
0
0
0
0
0
0
0
0
0
0
0
0
0
0
0
0
0
0
0
0
0
0
0
0
0
0
0
0
0
0
0
0
0
0
0
0
0
0
0
0
0
0
0
0
0
0
0
0
0
0
0
0
0
0
0
0
0
0
0
0
0
0
0
0
0
0
0
0
0
0
0
0
0
0
0
0
0
0
0
0
0
0
0
0
0
0
0
0
0
0
0
0
0
0
0
0
0
0
1
0
1
1
1
2
2
0
1
1
0
0
2
0
1
2
2
2
0
1
1
2
0
0
1
1
0
1
1
0
1
1
1
0
1
1
0
1
1
0
1
2
1
1
1
1
1
0
1
1
0
0
0
0
0
0
0
0
0
0
0
0
0
0
0
0
0
0
0
0
0
0
0
0
0
0
0
0
0
0
0
0
0
0
0
0
0
0
0
0
0
0
0
0
0
0
0
0
0
0
0
0
0
0
0
0
0
0
0
0
0
0
0
0
0
0
0
0
0
0
0
0
0
0
0
0
0

0
0
0
0
0
0
0
0
0
0
0
0
0
0
0
0
0
0
0
0
0
0
0
0
0
0
0
0
0
0
0
0
0
0
0
0
0
0
0
0
0
0
0
0
0
0
0
0
0
0
0
0
0
0
0
0
0
0
0
0
0
0
0
0
0
0
0
0
0
0
0
0
0
0
0
0
0
0
0
0
0
0
0
0
0
0
0
0
0
0
0
0
0
0
0
0
0
0
0
0
0
0
0
0
0
0
0
0
0
0
0
0
0
0
0
0
0
0
0
0
0
0
0
0
0
0
0
0
0
1
0
2
4
1
1
1
1
0
1
3
2
0
2
2
1
0
0
1
1
2
0
1
2
1
2
2
0
1
1
1
2
2
1
1
1
1
2
1
0
0
0
1
0
0
0
1
0
1
0
1
0
0
0
0
0
0
0
0
0
0
0
0
0
0
0
0
0
0
0
0
0
0
0
0
0
0
0
0
0
0
0
0
0
0
0
0
0
0
0
0
0
0
0
0
0
0
0
0
0
0
0
0
0
0
0
0
0
0
0
0
0
0
0
0
0
0
0
0
0
0
0
0
0
0
0
0

0
0
0
0
0
0
0
0
0
0
0
0
0
0
0
0
0
0
0
0
0
0
0
0
0
0
0
0
0
0
0
0
0
0
0
0
0
0
0
0
0
0
0
0
0
0
0
0
0
0
0
0
0
0
0
0
0
0
0
0
0
0
0
0
0
0
0
0
0
0
0
0
0
0
0
0
0
0
0
0
0
0
0
0
0
0
0
0
0
0
0
0
0
0
0
0
0
0
0
0
0
0
0
0
0
0
0
0
0
0
0
0
0
0
0
0
0
0
0
0
0
0
0
0
0
1
0
1
1
0
2
2
3
1
0
2
2
1
1
2
1
1
0
1
3
2
0
2
3
1
0
1
0
2
1
3
0
0
1
2
2
1
1
0
1
1
1
0
0
0
1
1
0
1
1
0
0
1
1
0
0
0
0
0
0
0
0
0
0
0
0
0
0
0
0
0
0
0
0
0
0
0
0
0
0
0
0
0
0
0
0
0
0
0
0
0
0
0
0
0
0
0
0
0
0
0
0
0
0
0
0
0
0
0
0
0
0
0
0
0
0
0
0
0
0
0
0
0
0
0
0
0
0
0
0
0

0
0
0
0
0
0
0
0
0
0
0
0
0
0
0
0
0
0
0
0
0
0
0
0
0
0
0
0
0
0
0
0
0
0
0
0
0
0
0
0
0
0
0
0
0
0
0
0
0
0
0
0
0
0
0
0
0
0
0
0
0
0
0
0
0
0
0
0
0
0
0
0
0
0
0
0
0
0
0
0
0
0
0
0
0
0
0
0
0
0
0
0
0
0
0
0
0
0
0
0
0
0
0
0
0
0
0
0
0
0
0
0
0
0
0
0
0
0
0
0
0
0
0
0
0
1
0
1
1
1
1
1
2
2
2
0
1
1
0
2
1
1
0
2
0
0
1
0
0
1
0
0
2
3
0
0
2
0
0
2
2
2
2
2
0
2
0
2
2
1
1
1
1
1
2
1
0
1
0
0
0
0
0
0
0
0
0
0
0
0
0
0
0
0
0
0
0
0
0
0
0
0
0
0
0
0
0
0
0
0
0
0
0
0
0
0
0
0
0
0
0
0
0
0
0
0
0
0
0
0
0
0
0
0
0
0
0
0
0
0
0
0
0
0
0
0
0
0
0
0
0
0
0
0
0
0

0
0
0
0
0
0
0
0
0
0
0
0
0
0
0
0
0
0
0
0
0
0
0
0
0
0
0
0
0
0
0
0
0
0
0
0
0
0
0
0
0
0
0
0
0
0
0
0
0
0
0
0
0
0
0
0
0
0
0
0
0
0
0
0
0
0
0
0
0
0
0
0
0
0
0
0
0
0
0
0
0
0
0
0
0
0
0
0
0
0
0
0
0
0
0
0
0
0
0
0
0
0
0
0
0
0
0
0
0
0
0
0
0
0
0
0
0
0
0
0
0
0
0
0
0
1
1
1
0
1
1
2
2
0
1
0
3
1
2
3
2
3
0
2
3
1
1
2
2
3
0
2
1
4
1
2
3
0
1
0
0
2
3
3
0
2
2
2
2
2
3
2
1
1
2
0
1
1
0
1
0
0
0
0
0
0
0
0
0
0
0
0
0
0
0
0
0
0
0
0
0
0
0
0
0
0
0
0
0
0
0
0
0
0
0
0
0
0
0
0
0
0
0
0
0
0
0
0
0
0
0
0
0
0
0
0
0
0
0
0
0
0
0
0
0
0
0
0
0
0
0
0
0
0
0
0

0
0
0
0
0
0
0
0
0
0
0
0
0
0
0
0
0
0
0
0
0
0
0
0
0
0
0
0
0
0
0
0
0
0
0
0
0
0
0
0
0
0
0
0
0
0
0
0
0
0
0
0
0
0
0
0
0
0
0
0
0
0
0
0
0
0
0
0
0
0
0
0
0
0
0
0
0
0
0
0
0
0
0
0
0
0
0
0
0
0
0
0
0
0
0
0
0
0
0
0
0
0
0
0
0
0
0
0
0
0
0
0
0
0
0
0
0
0
0
0
0
0
0
0
1
1
1
1
2
2
1
2
2
1
2
3
2
2
1
2
2
3
2
1
2
1
0
1
1
4
1
1
3
3
1
1
3
2
1
2
2
3
1
2
1
0
0
2
1
2
5
1
3
2
0
1
1
1
1
0
1
0
0
0
0
0
0
0
0
0
0
0
0
0
0
0
0
0
0
0
0
0
0
0
0
0
0
0
0
0
0
0
0
0
0
0
0
0
0
0
0
0
0
0
0
0
0
0
0
0
0
0
0
0
0
0
0
0
0
0
0
0
0
0
0
0
0
0
0
0
0
0
0
0
0
0

0
0
0
0
0
0
0
0
0
0
0
0
0
0
0
0
0
0
0
0
0
0
0
0
0
0
0
0
0
0
0
0
0
0
0
0
0
0
0
0
0
0
0
0
0
0
0
0
0
0
0
0
0
0
0
0
0
0
0
0
0
0
0
0
0
0
0
0
0
0
0
0
0
0
0
0
0
0
0
0
0
0
0
0
0
0
0
0
0
0
0
0
0
0
0
0
0
0
0
0
0
0
0
0
0
0
0
0
0
0
0
0
0
0
0
0
0
0
0
0
0
0
0
0
1
0
1
0
0
3
1
3
1
2
0
0
2
1
2
2
1
1
2
1
3
2
2
2
1
2
1
1
2
4
2
2
2
4
2
0
2
3
2
0
1
2
2
1
1
1
3
3
3
1
1
0
1
1
1
0
1
0
0
0
0
0
0
0
0
0
0
0
0
0
0
0
0
0
0
0
0
0
0
0
0
0
0
0
0
0
0
0
0
0
0
0
0
0
0
0
0
0
0
0
0
0
0
0
0
0
0
0
0
0
0
0
0
0
0
0
0
0
0
0
0
0
0
0
0
0
0
0
0
0
0
0

0
0
0
0
0
0
0
0
0
0
0
0
0
0
0
0
0
0
0
0
0
0
0
0
0
0
0
0
0
0
0
0
0
0
0
0
0
0
0
0
0
0
0
0
0
0
0
0
0
0
0
0
0
0
0
0
0
0
0
0
0
0
0
0
0
0
0
0
0
0
0
0
0
0
0
0
0
0
0
0
0
0
1
2
1
1
1
1
1
2
1
1
1
3
2
1
1
2
3
4
1
2
2
2
4
3
1
3
1
1
3
0
0
4
1
3
1
3
1
3
0
1
2
1
1
2
4
2
4
3
0
4
1
3
1
1
1
2
2
2
5
1
2
0
1
5
2
2
3
4
1
2
2
3
2
3
5
2
3
1
4
4
3
3
2
2
1
2
0
1
4
1
3
2
2
2
3
1
2
2
0
2
2
2
2
4
0
1
3
2
2
0
0
3
1
2
3
0
0
1
2
2
1
0
1
3
2
3
0
0
0
1
1
0
0
0
0
0
0
0
0
0
0
0
0
0
0
0
0
0
0
0
0
0
0
0
0
0
0
0
0
0
0
0
0
0
0
0
0
0
0
0
0
0
0
0

0
0
0
0
0
0
0
0
0
0
0
0
0
0
0
0
0
0
0
0
0
0
0
0
0
0
0
0
0
0
0
0
0
0
0
0
0
0
0
0
0
0
0
0
0
0
0
0
0
0
0
0
0
0
0
0
0
0
0
0
0
0
0
0
0
0
0
0
0
0
0
0
0
0
0
0
0
0
0
0
0
0
1
2
1
1
2
0
0
1
2
0
0
1
2
1
0
0
1
2
0
2
1
0
2
2
4
3
2
1
0
2
0
1
1
2
2
3
4
1
0
0
0
0
2
2
3
1
0
3
4
5
0
0
2
3
1
3
1
6
3
0
5
5
1
4
1
2
3
3
4
0
4
3
1
0
3
2
0
4
3
1
2
0
2
1
2
0
3
3
2
2
2
2
1
2
1
2
2
1
0
3
1
1
1
2
1
3
2
2
2
3
2
3
1
0
0
2
2
1
4
1
0
3
1
1
2
1
1
1
0
1
1
0
0
0
0
0
0
0
0
0
0
0
0
0
0
0
0
0
0
0
0
0
0
0
0
0
0
0
0
0
0
0
0
0
0
0
0
0
0
0
0
0
0
0

0
0
0
0
0
0
0
0
0
0
0
0
0
0
0
0
0
0
0
0
0
0
0
0
0
0
0
0
0
0
0
0
0
0
0
0
0
0
0
0
0
0
0
0
0
0
0
0
0
0
0
0
0
0
0
0
0
0
0
0
0
0
0
0
0
0
0
0
0
0
0
0
0
0
0
0
0
0
0
0
0
0
1
0
2
1
2
0
0
1
4
2
2
3
2
1
1
0
4
0
1
7
3
1
0
2
1
4
4
0
0
1
1
0
3
3
2
3
1
5
2
2
0
3
2
2
1
3
4
2
1
4
1
0
2
3
0
0
1
5
4
3
3
3
0
3
2
1
0
5
6
2
1
2
4
2
1
1
2
4
1
1
2
3
1
2
3
1
1
0
3
4
3
1
1
5
2
1
0
1
1
0
3
1
2
0
0
3
4
3
1
1
3
4
2
3
2
0
2
5
7
3
1
3
0
1
2
4
1
0
1
0
0
0
0
0
0
0
0
0
0
0
0
0
0
0
0
0
0
0
0
0
0
0
0
0
0
0
0
0
0
0
0
0
0
0
0
0
0
0
0
0
0
0
0
0

0
0
0
0
0
0
0
0
0
0
0
0
0
0
0
0
0
0
0
0
0
0
0
0
0
0
0
0
0
0
0
0
0
0
0
0
0
0
0
0
0
0
0
0
0
0
0
0
0
0
0
0
0
0
0
0
0
0
0
0
0
0
0
0
0
0
0
0
0
0
0
0
0
0
0
0
0
0
0
1
1
0
0
1
0
0
2
6
1
4
3
1
3
0
4
3
2
1
2
0
3
3
2
0
2
1
0
0
3
0
1
7
4
1
0
4
2
1
1
1
3
2
3
4
1
0
0
3
4
3
6
6
0
1
3
3
0
3
2
3
1
2
2
2
2
4
3
4
3
4
2
2
4
2
1
3
0
1
2
2
4
4
1
3
3
2
2
5
0
3
1
5
2
1
2
4
0
3
2
2
2
2
0
1
1
3
3
1
3
3
5
2
4
0
1
1
1
5
2
2
0
1
0
1
3
3
1
2
0
2
1
2
1
0
0
0
0
0
0
0
0
0
0
0
0
0
0
0
0
0
0
0
0
0
0
0
0
0
0
0
0
0
0
0
0
0
0
0
0
0
0
0
0
0
0
0

0
0
0
0
0
0
0
0
0
0
0
0
0
0
0
0
0
0
0
0
0
0
0
0
0
0
0
0
0
0
0
0
0
0
0
0
0
0
0
0
0
0
0
0
0
0
0
0
0
0
0
0
0
0
0
0
0
0
0
0
0
0
0
0
0
0
0
0
0
0
0
0
0
0
0
0
0
0
0
1
1
2
2
1
1
3
0
1
2
2
4
0
3
3
2
0
0
1
3
3
0
2
1
0
3
4
2
3
2
2
1
4
5
1
1
2
3
3
3
3
0
3
2
1
3
2
1
0
1
2
3
4
2
2
5
7
5
2
2
2
1
4
1
3
1
3
2
3
4
2
1
1
1
1
2
0
1
5
4
4
5
1
1
2
1
0
2
4
7
6
1
4
4
2
1
5
3
2
6
0
1
2
1
4
3
0
2
4
3
3
8
3
2
2
4
2
2
1
4
0
3
1
2
2
5
1
3
4
2
1
0
1
0
0
0
0
0
0
0
0
0
0
0
0
0
0
0
0
0
0
0
0
0
0
0
0
0
0
0
0
0
0
0
0
0
0
0
0
0
0
0
0
0
0
0
0

0
0
0
0
0
0
0
0
0
0
0
0
0
0
0
0
0
0
0
0
0
0
0
0
0
0
0
0
0
0
0
0
0
0
0
0
0
0
0
0
0
0
0
0
0
0
0
0
0
0
0
0
0
0
0
0
0
0
0
0
0
0
0
0
0
0
0
0
0
0
0
0
0
0
0
0
0
0
0
1
1
1
1
1
1
0
2
4
3
2
2
1
5
0
4
2
3
1
2
1
2
0
1
1
2
1
0
1
2
2
1
3
6
2
6
0
3
3
2
0
2
4
2
0
0
3
1
4
5
3
4
0
1
2
0
2
5
3
7
5
5
8
2
2
6
5
3
3
4
3
5
4
4
2
5
4
5
4
7
5
7
2
5
3
4
6
5
9
2
1
4
1
4
4
1
2
2
2
2
2
1
2
5
0
3
1
2
0
1
1
5
5
2
2
4
2
2
4
3
2
3
1
0
3
2
3
6
4
0
1
1
2
2
0
0
0
0
0
0
0
0
0
0
0
0
0
0
0
0
0
0
0
0
0
0
0
0
0
0
0
0
0
0
0
0
0
0
0
0
0
0
0
0
0
0
0

0
0
0
0
0
0
0
0
0
0
0
0
0
0
0
0
0
0
0
0
0
0
0
0
0
0
0
0
0
0
0
0
0
0
0
0
0
0
0
0
0
0
0
0
0
0
0
0
0
0
0
0
0
0
0
0
0
0
0
0
0
0
0
0
0
0
0
0
0
0
0
0
0
0
0
0
0
0
0
1
0
1
0
3
2
1
1
2
1
2
1
0
3
2
3
2
0
0
4
1
2
3
3
2
3
1
1
3
0
5
1
2
2
3
1
4
4
1
1
1
3
4
2
1
2
1
2
2
2
5
5
4
3
4
3
3
5
3
3
2
4
5
2
3
2
3
5
3
1
0
3
4
6
11
6
6
7
3
1
3
5
3
4
1
5
4
2
1
3
4
4
6
3
3
2
1
1
2
2
3
5
2
2
3
4
1
3
5
1
3
2
3
2
4
2
3
3
1
3
3
0
2
1
3
3
2
2
1
1
0
2
2
4
0
1
0
0
0
0
0
0
0
0
0
0
0
0
0
0
0
0
0
0
0
0
0
0
0
0
0
0
0
0
0
0
0
0
0
0
0
0
0
0
0
0
0

0
0
0
0
0
0
0
0
0
0
0
0
0
0
0
0
0
0
0
0
0
0
0
0
0
0
0
0
0
0
0
0
0
0
0
0
0
0
0
0
0
0
0
0
0
0
0
0
0
0
0
0
0
0
0
0
0
0
0
0
0
0
0
0
0
0
0
0
0
0
0
0
0
0
0
0
0
0
0
1
2
0
0
2
1
1
3
1
2
0
0
0
2
2
0
2
0
1
3
0
1
2
3
4
1
4
4
3
1
0
0
3
2
5
3
2
0
3
4
2
3
2
0
4
4
3
4
1
4
5
3
1
6
7
6
5
2
1
3
6
4
1
2
3
3
4
6
6
2
6
11
5
0
1
7
10
2
7
7
9
10
7
4
7
11
16
11
5
8
8
4
4
6
2
4
3
8
3
7
3
1
3
2
4
4
3
2
2
5
1
5
5
3
5
2
1
4
2
1
3
2
2
2
0
1
5
4
4
2
0
0
1
3
0
0
0
0
0
0
0
0
0
0
0
0
0
0
0
0
0
0
0
0
0
0
0
0
0
0
0
0
0
0
0
0
0
0
0
0
0
0
0
0
0
0
0

0
0
0
0
0
0
0
0
0
0
0
0
0
0
0
0
0
0
0
0
0
0
0
0
0
0
0
0
0
0
0
0
0
0
0
0
0
0
0
0
0
0
0
0
0
0
0
0
0
0
0
0
0
0
0
0
0
0
0
0
0
0
0
0
0
0
0
0
0
0
0
0
0
0
0
0
0
0
1
2
0
2
2
3
3
2
1
2
1
0
2
4
1
2
1
0
4
3
1
1
6
5
2
2
3
3
1
3
1
0
0
1
2
6
4
3
4
2
4
0
3
2
1
8
5
6
6
1
3
5
2
5
6
5
4
1
2
1
3
9
12
7
5
3
8
5
5
8
13
16
10
14
9
17
22
15
24
14
7
12
20
18
13
2
1
5
2
3
3
7
12
5
3
5
6
8
7
2
4
5
5
2
4
0
2
3
0
2
2
3
1
3
4
3
5
2
2
3
2
1
5
1
2
2
1
1
4
2
4
1
4
2
1
1
0
0
0
0
0
0
0
0
0
0
0
0
0
0
0
0
0
0
0
0
0
0
0
0
0
0
0
0
0
0
0
0
0
0
0
0
0
0
0
0
0
0

0
0
0
0
0
0
0
0
0
0
0
0
0
0
0
0
0
0
0
0
0
0
0
0
0
0
0
0
0
0
0
0
0
0
0
0
0
0
0
0
0
0
0
0
0
0
0
0
0
0
0
0
0
0
0
0
0
0
0
0
0
0
0
0
0
0
0
0
0
0
0
0
0
0
0
0
0
0
0
2
2
2
2
1
2
4
0
2
2
0
2
1
0
2
0
1
0
4
2
1
2
6
2
3
3
0
2
3
0
2
3
1
3
1
4
2
6
1
1
4
3
3
2
5
2
2
2
1
6
10
9
12
11
3
11
16
11
2
2
13
26
27
10
21
23
36
48
50
41
31
62
38
79
118
111
66
76
71
75
89
92
74
62
44
25
29
23
16
21
26
17
10
3
8
12
4
4
8
6
5
5
6
4
5
6
3
1
3
2
2
2
3
2
6
5
3
2
2
2
2
5
3
5
1
2
4
6
2
4
2
0
1
1
1
0
0
0
0
0
0
0
0
0
0
0
0
0
0
0
0
0
0
0
0
0
0
0
0
0
0
0
0
0
0
0
0
0
0
0
0
0
0
0
0
0
0

0
0
0
0
0
0
0
0
0
0
0
0
0
0
0
0
0
0
0
0
0
0
0
0
0
0
0
0
0
0
0
0
0
0
0
0
0
0
0
0
0
0
0
0
0
0
0
0
0
0
0
0
0
0
0
0
0
0
0
0
0
0
0
0
0
0
0
0
0
0
0
0
0
0
0
0
0
1
0
2
2
2
2
1
1
1
1
1
3
2
5
3
4
3
4
3
1
1
2
2
3
2
1
4
2
2
3
4
0
3
1
1
1
3
3
1
3
2
0
3
5
7
1
10
10
17
30
36
43
51
41
40
43
38
39
40
33
45
50
84
94
70
58
60
82
103
110
107
99
107
129
129
175
197
168
157
166
192
196
206
210
185
161
122
147
149
129
118
122
100
78
28
9
19
19
9
8
14
12
9
1
5
0
4
6
4
2
2
2
1
1
2
5
5
4
2
1
4
3
3
0
2
2
2
2
2
1
1
1
2
1
2
1
1
1
0
0
0
0
0
0
0
0
0
0
0
0
0
0
0
0
0
0
0
0
0
0
0
0
0
0
0
0
0
0
0
0
0
0
0
0
0
0
0
0
0

0
0
0
0
0
0
0
0
0
0
0
0
0
0
0
0
0
0
0
0
0
0
0
0
0
0
0
0
0
0
0
0
0
0
0
0
0
0
0
0
0
0
0
0
0
0
0
0
0
0
0
0
0
0
0
0
0
0
0
0
0
0
0
0
0
0
0
0
0
0
0
0
0
0
0
0
0
0
0
1
0
2
3
3
2
3
2
1
4
0
5
0
3
2
5
1
2
2
3
4
1
4
1
4
1
3
5
5
0
1
1
3
2
4
5
8
4
5
2
7
9
15
26
31
31
48
57
60
58
62
48
47
49
51
47
47
53
63
61
57
61
68
65
53
48
69
74
72
68
64
54
76
109
115
106
100
113
119
134
150
138
159
178
199
245
255
236
222
239
235
213
106
105
97
73
53
27
22
16
13
8
2
6
9
0
12
6
2
5
3
4
8
1
5
4
2
1
3
5
2
4
4
5
2
2
4
3
2
3
2
2
1
1
1
2
0
0
0
0
0
0
0
0
0
0
0
0
0
0
0
0
0
0
0
0
0
0
0
0
0
0
0
0
0
0
0
0
0
0
0
0
0
0
0
0
0

0
0
0
0
0
0
0
0
0
0
0
0
0
0
0
0
0
0
0
0
0
0
0
0
0
0
0
0
0
0
0
0
0
0
0
0
0
0
0
0
0
0
0
0
0
0
0
0
0
0
0
0
0
0
0
0
0
0
0
0
0
0
0
0
0
2
0
0
0
2
3
2
2
3
2
4
4
4
2
4
3
2
3
6
3
1
1
1
1
3
4
3
3
3
2
4
1
1
2
2
3
2
0
1
0
1
4
3
3
5
2
6
6
3
6
16
23
20
32
41
41
41
35
35
44
44
40
37
28
32
32
25
18
17
34
26
12
11
13
28
25
12
24
37
30
33
46
38
38
53
37
13
45
44
48
36
64
71
65
83
67
84
77
54
103
134
166
167
171
187
191
168
206
224
198
156
115
94
67
42
28
4
10
12
7
6
5
0
6
2
3
2
3
0
2
6
7
1
5
1
2
5
1
3
3
3
1
3
3
3
4
3
4
2
4
1
1
0
1
2
3
1
2
0
0
0
0
0
0
0
0
0
0
0
0
0
0
0
0
0
0
0
0
0
0
0
0
0
0
0
0
0
0
0
0
0

0
0
0
0
0
0
0
0
0
0
0
0
0
0
0
0
0
0
0
0
0
0
0
0
0
0
0
0
0
0
0
0
0
0
0
0
0
0
0
0
0
0
0
0
0
0
0
0
0
0
0
0
0
0
0
0
0
0
0
0
0
0
0
0
1
1
2
0
2
2
2
2
2
1
5
5
2
4
1
2
1
2
1
1
7
2
4
2
3
2
7
2
2
1
0
1
1
2
5
1
1
0
2
3
0
2
8
1
4
8
2
6
15
33
29
49
41
37
46
35
31
18
20
34
26
24
16
34
19
6
20
15
6
4
16
20
17
19
18
31
22
17
29
29
35
42
52
39
42
66
43
35
55
54
72
62
69
66
73
79
71
85
92
51
90
79
78
110
111
124
105
127
173
183
200
203
204
187
198
112
43
22
17
5
10
9
6
9
6
3
4
3
0
6
6
4
3
2
5
0
1
1
0
1
5
1
3
4
2
2
2
8
2
6
5
4
2
2
2
3
1
0
0
1
1
0
1
0
0
0
0
0
0
0
0
0
0
0
0
0
0
0
0
0
0
0
0
0
0
0
0
0
0
0
0
0

0
0
0
0
0
0
0
0
0
0
0
0
0
0
0
0
0
0
0
0
0
0
0
0
0
0
0
0
0
0
0
0
0
0
0
0
0
0
0
0
0
0
0
0
0
0
0
0
0
0
0
0
0
0
0
0
0
0
0
0
0
0
0
1
1
2
1
1
2
1
1
4
1
0
3
4
3
0
2
0
3
2
2
2
3
1
0
1
1
4
4
3
0
3
3
8
0
1
3
1
3
0
4
5
3
2
0
6
0
13
36
44
42
47
44
44
30
21
21
16
21
24
22
26
14
23
19
31
28
30
34
40
44
41
46
51
53
58
59
65
62
51
64
74
84
83
75
72
87
90
100
111
112
130
121
127
117
117
110
114
116
122
76
69
80
71
57
87
93
115
121
72
112
115
123
139
162
168
202
155
130
107
65
35
27
13
9
9
11
8
6
2
7
5
4
5
6
2
5
2
5
2
2
2
3
2
2
2
0
2
3
6
1
1
4
3
5
5
1
5
0
1
2
1
1
0
0
0
0
0
0
0
0
0
0
0
0
0
0
0
0
0
0
0
0
0
0
0
0
0
0
0
0
0
0
0

0
0
0
0
0
0
0
0
0
0
0
0
0
0
0
0
0
0
0
0
0
0
0
0
0
0
0
0
0
0
0
0
0
0
0
0
0
0
0
0
0
0
0
0
0
0
0
0
0
0
0
0
0
0
0
0
0
0
0
0
0
0
0
0
1
1
1
0
2
1
0
1
2
1
5
3
3
4
2
6
0
3
1
5
2
1
4
5
4
1
1
0
1
3
3
2
3
3
3
2
1
4
2
2
5
1
4
19
29
42
49
46
38
31
34
25
24
25
14
15
24
22
21
29
34
39
49
51
61
71
76
77
78
70
71
83
89
87
90
90
93
97
100
109
114
115
116
112
119
124
140
142
151
167
141
145
156
168
162
182
190
167
166
161
156
125
111
96
80
99
86
56
78
79
100
102
113
98
131
138
148
181
171
145
114
55
18
13
9
16
16
11
3
4
5
2
1
4
3
1
2
1
2
1
3
2
3
5
4
3
4
2
4
5
6
2
7
2
3
2
3
1
3
1
0
1
0
0
0
0
0
0
0
0
0
0
0
0
0
0
0
0
0
0
0
0
0
0
0
0
0
0
0
0
0
0

0
0
0
0
0
0
0
0
0
0
0
0
0
0
0
0
0
0
0
0
0
0
0
0
0
0
0
0
0
0
0
0
0
0
0
0
0
0
0
0
0
0
0
0
0
0
0
0
0
0
0
0
0
0
0
0
0
0
0
0
0
0
1
1
0
1
1
2
0
4
5
2
3
4
3
4
2
2
1
4
3
3
1
3
3
0
2
2
2
0
3
4
2
2
1
3
5
5
6
4
1
2
6
2
8
7
39
46
45
42
38
24
25
18
18
19
20
17
20
44
43
45
54
59
65
65
72
64
63
67
56
36
34
38
42
69
65
49
39
41
49
47
46
53
50
46
55
60
54
56
54
51
53
58
48
59
81
97
104
107
133
145
170
203
210
191
186
182
182
158
120
112
106
88
71
90
121
106
78
96
90
112
157
173
176
133
83
54
31
23
13
7
3
2
1
3
1
1
2
1
3
5
6
4
3
1
1
3
5
4
2
2
2
2
5
4
3
0
3
1
3
0
3
0
0
0
0
0
0
0
0
0
0
0
0
0
0
0
0
0
0
0
0
0
0
0
0
0
0
0
0
0
0
0
0
0

0
0
0
0
0
0
0
0
0
0
0
0
0
0
0
0
0
0
0
0
0
0
0
0
0
0
0
0
0
0
0
0
0
0
0
0
0
0
0
0
0
0
0
0
0
0
0
0
0
0
0
0
0
0
0
0
0
0
0
0
0
1
1
0
1
1
2
3
5
0
6
0
0
4
0
3
4
2
3
3
4
1
3
3
1
2
4
6
2
2
1
2
0
1
3
1
4
2
2
6
5
3
10
24
32
32
53
38
27
33
28
25
24
22
24
34
33
47
70
78
60
63
62
53
47
39
34
25
19
11
9
14
11
14
14
8
10
9
3
10
11
14
3
7
4
10
14
21
24
26
24
27
46
34
24
23
34
41
24
15
22
9
16
28
55
84
105
168
213
213
185
200
191
162
118
75
59
68
63
81
81
64
97
112
131
162
166
171
110
49
26
12
8
17
10
4
1
3
1
4
2
3
2
3
0
4
2
2
2
1
2
4
3
1
0
7
3
3
1
3
2
0
1
0
0
0
0
0
0
0
0
0
0
0
0
0
0
0
0
0
0
0
0
0
0
0
0
0
0
0
0
0
0
0
0
0

0
0
0
0
0
0
0
0
0
0
0
0
0
0
0
0
0
0
0
0
0
0
0
0
0
0
0
0
0
0
0
0
0
0
0
0
0
0
0
0
0
0
0
0
0
0
0
0
0
0
0
0
0
0
0
0
0
0
0
0
0
0
1
0
1
0
2
1
3
3
2
3
0
1
2
2
4
1
2
2
6
2
5
1
2
3
3
4
3
2
5
2
4
3
2
2
3
2
11
5
11
36
50
49
36
30
27
16
15
26
21
22
28
33
48
63
60
62
56
41
31
22
8
0
3
10
8
21
29
37
48
21
3
6
11
26
46
45
36
45
36
25
45
64
77
68
57
88
83
76
70
57
91
102
88
106
122
133
113
102
115
115
118
126
113
96
53
26
27
91
128
165
187
195
191
166
130
110
107
96
84
80
108
90
75
98
138
164
166
180
102
35
22
13
3
12
13
3
2
3
7
5
2
4
3
4
0
3
0
2
6
1
1
3
3
6
0
1
5
1
0
2
0
1
1
0
0
0
0
0
0
0
0
0
0
0
0
0
0
0
0
0
0
0
0
0
0
0
0
0
0
0
0
0
0
0

0
0
0
0
0
0
0
0
0
0
0
0
0
0
0
0
0
0
0
0
0
0
0
0
0
0
0
0
0
0
0
0
0
0
0
0
0
0
0
0
0
0
0
0
0
0
0
0
0
0
0
0
0
0
0
0
0
0
0
0
0
0
0
1
3
1
1
0
1
5
0
1
1
2
2
1
5
3
2
4
4
3
4
1
3
3
2
2
3
2
1
3
2
3
6
2
7
7
28
47
38
47
48
41
30
16
18
15
27
26
31
46
54
58
62
48
38
19
8
17
22
18
31
22
41
61
53
57
65
61
23
10
4
16
52
81
77
63
56
51
67
73
73
85
74
42
31
53
38
34
31
30
51
51
47
82
91
111
124
127
148
158
170
166
165
151
151
178
139
81
64
30
19
60
123
171
194
202
188
152
109
95
79
83
97
65
74
104
127
159
141
145
97
38
12
15
16
15
6
2
5
2
1
2
4
0
3
3
2
0
2
3
3
2
2
3
1
0
1
1
2
2
2
2
1
1
0
0
0
0
0
0
0
0
0
0
0
0
0
0
0
0
0
0
0
0
0
0
0
0
0
0
0
0
0
0

0
0
0
0
0
0
0
0
0
0
0
0
0
0
0
0
0
0
0
0
0
0
0
0
0
0
0
0
0
0
0
0
0
0
0
0
0
0
0
0
0
0
0
0
0
0
0
0
0
0
0
0
0
0
0
0
0
0
0
0
0
0
1
1
0
0
1
2
1
1
1
3
3
2
1
2
0
1
1
3
1
1
1
2
2
2
1
1
6
0
3
3
5
1
5
2
18
35
55
54
34
17
12
28
27
23
28
39
50
48
63
70
57
36
19
6
16
32
38
57
62
63
77
63
77
81
56
52
52
31
12
8
4
19
39
56
46
44
45
41
47
40
31
35
23
18
19
29
12
19
23
14
18
33
33
47
73
75
64
83
81
73
100
107
135
153
178
172
157
163
163
158
124
99
60
9
78
124
160
175
177
144
110
68
71
68
69
60
55
73
102
148
150
178
140
64
24
11
10
8
5
1
4
2
4
4
1
1
3
4
4
3
4
1
0
0
5
4
1
1
3
2
2
1
1
1
1
0
0
0
0
0
0
0
0
0
0
0
0
0
0
0
0
0
0
0
0
0
0
0
0
0
0
0
0
0

0
0
0
0
0
0
0
0
0
0
0
0
0
0
0
0
0
0
0
0
0
0
0
0
0
0
0
0
0
0
0
0
0
0
0
0
0
0
0
0
0
0
0
0
0
0
0
0
0
0
0
0
0
0
0
0
0
0
0
0
0
0
0
2
0
1
0
1
2
1
2
3
2
2
0
2
1
1
3
4
4
2
3
4
0
3
1
0
3
0
6
5
3
9
8
37
56
53
50
31
18
21
22
32
32
45
52
73
66
49
47
21
9
13
28
38
54
66
67
56
74
71
61
77
99
86
48
35
16
8
5
0
5
7
18
29
21
22
22
9
11
20
21
25
20
10
7
12
13
12
20
22
13
12
19
32
35
40
34
33
37
44
46
43
60
113
149
149
155
167
167
198
152
132
171
136
96
58
10
59
125
170
177
150
103
78
59
52
83
87
63
108
102
147
186
177
106
44
9
14
8
3
1
1
6
4
3
0
5
4
1
3
5
6
4
6
2
5
5
3
1
1
1
2
2
1
0
0
0
0
0
0
0
0
0
0
0
0
0
0
0
0
0
0
0
0
0
0
0
0
0
0
0
0
0
0

0
0
0
0
0
0
0
0
0
0
0
0
0
0
0
0
0
0
0
0
0
0
0
0
0
0
0
0
0
0
0
0
0
0
0
0
0
0
0
0
0
0
0
0
0
0
0
0
0
0
0
0
0
0
0
0
0
0
0
0
1
0
0
3
2
1
1
2
2
1
3
2
2
6
2
5
3
3
4
0
6
5
1
0
2
3
1
2
4
7
2
9
2
21
51
63
61
41
36
33
24
29
41
52
60
75
68
54
25
11
20
33
47
66
66
62
69
73
84
66
79
85
63
87
97
92
44
20
7
6
6
9
15
25
23
7
25
21
17
10
12
15
14
25
44
42
51
61
57
54
60
73
82
74
65
51
26
16
25
30
26
21
33
37
44
56
71
96
164
173
141
129
116
138
152
157
163
161
135
72
24
56
131
176
171
153
112
72
70
74
73
67
86
115
121
159
184
165
100
18
16
10
1
8
4
2
3
1
4
1
5
2
3
3
2
5
3
2
1
6
3
3
2
2
0
0
0
0
1
0
0
0
0
0
0
0
0
0
0
0
0
0
0
0
0
0
0
0
0
0
0
0
0
0
0
0

0
0
0
0
0
0
0
0
0
0
0
0
0
0
0
0
0
0
0
0
0
0
0
0
0
0
0
0
0
0
0
0
0
0
0
0
0
0
0
0
0
0
0
0
0
0
0
0
0
0
0
0
0
0
0
0
0
0
0
1
1
0
1
2
0
1
1
2
1
4
2
2
3
5
3
5
3
6
0
4
4
2
5
5
3
0
5
2
3
3
5
9
37
50
56
44
31
26
27
31
36
56
71
82
62
36
22
5
19
48
57
67
73
80
74
64
60
66
86
72
74
76
51
42
51
49
24
15
8
15
10
16
29
28
60
44
22
16
33
56
60
63
84
97
95
70
59
47
43
44
55
65
77
96
105
121
122
108
124
120
80
53
20
18
45
38
52
62
72
78
73
71
73
106
99
122
154
161
166
137
98
64
12
58
129
186
175
134
99
74
73
78
50
72
107
116
137
178
201
145
53
15
20
3
4
2
4
1
4
2
5
1
1
0
2
1
5
3
1
2
3
3
0
4
3
1
0
0
0
0
0
0
0
0
0
0
0
0
0
0
0
0
0
0
0
0
0
0
0
0
0
0
0
0
0
0

0
0
0
0
0
0
0
0
0
0
0
0
0
0
0
0
0
0
0
0
0
0
0
0
0
0
0
0
0
0
0
0
0
0
0
0
0
0
0
0
0
0
0
0
0
0
0
0
0
0
0
0
0
0
0
0
0
1
2
1
0
2
1
0
2
5
1
3
2
1
4
1
3
2
4
4
1
1
3
3
2
1
1
1
1
5
2
3
1
11
20
56
71
61
41
21
24
27
33
53
76
81
66
39
14
9
27
47
67
73
73
84
78
78
90
84
64
59
38
43
40
26
19
21
11
16
17
10
4
18
55
65
47
79
96
83
65
56
59
65
57
47
54
51
35
26
25
18
23
28
32
33
48
66
69
109
119
96
94
89
96
99
58
85
61
9
17
36
37
43
35
33
49
54
85
120
146
111
88
76
76
122
107
52
12
53
118
178
182
134
80
54
63
75
57
126
151
128
157
199
155
64
12
11
5
3
3
2
2
4
6
1
3
1
3
2
2
3
4
3
1
1
3
0
0
2
0
2
1
1
1
1
1
0
0
0
0
0
0
0
0
0
0
0
0
0
0
0
0
0
0
0
0
0
0
0

0
0
0
0
0
0
0
0
0
0
0
0
0
0
0
0
0
0
0
0
0
0
0
0
0
0
0
0
0
0
0
0
0
0
0
0
0
0
0
0
0
0
0
0
0
0
0
0
0
0
0
0
0
0
0
0
1
2
1
3
2
4
1
3
1
0
2
5
2
0
3
2
0
3
1
2
2
2
3
2
2
1
3
1
3
3
3
14
28
29
43
68
52
44
37
32
43
47
76
83
70
37
3
9
31
58
77
89
71
63
72
87
81
67
46
44
28
28
16
18
6
16
20
17
12
8
23
35
45
51
68
46
43
41
32
31
28
21
13
6
7
18
19
19
17
23
37
41
34
27
26
25
38
52
66
93
85
41
40
59
77
79
49
68
92
100
83
54
12
4
21
16
24
32
58
87
91
91
129
87
81
127
161
179
109
67
24
78
158
182
141
107
80
86
47
74
109
99
124
144
185
122
46
7
6
6
5
4
1
6
5
3
0
4
2
0
1
3
2
3
2
2
2
1
0
2
2
3
1
1
2
2
1
1
0
0
0
0
0
0
0
0
0
0
0
0
0
0
0
0
0
0
0
0
0
0

0
0
0
0
0
0
0
0
0
0
0
0
0
0
0
0
0
0
0
0
0
0
0
0
0
0
0
0
0
0
0
0
0
0
0
0
0
0
0
0
0
0
0
0
0
0
0
0
0
0
0
0
0
0
0
0
0
2
0
1
1
3
1
4
0
2
1
2
1
2
4
4
1
2
3
6
2
4
1
3
0
2
4
3
7
8
6
28
62
70
62
56
31
32
35
50
77
90
81
46
11
3
36
83
83
79
78
78
70
73
64
62
44
34
25
21
6
4
5
2
1
11
26
34
44
60
64
45
40
40
38
19
17
14
14
14
14
14
18
15
19
26
26
24
22
23
28
39
34
25
22
23
24
21
37
57
55
44
47
57
60
59
52
41
40
61
96
125
87
75
61
25
35
19
48
70
58
102
149
133
124
138
165
200
160
126
122
50
30
106
181
177
108
83
65
72
118
83
117
127
139
148
121
51
10
6
3
6
4
1
1
4
3
2
2
1
1
0
1
2
2
3
4
1
0
5
2
2
0
3
3
0
0
0
0
0
0
0
0
0
0
0
0
0
0
0
0
0
0
0
0
0
0
0
0
0

0
0
0
0
0
0
0
0
0
0
0
0
0
0
0
0
0
0
0
0
0
0
0
0
0
0
0
0
0
0
0
0
0
0
0
0
0
0
0
0
0
0
0
0
0
0
0
0
0
0
0
0
0
0
0
0
1
1
0
1
0
2
2
2
1
4
2
6
3
1
0
3
4
2
6
5
0
3
2
3
5
3
4
3
6
13
54
81
62
34
23
33
39
46
65
89
83
55
23
7
41
71
88
104
95
76
85
68
67
47
28
21
14
9
7
12
6
21
39
47
56
60
61
56
45
36
24
13
13
16
26
27
16
20
21
23
23
21
17
26
35
17
11
18
23
20
11
25
30
36
35
37
40
28
12
16
30
37
33
29
33
35
40
53
53
45
51
75
101
123
133
77
24
32
22
54
80
104
97
107
112
124
155
154
177
162
144
102
91
37
76
142
168
129
102
98
105
107
94
105
111
128
153
145
65
7
17
3
5
6
3
1
3
1
1
2
2
2
1
4
1
3
1
3
2
3
5
3
5
1
3
1
1
1
0
0
0
0
0
0
0
0
0
0
0
0
0
0
0
0
0
0
0
0
0
0

0
0
0
0
0
0
0
0
0
0
0
0
0
0
0
0
0
0
0
0
0
0
0
0
0
0
0
0
0
0
0
0
0
0
0
0
0
0
0
0
0
0
0
0
0
0
0
0
0
0
0
0
0
0
0
0
1
0
1
1
0
2
2
4
3
1
0
3
5
4
1
4
2
2
0
3
1
2
4
2
4
4
4
8
26
83
90
59
39
27
23
37
68
90
95
79
37
11
36
64
60
74
92
83
75
59
69
37
28
27
12
7
12
12
25
43
54
62
62
56
43
22
16
11
10
12
9
18
19
10
16
21
19
12
10
14
11
19
21
19
34
12
1
15
22
17
18
17
25
41
60
80
79
75
59
43
34
28
24
27
32
33
37
37
39
38
41
50
82
99
108
91
62
48
36
32
52
62
74
78
88
136
146
151
155
159
151
142
146
105
36
51
132
176
143
99
55
87
103
61
94
113
93
154
144
78
11
14
4
3
6
1
0
4
4
1
4
5
1
1
3
1
2
0
2
1
0
3
2
2
1
1
1
1
0
0
0
0
0
0
0
0
0
0
0
0
0
0
0
0
0
0
0
0
0
0

0
0
0
0
0
0
0
0
0
0
0
0
0
0
0
0
0
0
0
0
0
0
0
0
0
0
0
0
0
0
0
0
0
0
0
0
0
0
0
0
0
0
0
0
0
0
0
0
0
0
0
0
0
0
0
1
1
2
2
1
1
4
2
2
4
2
5
4
1
2
1
4
3
1
3
6
2
5
3
4
5
8
9
52
68
82
43
37
43
51
63
87
105
92
54
12
22
59
83
81
68
65
69
47
46
25
25
7
7
10
12
22
39
51
54
52
32
20
14
9
11
11
12
9
12
12
11
15
20
17
14
14
18
14
18
15
10
18
18
19
33
36
35
35
25
16
19
13
29
61
95
114
111
114
101
74
53
39
18
22
33
35
40
33
31
28
27
33
51
82
86
87
91
131
79
14
33
33
52
64
61
118
133
152
135
128
147
137
145
136
112
47
47
143
180
126
59
82
91
62
61
88
97
110
163
170
88
2
14
5
1
2
5
4
1
4
1
1
2
2
4
1
1
3
2
3
3
2
1
1
2
1
0
1
1
0
0
0
0
0
0
0
0
0
0
0
0
0
0
0
0
0
0
0
0
0

0
0
0
0
0
0
0
0
0
0
0
0
0
0
0
0
0
0
0
0
0
0
0
0
0
0
0
0
0
0
0
0
0
0
0
0
0
0
0
0
0
0
0
0
0
0
0
0
0
0
0
0
0
0
1
1
0
1
0
2
1
4
4
5
4
2
1
2
3
3
0
3
1
3
3
2
1
5
6
6
6
17
66
96
80
52
32
49
46
68
102
108
76
41
11
73
95
85
94
76
74
47
25
32
22
6
11
12
18
32
53
59
45
26
16
8
4
7
15
12
15
19
12
7
14
18
9
3
10
16
11
15
13
17
22
19
12
14
31
55
69
78
87
83
70
49
20
17
41
84
112
114
111
114
111
95
69
45
28
18
25
30
50
76
92
91
65
40
27
47
68
57
52
92
129
81
6
22
35
43
36
70
121
133
98
72
104
137
149
140
125
117
61
71
147
167
113
77
76
86
64
59
89
127
135
157
181
117
19
20
7
1
1
4
1
3
2
1
2
1
2
3
0
2
2
1
2
1
2
3
0
1
3
1
1
0
0
0
0
0
0
0
0
0
0
0
0
0
0
0
0
0
0
0
0
0

0
0
0
0
0
0
0
0
0
0
0
0
0
0
0
0
0
0
0
0
0
0
0
0
0
0
0
0
0
0
0
0
0
0
0
0
0
0
0
0
0
0
0
0
0
0
0
0
0
0
0
0
0
1
1
0
1
1
2
2
2
1
7
3
2
2
4
3
0
5
1
2
2
4
5
2
2
4
3
11
22
65
91
65
58
29
42
51
59
100
96
49
6
32
91
128
94
59
67
44
42
22
19
6
9
11
27
53
63
50
42
19
5
7
12
18
17
17
20
15
9
7
10
9
20
30
24
13
11
8
12
15
8
13
17
17
19
38
65
88
90
88
90
90
87
79
39
26
46
86
111
109
111
108
113
104
84
53
34
25
36
63
105
138
142
143
130
88
40
31
41
32
21
22
55
124
122
42
19
22
24
41
86
129
82
60
94
127
139
149
110
123
112
38
81
153
151
92
54
75
97
73
68
100
110
110
152
181
99
13
19
9
2
4
3
5
1
3
7
1
7
5
3
3
4
4
4
5
4
5
1
1
1
1
0
0
0
0
0
0
0
0
0
0
0
0
0
0
0
0
0
0
0
0
0
0

0
0
0
0
0
0
0
0
0
0
0
0
0
0
0
0
0
0
0
0
0
0
0
0
0
0
0
0
0
0
0
0
0
0
0
0
0
0
0
0
0
0
0
0
0
0
0
0
0
0
0
0
0
0
0
1
0
0
1
1
1
1
3
3
3
2
3
3
2
3
2
3
5
1
1
4
2
3
8
11
68
95
65
41
39
29
61
82
101
86
27
14
74
101
105
72
33
47
36
20
12
4
9
21
34
59
62
46
27
11
11
16
18
18
13
11
12
10
13
12
14
19
21
16
25
29
29
21
11
10
20
23
30
33
28
29
47
64
77
83
88
97
90
84
92
88
53
28
45
86
106
111
128
130
117
111
101
70
41
41
76
118
134
141
145
144
144
129
69
42
31
35
33
38
40
57
103
121
85
22
12
27
45
100
75
82
83
75
113
138
112
116
143
126
52
97
154
146
94
58
83
129
109
102
80
94
112
150
166
97
15
15
5
6
2
4
1
1
2
3
4
0
2
2
2
1
4
0
4
3
1
1
1
1
0
0
1
0
0
0
0
0
0
0
0
0
0
0
0
0
0
0
0
0
0
0

0
0
0
0
0
0
0
0
0
0
0
0
0
0
0
0
0
0
0
0
0
0
0
0
0
0
0
0
0
0
0
0
0
0
0
0
0
0
0
0
0
0
0
0
0
0
0
0
0
0
0
0
0
0
1
1
0
2
1
4
1
1
3
1
4
3
2
4
2
2
3
4
1
4
3
1
3
7
27
78
102
67
50
48
34
75
111
113
72
18
23
88
105
59
35
25
16
8
13
10
16
31
51
59
51
34
19
17
21
17
21
23
24
17
8
7
12
15
20
21
14
20
22
19
28
30
28
24
15
9
29
48
61
69
68
62
71
75
83
88
104
117
109
98
100
91
63
33
45
87
102
110
139
150
129
110
108
91
64
68
111
140
132
136
148
145
141
145
97
45
39
31
36
38
46
47
21
57
92
89
74
11
24
41
44
54
59
69
92
105
100
110
109
135
139
66
114
170
140
96
57
77
148
116
86
65
97
106
149
166
92
5
14
9
2
4
4
4
3
3
0
4
4
1
3
4
4
0
6
1
1
1
0
1
1
1
0
0
0
0
0
0
0
0
0
0
0
0
0
0
0
0
0
0
0
0

0
0
0
0
0
0
0
0
0
0
0
0
0
0
0
0
0
0
0
0
0
0
0
0
0
0
0
0
0
0
0
0
0
0
0
0
0
0
0
0
0
0
0
0
0
0
0
0
0
0
0
0
0
1
1
1
1
0
1
3
3
1
0
2
2
3
3
1
5
2
6
2
1
1
1
6
6
8
68
92
77
46
36
45
76
119
114
50
18
66
84
67
19
16
9
5
5
8
18
38
48
55
40
25
19
15
17
26
30
34
29
14
18
23
17
22
25
32
43
41
30
25
29
32
30
31
25
28
20
23
52
72
74
75
88
83
82
78
84
106
118
120
123
111
95
93
83
43
34
80
101
102
127
146
143
122
111
104
88
91
122
135
138
152
160
153
144
150
117
57
44
31
35
42
63
99
91
44
28
58
106
109
59
6
28
34
44
60
70
77
65
63
59
83
108
122
48
103
166
142
62
39
105
127
83
61
75
98
106
151
148
82
3
11
8
0
3
5
5
2
2
3
0
0
4
0
1
4
3
2
3
1
0
1
0
0
0
0
0
0
0
0
0
0
0
0
0
0
0
0
0
0
0
0
0
0

0
0
0
0
0
0
0
0
0
0
0
0
0
0
0
0
0
0
0
0
0
0
0
0
0
0
0
0
0
0
0
0
0
0
0
0
0
0
0
0
0
0
0
0
0
0
0
0
0
0
0
0
0
0
0
1
2
2
1
4
2
2
3
3
5
5
2
6
0
5
4
0
0
1
4
3
8
65
91
74
48
31
60
90
124
100
32
40
63
51
26
11
9
6
9
14
31
50
53
41
33
18
14
11
14
21
20
30
42
52
53
44
20
17
22
31
53
64
66
62
56
42
29
29
36
36
24
28
28
51
72
79
79
74
81
87
84
82
96
120
121
119
128
119
100
90
86
54
25
57
91
100
118
139
147
143
123
111
111
110
122
131
148
163
167
164
147
147
124
70
42
38
45
90
140
140
147
118
54
23
40
92
137
103
34
10
29
28
31
50
39
41
65
61
74
123
146
72
119
152
117
68
64
78
95
88
79
68
100
121
160
165
93
6
6
3
2
7
3
6
1
1
2
1
0
2
1
6
1
3
2
1
2
0
1
1
0
0
0
0
0
0
0
0
0
0
0
0
0
0
0
0
0
0
0
0

0
0
0
0
0
0
0
0
0
0
0
0
0
0
0
0
0
0
0
0
0
0
0
0
0
0
0
0
0
0
0
0
0
0
0
0
0
0
0
0
0
0
0
0
0
0
0
0
0
0
0
0
1
1
0
1
3
2
2
4
0
3
4
4
2
7
5
4
4
6
1
1
5
4
9
14
62
101
83
53
38
63
96
126
101
34
47
63
25
13
6
5
6
29
46
52
45
35
19
15
28
19
21
23
26
29
38
56
62
63
68
62
34
17
34
50
67
70
62
58
61
60
40
22
34
35
28
32
45
65
77
80
87
90
90
88
88
98
115
122
121
121
127
124
107
94
82
63
32
34
71
98
108
126
144
148
142
130
120
117
126
139
156
169
165
161
146
135
119
79
45
38
69
124
147
147
149
143
93
40
27
28
69
123
119
64
27
10
24
28
24
39
43
60
70
88
119
111
34
110
159
114
59
74
64
83
97
67
67
94
112
176
153
45
21
3
1
4
0
3
5
3
4
0
1
2
2
3
0
1
3
1
0
0
0
0
1
0
0
0
0
0
0
0
0
0
0
0
0
0
0
0
0
0
0
0

0
0
0
0
0
0
0
0
0
0
0
0
0
0
0
0
0
0
0
0
0
0
0
0
0
0
0
0
0
0
0
0
0
0
0
0
0
0
0
0
0
0
0
0
0
0
1
0
0
1
0
0
2
1
0
1
3
2
3
2
1
3
0
2
2
5
1
0
5
4
3
4
5
3
2
54
90
97
57
40
55
95
125
91
14
44
44
7
18
10
19
54
62
58
44
21
10
9
15
17
17
18
29
47
58
59
64
66
57
67
72
63
47
28
44
66
68
70
78
70
65
69
60
36
21
29
32
39
62
73
77
83
95
98
98
97
106
109
117
123
122
120
130
135
111
97
91
76
42
17
42
83
96
108
137
149
150
150
135
129
142
153
157
162
163
151
141
137
117
83
43
35
91
135
140
161
164
152
112
49
34
33
24
44
116
122
105
76
34
10
20
30
35
48
66
61
86
82
76
27
131
164
101
79
74
41
73
89
76
59
85
126
159
134
45
6
4
1
5
3
1
1
4
2
3
4
2
3
2
1
1
1
1
0
1
1
0
0
0
0
0
0
0
0
0
0
0
0
0
0
0
0
0
0
0
0

0
0
0
0
0
0
0
0
0
0
0
0
0
0
0
0
0
0
0
0
0
0
0
0
0
0
0
0
0
0
0
0
0
0
0
0
0
0
0
0
0
0
0
0
0
0
1
1
0
1
1
2
0
1
1
4
1
4
2
2
3
1
3
2
4
5
2
1
2
1
4
1
4
4
54
97
99
59
33
65
93
116
93
38
73
51
3
13
18
47
72
66
45
46
23
9
12
13
16
10
9
25
53
65
68
68
62
60
69
84
75
63
48
33
52
72
74
78
91
92
78
70
70
52
29
26
33
51
68
74
82
89
99
105
107
116
121
117
118
125
115
108
119
131
115
98
90
81
61
37
21
54
90
102
122
148
154
155
153
149
153
159
159
153
156
152
147
134
116
85
45
50
99
130
157
173
166
153
123
62
29
31
41
25
43
104
122
103
84
49
14
27
25
36
55
58
56
40
11
57
33
144
149
79
86
71
61
97
94
64
66
96
138
183
111
13
10
5
2
3
2
2
3
4
3
3
1
6
2
3
1
2
2
1
2
1
0
1
1
0
0
0
0
0
0
0
0
0
0
0
0
0
0
0
0
0

0
0
0
0
0
0
0
0
0
0
0
0
0
0
0
0
0
0
0
0
0
0
0
0
0
0
0
0
0
0
0
0
0
0
0
0
0
0
0
0
0
0
0
0
0
0
0
0
1
2
2
2
1
5
4
3
3
3
0
3
2
4
1
4
1
2
1
1
2
1
3
7
8
38
82
92
82
83
27
104
133
85
25
75
62
12
6
32
71
80
44
11
9
25
16
18
21
21
22
18
35
60
67
62
66
69
69
65
77
93
78
62
50
42
60
70
73
76
80
93
95
74
70
59
39
23
39
64
75
77
90
99
105
119
124
126
126
124
122
115
99
97
106
122
124
106
94
85
88
82
54
37
78
98
102
136
155
157
159
155
155
156
156
149
152
151
146
130
112
86
50
55
98
133
159
170
161
146
116
60
37
41
59
75
59
74
113
99
97
93
76
12
21
25
46
44
50
20
55
91
100
26
122
131
75
64
54
98
74
47
69
74
110
156
137
68
15
2
2
4
4
2
4
4
1
6
3
3
1
3
4
2
3
1
3
2
0
3
0
1
0
0
0
0
0
0
0
0
0
0
0
0
0
0
0
0

0
0
0
0
0
0
0
0
0
0
0
0
0
0
0
0
0
0
0
0
0
0
0
0
0
0
0
0
0
0
0
0
0
0
0
0
0
0
0
0
0
0
0
0
0
0
0
0
1
0
1
1
0
4
5
3
2
1
0
0
3
5
4
2
1
3
2
3
8
6
2
3
11
73
86
88
134
42
90
140
81
24
87
75
8
11
33
72
78
33
9
11
19
18
28
35
41
46
38
28
53
71
70
78
87
83
72
73
87
98
78
62
49
53
69
69
71
76
73
81
98
86
71
66
39
18
48
72
76
86
97
110
117
123
123
122
125
122
125
108
84
89
102
119
132
113
102
96
100
98
96
69
65
88
99
118
145
155
154
153
154
149
149
153
157
151
137
129
119
88
55
62
109
142
163
170
160
145
104
50
40
71
112
119
108
79
91
108
103
116
129
87
24
17
15
28
69
32
80
109
130
95
39
117
109
72
79
74
87
86
86
76
100
125
164
128
37
20
7
2
3
2
6
3
3
1
3
4
2
2
3
2
1
0
3
1
0
0
0
0
0
0
0
0
0
0
0
0
0
0
0
0
0
0
0
0

0
0
0
0
0
0
0
0
0
0
0
0
0
0
0
0
0
0
0
0
0
0
0
0
0
0
0
0
0
0
0
0
0
0
0
0
0
0
0
0
0
0
0
0
0
0
1
1
0
2
2
2
0
1
2
1
1
2
1
1
3
4
5
5
3
0
3
4
1
2
2
6
51
88
76
106
95
58
131
86
29
56
61
20
16
12
71
73
37
12
18
20
20
37
60
68
66
57
41
38
58
66
76
98
104
98
81
83
101
101
78
59
40
57
73
74
79
78
70
73
93
99
79
73
52
30
61
77
73
93
109
115
118
111
109
110
117
123
128
109
82
78
92
107
129
128
109
107
104
95
101
98
65
78
105
110
136
146
148
151
153
150
153
159
155
152
139
132
121
102
89
101
125
141
163
167
152
131
81
37
48
97
129
123
120
105
79
81
106
108
104
113
95
22
13
22
40
51
32
66
140
118
38
38
127
122
81
95
63
98
104
57
76
116
163
147
80
12
6
1
4
1
3
2
1
1
2
4
0
0
3
2
1
2
1
2
1
1
0
0
0
0
0
0
0
0
0
0
0
0
0
0
0
0
0
0

0
0
0
0
0
0
0
0
0
0
0
0
0
0
0
0
0
0
0
0
0
0
0
0
0
0
0
0
0
0
0
0
0
0
0
0
0
0
0
0
0
0
0
0
1
0
0
0
1
1
1
2
1
4
1
2
2
3
1
2
1
3
4
2
1
4
5
1
1
2
11
36
76
83
107
107
27
111
87
29
24
28
19
9
7
57
75
46
18
14
19
16
30
63
69
70
68
59
49
54
63
68
79
100
106
102
97
95
105
102
81
60
37
56
68
76
91
84
75
71
86
104
94
71
63
60
71
77
88
103
113
120
109
95
93
101
118
125
129
111
88
74
79
95
118
139
128
122
119
112
101
103
82
63
89
106
130
149
150
151
147
154
157
153
155
156
142
140
126
119
119
125
137
154
161
157
137
111
60
28
57
106
117
121
118
121
109
80
65
73
82
95
113
82
17
4
20
35
21
22
78
109
69
24
69
150
117
98
85
106
107
68
49
108
132
153
119
37
15
4
6
4
3
2
5
2
3
3
4
1
2
4
3
1
4
3
0
1
0
0
0
0
0
0
0
0
0
0
0
0
0
0
0
0
0
0

0
0
0
0
0
0
0
0
0
0
0
0
0
0
0
0
0
0
0
0
0
0
0
0
0
0
0
0
0
0
0
0
0
0
0
0
0
0
0
0
0
0
0
0
1
1
1
1
3
1
0
1
4
6
3
3
1
4
2
3
1
4
2
5
5
5
4
3
6
6
25
71
90
101
143
35
105
94
24
24
22
12
9
7
42
69
51
19
18
19
18
15
51
67
65
73
73
68
55
54
54
64
73
95
108
107
109
107
111
108
86
64
49
60
69
80
99
97
85
74
81
106
107
83
71
70
77
94
105
114
120
111
94
85
80
97
115
120
130
120
92
79
71
81
103
127
141
135
133
131
112
104
94
71
73
100
128
151
153
153
144
153
153
147
160
159
146
144
141
132
132
139
159
169
165
145
124
96
47
32
70
104
125
140
124
117
116
116
86
62
59
66
104
113
62
22
14
11
7
20
62
94
109
42
8
93
158
114
109
104
106
65
55
92
108
148
137
57
18
3
1
4
2
3
3
4
2
1
2
1
3
1
0
3
3
3
2
0
2
1
0
0
0
0
0
0
0
0
0
0
0
0
0
0
0
0

0
0
0
0
0
0
0
0
0
0
0
0
0
0
0
0
0
0
0
0
0
0
0
0
0
0
0
0
0
0
0
0
0
0
0
0
0
0
0
0
0
0
0
0
0
1
2
1
1
1
0
2
1
0
3
2
1
1
3
3
3
3
3
2
2
2
1
5
6
6
66
86
101
131
74
87
105
34
13
12
9
36
45
37
30
34
18
19
17
17
9
28
63
72
76
88
86
75
61
52
50
56
70
95
109
114
116
113
112
114
102
70
57
66
75
94
109
107
92
84
95
111
114
110
95
90
104
115
117
124
119
92
78
77
77
94
113
122
126
127
99
83
80
71
88
111
134
142
141
139
124
104
100
91
78
94
116
146
156
150
151
150
148
148
158
158
153
152
154
154
158
164
168
165
160
131
117
78
38
38
80
105
130
153
139
120
118
123
127
97
47
46
67
117
115
31
20
12
9
51
93
100
104
88
25
28
137
145
111
85
113
100
62
80
108
140
154
89
11
14
4
1
6
4
0
2
2
1
4
3
1
2
0
4
1
0
2
2
2
0
0
0
0
0
0
0
0
0
0
0
0
0
0
0
0
0

0
0
0
0
0
0
0
0
0
0
0
0
0
0
0
0
0
0
0
0
0
0
0
0
0
0
0
0
0
0
0
0
0
0
0
0
0
0
0
0
0
0
0
0
0
1
0
1
1
0
2
2
1
2
7
7
2
3
9
2
1
5
3
1
2
3
0
1
8
50
92
110
133
83
70
93
46
50
41
23
46
55
58
37
12
5
10
21
17
19
15
34
63
70
77
105
99
81
70
59
51
56
76
96
108
114
116
113
106
108
110
97
82
81
91
108
110
110
110
99
106
116
118
120
118
118
122
117
125
127
110
91
75
70
80
90
116
123
123
128
117
92
89
79
82
100
120
140
141
142
136
111
105
95
88
94
110
141
155
150
149
149
148
149
150
155
157
155
158
165
165
167
162
159
144
123
102
62
36
40
84
113
138
157
143
128
135
128
123
120
81
42
35
68
129
110
24
18
32
67
74
96
93
115
56
8
73
145
109
91
64
110
99
74
68
120
161
116
36
20
2
3
3
2
4
2
4
6
2
1
2
1
1
4
0
1
1
2
1
0
1
0
0
0
0
0
0
0
0
0
0
0
0
0
0
0

0
0
0
0
0
0
0
0
0
0
0
0
0
0
0
0
0
0
0
0
0
0
0
0
0
0
0
0
0
0
0
0
0
0
0
0
0
0
0
0
0
0
0
0
1
0
0
0
1
3
3
3
1
0
6
4
1
0
2
5
2
5
3
2
6
7
4
6
30
76
121
135
114
41
102
58
61
137
87
15
26
17
8
19
9
15
19
16
18
17
17
28
58
71
82
111
105
86
72
60
50
56
67
92
111
113
111
110
107
107
112
119
115
107
110
116
110
113
116
110
112
115
117
111
114
123
121
116
123
123
105
93
75
63
83
87
99
109
121
126
128
109
89
88
84
87
106
130
139
137
138
121
106
98
84
96
116
134
152
150
147
151
142
133
134
146
155
155
155
157
157
158
165
148
128
122
84
50
48
60
94
119
145
157
139
132
141
138
131
117
86
50
33
26
80
138
76
9
26
59
68
100
102
118
101
22
21
128
133
87
30
75
119
55
76
106
154
146
59
14
1
6
5
4
5
3
3
4
2
1
3
3
2
3
1
0
1
1
1
0
1
1
0
0
0
0
0
0
0
0
0
0
0
0
0
0

0
0
0
0
0
0
0
0
0
0
0
0
0
0
0
0
0
0
0
0
0
0
0
0
0
0
0
0
0
0
0
0
0
0
0
0
0
0
0
0
0
0
0
0
1
0
0
0
1
1
2
3
1
1
0
2
5
1
6
7
5
0
7
5
2
7
4
14
64
97
140
134
30
105
66
23
53
83
63
27
16
25
44
32
19
14
16
16
16
18
18
33
61
76
85
109
114
95
77
64
56
60
59
87
112
116
113
114
110
110
115
113
115
115
115
119
115
114
110
109
117
117
117
115
116
120
117
120
121
116
101
85
68
53
70
84
83
93
107
119
126
119
97
85
79
79
99
123
142
138
136
123
107
98
81
93
108
132
149
146
150
144
130
118
126
141
151
154
157
161
156
156
153
128
121
98
67
51
57
82
102
121
148
157
143
144
148
145
133
114
79
42
35
31
33
94
118
38
11
46
68
87
102
126
131
62
10
92
155
104
81
69
94
49
87
109
131
146
60
6
2
5
4
2
1
2
4
3
0
1
1
7
4
5
2
1
0
1
2
0
1
0
0
0
0
0
0
0
0
0
0
0
0
0
0
0

0
0
0
0
0
0
0
0
0
0
0
0
0
0
0
0
0
0
0
0
0
0
0
0
0
0
0
0
0
0
0
0
0
0
0
0
0
0
0
0
0
0
0
0
0
0
0
3
3
2
4
0
2
2
3
2
2
2
2
2
4
0
5
6
5
4
1
58
96
122
148
84
81
104
39
84
75
75
56
29
4
39
33
24
14
14
26
42
44
44
39
46
68
78
87
109
117
98
83
75
66
66
62
87
113
118
118
115
109
110
116
117
117
119
117
111
115
119
116
113
116
116
120
124
125
123
117
123
119
106
91
82
70
41
43
69
77
83
98
112
126
124
105
89
79
76
93
116
134
140
140
123
112
100
80
94
110
136
146
145
149
141
120
112
125
134
148
155
155
159
159
153
126
119
101
59
49
41
55
89
112
134
156
154
149
153
155
138
124
104
65
38
35
33
38
37
104
93
11
11
51
64
104
121
128
113
37
41
135
143
112
89
90
84
57
108
127
131
95
42
12
4
3
3
1
1
1
2
2
4
1
3
2
1
3
1
0
1
1
0
1
0
0
0
0
0
0
0
0
0
0
0
0
0
0
0

0
0
0
0
0
0
0
0
0
0
0
0
0
0
0
0
0
0
0
0
0
0
0
0
0
0
0
0
0
0
0
0
0
0
0
0
0
0
0
0
0
0
0
0
0
1
0
0
4
2
1
3
4
5
5
1
2
2
6
4
1
2
7
4
6
6
34
87
114
122
120
43
109
54
55
101
110
96
35
7
20
35
17
19
18
40
70
74
72
64
59
62
71
75
93
112
112
98
84
75
68
66
69
94
113
114
113
112
112
113
119
117
112
107
110
112
119
122
118
120
121
119
124
126
124
127
122
118
107
92
80
86
77
52
54
72
79
83
97
111
125
130
114
97
79
78
96
114
131
138
142
126
111
99
71
92
118
141
147
142
153
137
113
98
110
120
139
157
152
151
154
132
121
110
68
41
31
47
85
106
121
150
157
153
154
153
142
124
116
84
39
41
40
34
38
30
58
107
52
15
39
62
85
87
83
99
83
33
71
153
127
100
87
111
83
92
125
141
126
60
14
7
3
2
3
2
2
2
4
3
1
1
2
2
2
3
2
1
0
1
0
0
0
0
0
0
0
0
0
0
0
0
0
0
0
0

0
0
0
0
0
0
0
0
0
0
0
0
0
0
0
0
0
0
0
0
0
0
0
0
0
0
0
0
0
0
0
0
0
0
0
0
0
0
0
0
0
0
0
1
1
3
1
1
4
2
4
4
5
4
1
1
1
3
5
9
3
4
3
1
4
21
72
112
116
119
39
107
63
32
75
115
123
66
16
1
32
24
15
20
43
76
80
76
73
63
64
72
72
78
105
120
108
96
79
72
70
70
75
98
112
112
117
115
113
114
106
88
78
74
83
106
118
115
113
124
124
121
120
118
121
116
107
95
87
85
85
86
75
72
83
87
82
88
100
121
128
131
126
103
82
85
104
127
143
139
142
128
109
96
76
94
112
138
148
140
151
130
115
92
92
114
125
142
148
156
143
121
117
82
47
42
57
95
114
117
134
162
157
156
157
148
130
113
94
60
39
68
80
78
46
43
30
75
96
25
10
64
64
77
76
72
98
58
11
104
135
119
86
105
87
70
106
139
150
82
8
13
1
3
3
5
3
1
2
2
1
0
0
3
2
4
2
1
0
0
0
1
1
0
0
0
0
0
0
0
0
0
0
0
0
0

0
0
0
0
0
0
0
0
0
0
0
0
0
0
0
0
0
0
0
0
0
0
0
0
0
0
0
0
0
0
0
0
0
0
0
0
0
0
0
0
0
0
0
0
1
2
2
3
4
4
4
3
3
0
5
3
3
0
3
6
5
7
2
5
9
61
98
101
97
74
90
94
52
113
106
114
105
29
13
18
41
19
15
31
65
77
73
85
81
67
69
72
75
96
122
119
101
85
75
73
76
75
79
102
111
111
121
115
110
111
86
71
68
70
71
78
95
110
117
115
103
93
90
90
93
89
82
81
82
86
79
68
76
77
85
95
96
103
117
128
128
133
137
121
102
100
116
135
142
145
144
129
112
98
90
100
112
136
149
149
144
135
120
102
88
107
119
135
150
153
129
124
99
58
48
70
104
118
117
130
154
160
155
157
155
138
118
95
74
58
83
114
122
117
77
45
31
41
82
59
15
36
69
76
58
58
82
59
29
23
119
131
106
100
93
70
103
133
165
101
21
17
2
3
3
1
1
2
5
3
4
4
6
0
2
1
3
0
1
0
1
1
0
0
0
0
0
0
0
0
0
0
0
0
0
0

0
0
0
0
0
0
0
0
0
0
0
0
0
0
0
0
0
0
0
0
0
0
0
0
0
0
0
0
0
0
0
0
0
0
0
0
0
0
0
0
0
0
0
0
0
3
1
2
2
1
1
2
2
3
1
2
6
3
3
3
4
3
1
1
37
84
99
64
75
54
118
47
80
113
97
97
44
12
6
40
29
15
18
37
72
74
84
103
103
90
83
84
97
115
122
108
90
71
70
72
72
82
101
114
114
113
115
111
107
94
77
74
64
62
70
72
77
93
104
90
77
75
79
74
73
79
82
80
77
70
66
69
79
82
95
114
121
128
133
128
126
134
140
136
131
133
135
135
137
146
142
131
113
95
97
105
123
143
146
150
150
145
121
107
89
97
114
138
159
140
117
114
76
53
81
107
113
116
137
159
163
153
151
155
149
129
108
90
77
88
119
127
130
121
95
58
54
47
52
79
24
18
68
80
43
52
90
124
54
12
86
132
125
84
101
68
86
126
150
112
33
17
1
7
2
1
3
2
3
1
4
5
6
1
4
3
2
1
1
1
1
1
0
1
0
0
0
0
0
0
0
0
0
0
0
0

0
0
0
0
0
0
0
0
0
0
0
0
0
0
0
0
0
0
0
0
0
0
0
0
0
0
0
0
0
0
0
0
0
0
0
0
0
0
0
0
0
0
1
1
1
1
1
1
2
4
1
1
2
2
2
3
4
1
8
5
1
4
8
26
75
92
69
60
33
107
76
33
79
87
86
74
10
2
27
35
16
17
18
36
69
79
80
99
115
112
106
110
118
117
119
101
79
71
69
73
84
104
117
117
119
118
116
117
101
76
73
65
54
55
56
65
75
76
78
79
69
69
71
74
73
76
79
67
66
72
78
84
80
91
116
127
129
132
131
133
139
139
137
134
140
142
142
145
142
142
143
138
123
112
109
119
134
139
146
149
151
139
121
112
92
93
111
131
151
130
112
90
53
74
109
113
119
141
153
161
163
151
145
151
147
129
111
101
101
115
137
145
135
120
92
56
54
68
68
85
54
21
39
72
60
64
107
137
71
29
36
107
137
95
88
71
69
121
130
144
72
1
8
2
2
0
3
4
2
0
3
1
3
1
2
2
3
1
1
1
0
0
1
0
1
0
0
0
0
0
0
0
0
0
0
0

0
0
0
0
0
0
0
0
0
0
0
0
0
0
0
0
0
0
0
0
0
0
0
0
0
0
0
0
0
0
0
0
0
0
0
0
0
0
0
0
0
0
1
1
1
2
0
3
5
5
6
3
2
3
5
3
4
2
3
5
8
6
9
55
90
89
39
33
91
110
31
28
78
101
82
25
3
12
53
26
14
13
16
28
55
76
77
82
108
125
117
118
120
113
115
99
78
81
89
97
110
120
120
125
120
115
115
118
97
74
68
62
68
75
66
57
63
71
74
78
68
61
60
69
64
53
57
67
76
84
83
89
100
114
127
129
131
128
123
125
128
131
125
134
140
136
139
140
127
127
140
140
136
137
133
137
141
139
145
136
125
118
117
111
90
102
115
130
140
122
108
71
62
96
113
117
143
162
156
157
162
153
145
150
155
144
127
120
135
151
159
148
122
112
72
35
32
40
79
83
80
30
7
60
82
113
121
107
91
61
14
69
119
130
85
79
71
103
114
150
100
16
16
2
3
3
0
3
1
2
1
1
5
1
2
2
2
1
1
0
0
1
0
0
0
0
0
0
0
0
0
0
0
0
0
0

0
0
0
0
0
0
0
0
0
0
0
0
0
0
0
0
0
0
0
0
0
0
0
0
0
0
0
0
0
0
0
0
0
0
0
0
0
0
0
1
2
2
2
1
0
4
0
1
3
5
6
4
3
5
3
6
6
1
7
3
5
5
36
68
91
66
41
68
119
70
39
58
122
94
23
18
10
44
37
15
22
20
17
15
29
59
75
71
94
124
120
121
124
115
110
109
93
94
108
119
122
120
122
124
120
113
115
112
92
74
67
68
76
80
82
72
59
65
71
68
68
72
77
77
74
66
70
80
85
83
96
112
127
135
130
127
123
111
105
99
94
99
102
113
126
133
126
108
99
100
116
134
143
144
148
146
143
143
131
112
103
110
112
92
81
107
113
132
133
117
96
66
87
106
116
142
157
160
162
157
156
153
153
158
165
163
152
160
165
161
137
115
115
92
48
43
55
49
57
89
87
70
22
33
101
122
124
128
104
55
33
19
83
129
95
91
81
63
106
125
110
36
16
4
4
4
2
2
1
2
2
1
6
0
1
3
2
1
2
4
1
2
0
0
0
0
0
0
0
0
0
0
0
0
0
0

0
0
0
0
0
0
0
0
0
0
0
0
0
0
0
0
0
0
0
0
0
0
0
0
0
0
0
0
0
0
0
0
0
0
0
0
0
0
0
0
0
1
0
1
0
2
0
5
5
3
4
2
2
2
8
8
4
6
9
7
7
12
61
82
85
50
47
105
91
19
49
105
95
22
14
4
42
43
19
40
56
61
52
38
19
29
49
66
87
116
124
122
125
119
118
118
109
107
111
114
117
118
120
120
124
121
117
114
93
73
67
66
71
85
84
73
72
70
65
67
75
77
86
84
83
84
82
83
89
106
128
135
133
124
113
103
92
86
90
85
81
81
91
91
98
107
105
99
95
89
98
126
138
141
142
139
144
135
121
105
94
98
88
71
83
105
111
117
117
114
82
76
99
113
137
163
155
157
164
165
164
160
154
167
169
169
166
164
142
124
109
110
94
57
48
82
102
106
75
88
96
104
50
14
60
103
119
136
115
80
46
21
54
114
124
103
85
57
95
115
125
78
15
8
8
2
3
2
2
3
0
2
2
0
3
3
3
2
2
2
1
3
0
0
0
0
0
0
0
0
0
0
0
0
0
0

0
0
0
0
0
0
0
0
0
0
0
0
0
0
0
0
0
0
0
0
0
0
0
0
0
0
0
0
0
0
0
0
0
0
0
0
0
0
0
1
1
1
3
2
2
1
4
3
3
2
0
3
5
7
5
3
3
7
10
5
7
35
75
92
84
48
93
111
46
35
73
102
49
8
10
24
48
28
47
72
76
77
82
72
42
21
38
60
89
121
120
119
122
123
123
119
116
111
112
104
97
103
108
111
116
119
122
121
101
77
67
70
74
102
106
88
78
73
72
74
79
87
99
98
91
83
91
103
114
129
132
132
114
97
90
82
80
82
83
80
80
71
75
88
93
95
98
88
82
90
97
118
131
139
137
133
133
121
113
105
89
65
50
60
81
105
118
111
111
98
67
88
109
126
156
152
140
137
149
160
163
162
161
166
163
167
155
128
113
106
94
79
45
47
89
119
117
120
94
84
103
103
85
18
13
80
105
129
134
121
65
33
21
89
132
101
94
77
68
112
142
118
31
18
3
1
2
0
0
3
6
3
2
3
4
1
0
2
1
2
0
2
0
0
1
0
0
0
0
0
0
0
0
0
0
0

0
0
0
0
0
0
0
0
0
0
0
0
0
0
0
0
0
0
0
0
0
0
0
0
0
0
0
0
0
0
0
0
0
0
0
0
0
0
0
0
1
1
0
2
4
0
2
1
0
3
3
2
2
5
1
7
4
4
3
5
18
67
83
96
83
47
109
92
12
52
97
97
57
19
17
41
28
43
74
77
78
78
78
75
66
43
54
65
96
124
119
121
122
123
120
123
122
117
103
82
78
79
78
80
87
93
105
113
107
83
71
74
75
94
119
118
101
87
90
92
102
115
123
125
113
109
122
130
130
124
115
107
89
82
80
78
72
68
71
79
83
80
77
82
90
92
83
55
56
90
97
99
122
131
125
123
111
105
105
100
67
38
41
51
69
94
106
114
110
77
72
100
115
137
155
129
117
113
121
125
125
130
144
152
158
157
133
108
106
92
58
39
41
77
118
121
118
118
101
68
84
85
87
57
15
44
79
90
104
110
85
41
10
58
123
112
99
83
58
99
132
136
67
12
4
3
3
1
0
2
0
5
0
3
2
0
1
2
1
2
1
0
0
0
0
0
0
0
0
0
0
0
0
0
0
0

0
0
0
0
0
0
0
0
0
0
0
0
0
0
0
0
0
0
0
0
0
0
0
0
0
0
0
0
0
0
0
0
0
0
0
0
0
0
0
0
0
1
3
0
2
4
0
2
2
4
1
1
3
4
5
0
2
1
2
4
42
73
86
93
65
76
107
50
39
71
83
81
40
13
29
39
37
67
83
77
92
103
90
73
71
68
67
84
114
127
124
122
122
122
121
125
125
114
91
68
74
77
73
75
77
77
78
90
100
86
72
70
70
91
120
125
127
117
115
123
126
124
122
130
128
128
132
129
116
106
96
83
81
81
76
77
71
74
78
82
86
92
93
86
89
86
65
40
47
78
95
96
105
110
104
103
101
102
104
69
46
66
69
64
72
89
92
99
75
66
95
110
122
147
152
120
105
112
116
114
107
112
116
119
149
148
121
105
82
53
32
36
71
108
118
125
139
124
113
79
56
62
76
77
21
6
69
86
94
99
90
49
19
36
108
131
101
93
56
84
110
132
80
17
8
1
3
6
3
2
3
3
3
4
1
2
2
3
2
2
0
2
1
1
1
0
0
0
0
0
0
0
0
0
0
0

0
0
0
0
0
0
0
0
0
0
0
0
0
0
0
0
0
0
0
0
0
0
0
0
0
0
0
0
0
0
0
0
0
0
0
0
0
0
0
0
1
1
2
3
0
0
2
1
7
3
2
3
2
4
6
4
4
7
5
15
57
70
91
99
54
102
83
8
58
70
66
47
12
10
42
35
54
84
84
82
107
117
110
89
75
79
86
104
131
130
123
122
119
123
122
117
119
110
89
74
70
72
77
72
68
70
73
82
88
84
74
69
71
98
123
128
125
123
125
130
129
124
119
127
126
117
116
108
97
91
85
83
78
78
81
81
88
94
95
93
102
103
97
91
87
93
79
52
63
75
87
100
109
102
102
100
100
93
75
55
82
102
96
91
88
98
101
90
57
76
103
114
139
156
141
113
98
96
91
81
73
75
87
101
138
145
118
104
67
36
43
57
94
114
123
156
157
127
110
107
72
51
53
82
59
14
45
86
101
102
89
62
30
18
89
139
106
81
60
67
92
117
107
38
14
3
6
4
1
1
3
2
7
5
2
3
3
1
0
0
1
0
2
0
0
0
0
0
0
0
0
0
0
0
0
0

0
0
0
0
0
0
0
0
0
0
0
0
0
0
0
0
0
0
0
0
0
0
0
0
0
0
0
0
0
0
0
0
0
0
0
0
0
0
0
0
0
1
2
1
1
2
4
3
5
5
3
1
2
1
1
3
0
6
6
42
65
72
112
96
66
115
44
33
45
71
59
12
5
31
48
33
62
85
80
93
113
119
122
118
105
109
118
121
122
126
125
125
123
120
124
125
120
110
86
78
65
47
57
59
57
67
71
74
82
86
81
78
81
101
120
125
123
117
121
130
131
129
128
126
113
103
99
92
85
85
83
89
86
88
100
105
113
109
117
125
128
129
123
114
101
95
89
82
90
88
86
83
87
101
105
90
83
66
55
90
106
100
101
102
99
103
111
103
82
87
103
123
147
147
127
111
90
62
57
62
65
51
70
108
139
142
113
98
68
74
97
99
105
119
147
164
160
150
121
113
111
90
48
74
97
14
10
64
99
117
105
65
32
7
65
133
116
84
72
58
67
108
127
61
11
1
5
4
1
4
4
4
5
2
3
2
3
1
0
2
2
1
0
1
1
0
0
0
0
0
0
0
0
0
0
0

0
0
0
0
0
0
0
0
0
0
0
0
0
0
0
0
0
0
0
0
0
0
0
0
0
0
0
0
0
0
0
0
0
0
1
0
0
1
2
1
2
0
0
2
0
4
7
3
1
3
2
3
6
3
4
2
6
8
17
70
74
84
130
54
97
103
18
59
51
39
11
1
18
56
33
27
67
80
80
102
106
114
122
126
125
129
132
126
118
120
121
121
121
108
109
123
122
117
94
81
71
59
62
71
71
81
71
64
76
84
90
96
103
117
124
117
119
120
120
125
121
117
115
112
107
100
97
97
96
98
96
102
113
121
127
131
136
132
138
140
129
139
142
140
123
95
86
95
98
95
96
78
59
68
64
51
51
63
87
104
105
109
104
104
108
117
118
109
89
87
106
135
149
141
123
106
79
78
94
104
114
97
98
112
138
135
109
93
88
115
118
121
129
147
163
150
146
150
141
119
116
107
69
54
93
57
8
52
94
121
117
68
29
12
37
113
120
91
91
66
56
98
136
92
14
12
7
3
3
4
4
1
3
3
3
1
1
2
3
2
3
1
0
0
1
0
0
0
0
0
0
0
0
0
0
0

0
0
0
0
0
0
0
0
0
0
0
0
0
0
0
0
0
0
0
0
0
0
0
0
0
0
0
0
0
0
0
0
0
0
1
1
0
1
1
0
3
0
0
1
2
3
3
4
2
1
2
5
3
4
5
5
3
8
45
86
83
100
114
46
109
67
27
57
42
11
5
18
44
32
16
40
67
79
76
94
100
103
104
108
119
129
127
123
121
117
121
120
99
84
80
84
95
108
99
80
71
76
78
76
80
83
73
75
83
89
104
118
121
123
128
117
114
125
115
104
107
106
103
105
112
109
110
112
119
127
127
125
132
134
135
134
137
136
136
135
134
136
140
140
132
117
101
103
109
102
94
89
75
56
54
63
63
92
103
103
127
125
108
105
117
129
118
103
95
96
112
140
153
146
128
100
80
103
121
123
120
109
111
121
134
126
104
95
110
119
124
149
155
156
146
135
126
129
133
123
115
109
80
43
74
96
18
43
85
103
108
83
41
18
23
93
134
104
91
61
56
88
129
115
40
10
1
6
4
5
6
2
6
3
3
4
4
2
4
1
2
1
1
1
0
0
0
0
0
0
0
0
0
0
0
0

0
0
0
0
0
0
0
0
0
0
0
0
0
0
0
0
0
0
0
0
0
0
0
0
0
0
0
0
0
0
0
1
1
1
1
1
1
1
0
2
3
2
3
1
4
2
2
0
2
0
1
1
3
5
3
7
3
19
63
78
88
116
60
87
104
28
40
68
45
17
12
55
43
13
13
53
81
77
85
93
97
95
90
92
103
116
123
125
121
116
125
119
88
68
67
69
74
79
84
77
69
71
74
74
87
101
99
100
109
117
122
129
125
120
124
123
116
112
106
102
108
109
111
117
123
123
125
126
129
137
137
137
134
131
134
138
137
139
135
134
141
138
139
144
142
138
134
136
134
125
108
96
94
92
94
100
98
104
106
124
143
138
115
115
129
135
116
102
106
110
127
149
158
147
126
98
93
107
117
133
124
101
106
124
125
114
92
101
113
128
160
166
156
145
127
111
102
109
119
117
122
111
67
36
64
107
51
20
66
93
100
94
63
20
6
65
130
100
88
65
44
83
115
123
63
9
7
2
5
1
1
5
2
3
4
2
1
0
3
3
0
1
2
0
0
0
0
0
0
0
0
0
0
0
0
0

0
0
0
0
0
0
0
0
0
0
0
0
0
0
0
0
0
0
0
0
0
0
0
0
0
0
0
0
0
0
0
0
1
0
1
1
2
2
1
4
2
3
4
3
8
1
3
1
1
2
5
3
1
0
2
5
6
36
60
69
95
102
35
99
77
13
58
87
70
21
48
48
25
20
11
34
77
83
97
108
103
93
85
84
90
90
106
122
123
118
122
118
93
68
65
70
74
75
79
82
77
65
72
77
90
118
125
119
123
134
127
122
128
125
119
118
112
106
109
117
119
121
123
127
130
133
134
135
134
133
131
132
136
137
132
137
134
136
135
131
137
140
143
151
146
142
144
146
143
142
138
127
110
108
104
101
107
114
123
133
144
147
132
137
145
142
133
127
125
136
149
157
157
136
112
99
96
104
125
148
130
105
113
121
111
94
90
105
122
154
165
158
153
137
113
89
73
71
94
100
103
80
54
50
56
94
85
14
52
99
94
94
76
37
9
44
117
107
83
55
42
81
116
135
79
16
8
3
3
2
3
2
3
4
4
3
3
2
2
2
1
0
1
1
0
0
0
0
0
0
0
0
0
0
0
0

0
0
0
0
0
0
0
0
0
0
0
0
0
0
0
0
0
0
0
0
0
0
0
0
0
0
0
0
0
0
0
0
0
0
1
0
2
3
1
2
4
1
1
1
4
1
2
0
1
2
4
1
3
2
3
10
9
58
47
72
98
56
73
94
36
21
57
77
84
25
52
39
20
17
17
27
53
78
89
109
118
104
89
79
78
83
88
106
112
116
124
120
103
75
72
58
46
64
71
69
57
48
67
72
86
117
124
124
121
126
123
122
125
121
114
112
112
120
125
123
128
132
134
132
132
132
131
130
131
129
128
130
135
134
129
133
133
130
134
136
135
137
141
143
139
138
140
138
142
144
144
146
136
124
122
122
126
138
141
140
143
139
144
150
146
144
151
151
154
158
150
141
131
116
112
97
91
102
125
149
124
106
115
112
95
83
105
120
149
160
157
156
144
121
107
86
65
49
58
67
71
64
56
53
48
83
98
15
44
94
97
88
82
47
15
28
105
126
94
56
49
82
112
139
94
26
11
5
3
3
4
3
2
7
6
4
2
2
3
1
1
0
2
0
0
0
0
0
0
0
0
0
0
0
0
0

0
0
0
0
0
0
0
0
0
0
0
0
0
0
0
0
0
0
0
0
0
0
0
0
0
0
0
0
0
0
0
0
0
0
1
1
1
1
1
0
2
5
3
1
0
0
2
2
1
3
2
2
1
2
0
12
30
68
59
75
74
43
89
80
15
33
72
86
57
25
48
51
16
17
47
61
55
64
74
96
122
118
102
88
75
78
82
92
96
110
119
120
113
84
81
58
42
60
64
62
54
52
64
71
97
124
125
124
122
125
124
120
109
110
112
117
121
125
130
128
128
127
126
131
132
125
127
128
128
128
127
131
130
130
137
135
136
134
133
138
135
132
134
133
130
127
138
145
145
148
146
136
144
147
147
146
142
145
152
151
144
143
146
145
146
148
150
144
142
134
125
113
102
107
108
79
87
108
125
148
132
105
98
92
94
97
121
148
160
153
159
149
128
110
96
66
49
44
40
38
46
51
42
40
37
70
97
28
43
84
99
97
73
37
20
6
80
123
99
61
39
76
99
130
112
46
9
2
5
1
1
1
3
6
7
5
5
3
1
0
1
0
0
0
0
0
0
0
0
0
0
0
0
0
0
0

0
0
0
0
0
0
0
0
0
0
0
0
0
0
0
0
0
0
0
0
0
0
0
0
0
0
0
0
0
0
0
0
0
0
0
0
1
2
2
5
4
5
4
2
2
1
2
2
2
6
2
5
1
4
2
5
41
51
61
87
60
59
84
60
13
24
47
48
25
18
53
58
28
40
67
81
72
68
69
94
122
125
114
100
91
78
77
81
82
95
111
115
107
84
75
67
70
75
70
78
77
70
67
87
114
121
116
117
120
121
113
108
109
115
119
124
128
129
128
132
131
128
122
130
128
124
130
130
127
129
127
131
133
134
133
131
129
133
131
130
136
132
134
138
131
130
134
135
139
145
142
139
144
146
148
143
143
143
142
147
147
144
146
145
149
150
147
129
110
105
108
100
97
106
94
84
95
106
133
151
147
125
110
109
121
134
151
159
154
156
161
149
121
106
90
60
50
57
57
58
63
56
42
35
31
47
89
40
35
63
92
93
71
48
19
10
58
121
101
66
49
73
94
128
115
47
11
0
1
3
2
3
2
1
2
2
2
4
2
1
0
1
1
1
0
0
0
0
0
0
0
0
0
0
0
0

0
0
0
0
0
0
0
0
0
0
0
0
0
0
0
0
0
0
0
0
0
0
0
0
0
0
0
0
0
0
0
0
0
0
0
1
2
0
2
2
4
4
2
3
1
4
1
1
5
0
2
3
1
5
10
17
64
55
64
89
44
64
76
41
9
13
16
16
15
21
55
52
32
56
77
85
90
95
95
112
129
132
130
117
112
102
85
78
82
89
101
108
105
85
72
68
72
73
81
90
86
84
89
111
124
118
112
114
116
108
110
118
123
123
122
127
133
128
132
133
129
132
131
129
127
125
130
126
126
131
131
134
139
139
133
135
136
141
135
131
135
135
133
135
136
139
136
134
134
137
138
143
149
142
143
147
147
143
142
146
149
143
147
148
145
149
147
120
101
92
90
94
101
105
103
106
105
120
147
152
155
156
150
154
154
162
165
154
154
158
162
155
130
113
105
99
97
103
105
107
107
108
88
56
39
40
86
48
21
54
94
91
76
47
11
8
34
112
107
79
59
53
80
126
120
54
18
3
5
1
2
2
4
2
2
3
2
2
3
1
2
0
0
1
0
0
0
0
0
0
0
0
0
0
0
0

0
0
0
0
0
0
0
0
0
0
0
0
0
0
0
0
0
0
0
0
0
0
0
0
0
0
0
0
0
0
0
0
0
0
1
1
2
2
5
3
2
4
8
0
2
2
1
0
4
2
2
2
1
1
14
43
82
68
83
82
29
65
61
21
4
10
8
13
5
28
41
35
17
38
79
87
97
117
123
127
124
123
131
133
126
117
108
101
101
101
92
99
104
84
72
70
71
76
88
102
109
117
120
122
121
119
115
117
114
115
122
124
125
124
124
128
128
126
132
130
124
123
131
132
128
127
139
135
133
139
141
139
138
138
138
137
139
141
141
142
140
142
142
138
133
135
133
135
137
136
141
134
136
139
142
146
148
146
149
149
143
144
146
143
144
149
149
122
105
82
75
99
108
118
125
122
127
144
159
149
150
155
152
163
160
162
158
156
161
158
157
156
150
139
121
122
121
122
117
114
115
119
123
95
51
40
77
56
13
64
95
92
78
50
24
12
16
97
108
96
76
40
75
109
136
95
19
14
7
6
3
2
5
2
2
5
4
2
1
2
5
0
0
0
1
0
0
0
0
0
0
0
0
0
0
0

0
0
0
0
0
0
0
0
0
0
0
0
0
0
0
0
0
0
0
0
0
0
0
0
0
0
0
0
0
0
0
0
0
1
0
0
1
0
3
1
2
4
6
5
2
0
4
2
2
6
2
1
3
8
16
59
74
61
83
60
50
73
45
11
2
4
8
8
15
24
29
21
20
26
61
76
81
106
127
123
111
100
103
116
127
123
118
120
112
110
98
85
79
72
73
70
74
75
86
108
123
127
120
121
121
115
114
114
114
122
125
124
129
131
133
129
128
133
127
125
130
124
133
139
137
132
140
141
136
125
112
113
105
94
87
88
85
82
95
109
108
114
126
135
133
139
141
137
132
131
134
135
131
136
141
141
142
147
145
147
142
139
144
144
144
145
147
136
109
93
94
107
113
131
145
145
153
154
156
150
145
147
149
153
153
157
161
163
162
158
156
156
159
160
148
139
130
128
127
131
135
115
118
105
66
43
72
69
5
50
71
81
87
72
49
16
10
86
113
104
95
48
73
100
128
97
35
14
5
7
4
2
2
3
2
1
0
1
1
0
2
0
1
1
1
0
0
0
0
0
0
0
0
0
0
0

0
0
0
0
0
0
0
0
0
0
0
0
0
0
0
0
0
0
0
0
0
0
0
0
0
0
0
0
0
0
0
1
1
0
1
2
1
1
1
3
3
5
1
5
1
2
1
2
0
1
2
3
3
6
40
75
72
50
70
22
72
77
25
2
2
7
12
3
12
25
24
23
57
60
53
62
76
93
124
120
103
87
80
84
105
123
117
119
120
110
92
75
69
74
72
51
62
68
85
116
121
118
124
119
114
108
112
117
122
125
129
128
127
127
126
130
130
126
132
135
134
135
137
134
126
100
88
88
82
62
48
47
42
41
33
34
34
36
38
39
43
50
58
71
95
121
135
145
144
141
139
140
142
139
138
144
138
144
144
145
147
144
142
146
143
137
143
147
119
104
103
103
109
123
135
144
148
150
146
146
147
154
159
155
154
157
158
158
156
157
157
155
157
156
162
160
157
159
159
156
145
120
115
100
63
42
79
81
2
33
60
79
91
85
50
11
3
72
115
92
90
54
62
101
118
112
71
16
6
4
4
1
4
5
4
4
1
4
3
2
1
1
0
0
0
0
0
0
0
0
0
0
0
0
0
0

0
0
0
0
0
0
0
0
0
0
0
0
0
0
0
0
0
0
0
0
0
0
0
0
0
0
0
0
0
0
0
0
1
0
1
2
1
2
4
4
8
4
3
4
1
1
6
3
1
5
1
8
5
18
57
84
53
37
48
34
87
56
8
12
2
6
9
2
11
22
29
46
75
71
68
63
72
91
114
124
106
82
71
66
75
103
122
122
117
93
73
71
71
70
68
57
66
68
84
118
118
120
127
114
103
106
114
122
127
130
128
125
126
122
124
131
125
127
137
136
126
117
101
81
64
44
36
34
30
26
29
30
28
31
36
29
29
40
34
23
29
31
30
31
38
56
68
90
126
137
146
148
138
138
139
139
136
140
145
143
143
148
144
139
142
138
145
145
129
105
96
100
104
105
109
118
132
142
148
149
149
154
151
146
149
155
153
154
158
158
155
155
159
157
157
160
154
145
136
126
117
113
109
74
46
36
73
91
12
39
65
69
82
87
30
13
3
51
105
86
86
56
60
90
116
122
81
19
14
3
2
2
2
3
5
3
3
3
3
2
1
1
0
0
2
0
0
0
0
0
0
0
0
0
0
0

0
0
0
0
0
0
0
0
0
0
0
0
0
0
0
0
0
0
0
0
0
0
0
0
0
0
0
0
0
0
0
0
0
1
2
1
3
5
4
1
2
1
3
3
4
3
2
6
4
5
1
5
7
46
77
89
29
20
29
58
75
11
4
15
6
3
3
4
11
21
40
54
73
74
67
68
66
78
110
125
120
93
74
61
66
81
116
125
104
76
74
65
64
63
73
74
76
79
98
116
119
121
110
109
111
115
120
129
128
131
130
126
128
129
130
135
132
136
128
99
77
54
40
31
24
25
33
32
34
33
33
38
43
31
34
35
32
32
31
34
36
35
34
32
29
28
28
37
54
66
93
128
141
145
141
140
141
138
142
137
140
143
144
143
140
146
144
141
141
116
96
101
100
94
97
105
123
145
149
151
149
149
142
141
150
152
154
160
164
159
152
155
162
151
136
130
123
115
111
109
108
95
71
65
79
58
64
93
28
25
54
66
78
72
30
10
5
36
101
87
87
59
52
87
113
134
90
25
13
1
3
1
3
2
4
4
2
1
0
1
1
0
2
2
1
0
0
0
0
0
0
0
0
0
0
0

0
0
0
0
0
0
0
0
0
0
0
0
0
0
0
0
0
0
0
0
0
0
0
0
0
0
0
0
0
0
0
0
0
0
2
1
1
3
2
1
1
2
2
1
0
2
1
3
4
4
5
5
10
61
90
72
13
34
56
67
26
10
11
9
4
5
4
6
20
16
37
43
69
89
80
61
67
81
118
122
122
103
81
65
64
69
94
120
100
75
71
58
67
75
79
78
83
102
123
121
117
110
100
105
116
122
124
133
132
129
129
127
128
130
131
130
130
115
80
40
24
25
25
25
26
26
28
28
29
26
28
31
33
30
29
39
34
32
32
31
33
31
32
29
32
36
38
38
31
31
36
60
98
134
142
136
144
146
137
138
144
139
141
146
140
146
144
145
148
138
120
113
101
94
95
103
117
148
148
144
148
152
150
151
153
152
154
155
156
159
155
151
141
124
114
108
111
106
98
86
67
61
79
105
120
101
78
91
37
6
53
78
85
70
44
21
9
25
101
100
88
73
43
86
110
140
91
32
16
0
2
1
6
6
1
2
4
2
2
3
1
1
3
0
0
0
0
0
0
0
0
0
0
0
0
0

0
0
0
0
0
0
0
0
0
0
0
0
0
0
0
0
0
0
0
0
0
0
0
0
0
0
0
0
0
0
0
0
0
1
0
1
1
2
1
2
1
5
7
6
2
3
3
2
3
5
7
9
46
85
95
22
17
61
88
56
5
5
4
4
5
4
5
6
13
17
24
39
62
80
100
82
75
97
116
118
116
102
79
68
66
67
82
116
109
79
66
65
69
76
83
93
108
119
122
121
108
98
96
104
116
122
125
129
130
129
131
129
131
133
138
113
91
64
27
16
22
32
29
23
30
29
26
26
24
24
27
31
30
34
33
32
37
36
37
35
35
31
31
33
30
34
33
27
37
41
36
32
33
69
126
146
138
146
141
140
141
140
145
140
142
142
147
145
144
148
149
139
119
105
99
97
112
142
150
142
147
150
152
150
142
150
160
155
149
153
148
128
115
112
103
80
63
56
50
47
56
86
109
120
122
119
90
89
52
10
34
64
84
75
39
18
7
17
92
106
91
75
45
69
91
129
107
45
15
0
4
1
3
3
5
2
0
2
1
2
1
2
1
0
1
0
0
0
0
0
0
0
0
0
0
0

0
0
0
0
0
0
0
0
0
0
0
0
0
0
0
0
0
0
0
0
0
0
0
0
0
0
0
0
0
0
0
0
0
1
1
1
0
0
0
0
4
7
2
2
2
3
1
4
4
10
3
30
78
97
69
16
29
96
84
26
2
6
0
8
6
7
8
9
6
21
22
25
53
67
88
112
106
108
119
120
119
110
81
70
60
63
75
107
120
90
67
68
71
71
87
111
117
118
116
110
102
96
103
119
125
126
129
128
130
133
134
134
138
134
121
83
45
22
19
30
34
35
38
35
41
40
34
32
32
30
28
30
30
31
31
27
37
35
33
35
32
32
29
32
31
31
30
28
39
37
38
41
33
30
80
140
149
139
143
141
138
145
144
142
141
138
139
140
147
144
145
148
136
111
97
99
117
138
147
146
147
143
146
145
142
148
153
153
155
145
124
109
113
103
66
40
46
55
58
73
102
115
117
134
131
116
79
75
63
11
13
44
64
80
47
13
15
31
85
99
81
64
45
54
76
117
109
53
13
4
4
2
6
3
4
3
4
2
0
1
0
0
0
0
0
0
0
0
0
0
0
0
0
0
0
0

0
0
0
0
0
0
0
0
0
0
0
0
0
0
0
0
0
0
0
0
0
0
0
0
0
0
0
0
0
0
0
1
1
1
1
0
3
3
2
3
4
0
1
2
3
3
1
3
8
0
5
48
97
71
37
19
93
99
55
3
1
4
0
5
5
5
13
1
12
18
21
8
37
58
67
102
123
115
123
122
122
114
87
71
57
55
68
93
120
106
78
66
67
67
83
115
117
120
112
96
93
96
111
123
128
129
128
132
132
133
129
134
135
116
75
39
22
23
31
38
49
53
56
59
54
49
47
38
37
31
30
28
28
34
29
30
34
35
35
30
30
35
33
28
35
36
38
39
35
32
31
31
37
37
39
71
126
146
140
140
142
146
141
143
141
140
140
138
145
140
140
144
137
110
97
107
128
146
146
149
147
144
145
139
146
149
149
150
149
129
112
111
98
73
59
82
107
107
102
105
111
122
143
149
129
117
85
81
89
15
4
31
57
73
40
9
25
35
74
98
73
72
53
47
66
105
118
79
10
5
2
3
1
0
1
5
2
2
2
0
3
1
1
1
0
0
0
0
0
0
0
0
0
0
0
0

0
0
0
0
0
0
0
0
0
0
0
0
0
0
0
0
0
0
0
0
0
0
0
0
0
0
0
0
0
0
0
0
0
1
1
1
1
3
2
1
3
1
3
2
5
4
1
5
6
9
27
69
91
60
28
73
108
86
21
5
2
3
1
2
0
3
13
8
16
13
20
5
31
50
62
87
117
118
120
122
124
101
80
71
61
59
68
84
112
121
101
76
67
69
76
108
123
121
106
94
90
97
113
118
128
128
127
136
133
126
131
137
121
81
41
23
32
49
57
64
74
75
75
77
74
64
62
53
46
36
30
30
33
39
40
34
31
31
28
31
33
27
27
24
28
30
31
39
38
37
39
38
32
34
36
30
54
112
137
137
140
143
144
141
144
145
139
139
140
143
145
143
128
110
103
117
140
149
142
149
147
148
148
137
136
144
154
151
132
115
101
86
59
62
104
123
118
116
114
116
128
148
153
141
119
115
90
83
110
47
6
11
45
30
17
18
22
30
57
95
78
82
56
41
61
98
131
77
6
9
4
5
2
3
1
3
2
2
1
1
2
1
1
0
0
0
0
0
0
0
0
0
0
0
0
0

0
0
0
0
0
0
0
0
0
0
0
0
0
0
0
0
0
0
0
0
0
0
0
0
0
0
0
0
0
0
0
0
1
0
1
2
1
1
2
4
3
1
1
5
4
4
4
6
1
6
44
83
83
65
43
108
110
61
5
3
6
2
2
1
5
10
13
13
22
7
26
16
43
56
65
87
118
119
120
120
121
95
68
76
54
53
72
76
101
123
118
99
82
74
84
110
116
113
109
90
91
107
120
124
129
126
127
132
129
124
136
133
105
56
26
36
58
74
87
87
93
95
91
88
90
81
69
68
55
43
35
38
39
52
65
57
55
65
68
75
79
71
70
63
52
43
49
64
72
79
77
71
50
32
35
40
30
52
113
142
139
137
141
145
138
136
136
147
145
144
144
145
129
118
120
134
144
146
144
143
143
143
145
141
133
142
153
148
126
112
84
56
50
89
119
114
120
134
133
141
152
152
137
125
117
111
70
60
109
97
30
7
16
14
23
32
21
64
87
92
86
83
61
29
59
93
116
69
22
9
1
5
5
5
1
2
0
2
1
1
0
2
0
1
0
0
0
0
0
0
0
0
0
0
0
0

0
0
0
0
0
0
0
0
0
0
0
0
0
0
0
0
0
0
0
0
0
0
0
0
0
0
0
0
0
0
0
1
2
2
1
0
1
1
1
2
1
1
2
2
3
2
2
5
5
13
60
86
68
46
82
111
95
29
9
5
2
2
6
6
13
8
6
15
22
2
25
27
56
63
68
92
118
116
115
117
116
102
69
68
52
35
68
71
94
118
120
116
93
81
92
114
116
109
98
83
89
116
121
128
132
128
129
124
121
133
135
118
89
45
35
62
83
93
94
90
96
101
92
90
93
87
80
76
63
54
46
53
61
72
90
91
104
119
123
120
120
126
124
120
111
110
108
101
96
90
86
78
60
39
32
36
43
35
72
133
148
139
141
141
135
137
145
145
139
141
142
147
141
133
133
140
145
144
144
143
140
137
142
144
141
147
149
142
123
115
89
59
68
105
111
117
137
149
146
150
139
134
122
115
116
112
68
53
103
129
81
4
16
18
14
13
19
58
78
82
98
92
76
35
54
93
122
94
27
13
3
6
7
3
1
5
4
2
1
1
2
0
2
2
1
1
0
0
0
0
0
0
0
0
0
0

0
0
0
0
0
0
0
0
0
0
0
0
0
0
0
0
0
0
0
0
0
0
0
0
0
0
0
0
0
0
0
0
1
1
1
1
2
1
1
5
3
4
1
3
3
0
3
2
9
28
82
84
56
42
100
103
61
16
16
2
4
5
3
11
14
4
2
16
13
8
23
34
62
62
71
99
118
115
112
118
124
104
80
60
46
41
65
76
84
114
120
117
99
92
96
113
119
110
88
83
90
111
122
128
131
126
126
125
124
137
132
114
73
37
64
88
87
96
95
92
94
94
93
97
98
97
88
75
70
65
59
76
66
85
118
116
121
125
115
114
111
110
111
115
118
123
125
120
106
86
81
78
65
50
51
36
38
44
40
86
138
145
140
138
143
140
141
140
136
143
140
141
140
140
132
139
144
140
142
150
150
145
146
148
147
151
145
137
119
118
103
73
70
101
111
119
133
141
143
142
128
115
109
113
115
98
70
47
96
124
77
29
19
11
32
56
47
52
4
73
116
94
99
56
58
95
124
100
27
13
2
5
4
2
1
2
3
2
2
1
3
0
0
2
1
0
0
0
0
0
0
0
0
0
0
0

0
0
0
0
0
0
0
0
0
0
0
0
0
0
0
0
0
0
0
0
0
0
0
0
0
0
0
0
0
0
0
0
1
1
2
1
0
2
0
3
4
2
3
0
4
6
5
5
8
47
88
65
52
53
107
92
34
6
9
5
3
4
5
14
10
4
4
20
6
16
35
46
59
64
78
104
115
110
113
116
117
109
90
68
47
47
67
76
81
109
118
112
105
99
109
117
116
111
95
87
96
110
121
125
126
125
125
127
128
133
127
104
67
51
83
92
92
94
94
96
96
95
96
95
100
101
87
82
80
74
78
93
84
110
124
113
111
109
105
110
112
106
107
109
112
106
109
113
108
106
93
88
72
65
74
58
45
45
27
48
113
140
135
143
146
138
138
142
141
140
143
141
136
138
137
140
138
142
141
136
135
135
143
147
144
148
147
143
122
118
111
80
65
95
113
113
134
144
145
140
123
105
97
95
96
75
57
42
88
103
50
29
46
39
65
94
95
55
18
63
120
98
98
55
47
85
102
98
51
13
4
3
3
2
3
2
2
1
1
3
0
0
1
0
0
0
0
0
0
0
0
0
0
0
0
0

0
0
0
0
0
0
0
0
0
0
0
0
0
0
0
0
0
0
0
0
0
0
0
0
0
0
0
0
0
0
0
0
1
1
0
0
1
1
1
4
2
5
1
0
3
3
2
7
20
60
84
60
37
83
105
74
17
6
5
8
0
2
16
9
1
7
14
14
19
16
37
47
60
66
78
102
114
112
117
115
109
114
95
68
61
42
57
72
80
95
107
110
111
114
115
117
121
115
96
88
97
112
118
125
128
124
133
132
128
132
119
87
63
67
91
95
90
95
95
96
95
95
95
92
96
95
91
92
88
91
101
110
123
126
115
111
115
110
110
110
118
117
109
112
120
126
119
117
112
112
99
93
92
68
68
69
54
39
33
61
115
138
137
140
143
141
142
144
142
136
142
144
140
138
141
140
138
138
124
108
112
112
121
138
141
141
145
143
125
119
111
82
56
85
108
110
138
148
141
140
127
108
98
84
76
53
45
38
66
95
36
47
60
45
64
88
87
55
23
18
94
121
81
41
38
71
100
115
77
14
10
1
5
4
2
6
5
1
1
4
1
3
1
0
0
0
0
0
0
0
0
0
0
0
0
0

0
0
0
0
0
0
0
0
0
0
0
0
0
0
0
0
0
0
0
0
0
0
0
0
0
0
0
0
0
0
0
0
1
0
1
3
3
2
1
6
1
4
1
3
3
3
1
10
25
73
82
48
57
102
103
58
12
5
7
3
6
11
14
5
11
11
8
8
21
15
27
34
57
71
66
80
92
99
115
120
116
114
106
80
65
48
44
59
75
78
86
111
115
118
113
115
121
118
97
87
94
111
121
125
131
125
127
129
129
130
122
98
72
74
90
94
87
97
95
91
94
95
96
93
92
93
93
91
91
111
122
123
125
118
114
113
118
115
116
113
115
113
107
104
107
122
123
116
116
117
108
94
111
96
59
59
45
33
61
100
132
138
137
139
140
143
137
140
139
136
138
139
137
138
141
144
140
132
114
98
100
104
108
118
134
142
144
141
118
110
106
86
50
77
106
118
139
146
140
141
140
123
108
95
81
51
41
35
50
89
27
53
67
61
62
92
74
45
10
11
71
120
93
61
40
64
101
116
81
25
9
3
5
5
5
5
1
0
1
2
2
1
0
0
0
0
0
0
0
0
0
0
0
0
0
0

0
0
0
0
0
0
0
0
0
0
0
0
0
0
0
0
0
0
0
0
0
0
0
0
0
0
0
0
0
0
0
0
1
0
2
2
3
0
1
3
4
3
2
5
3
6
3
6
45
85
83
34
58
127
99
40
6
2
6
5
9
6
5
7
12
18
17
5
13
9
28
29
41
73
67
70
74
71
90
119
124
115
120
101
73
59
53
45
50
75
74
87
102
107
118
120
114
115
102
95
95
109
126
122
126
125
121
127
128
129
130
111
87
81
87
89
93
91
95
93
91
95
95
91
93
94
91
92
103
122
131
124
119
117
111
112
115
117
118
121
115
111
113
103
102
102
114
113
110
114
113
96
101
131
105
76
57
65
97
125
140
137
142
142
136
143
136
132
136
134
139
137
140
144
140
139
140
139
117
99
85
84
103
101
113
137
145
137
116
111
100
67
60
94
110
126
142
143
144
143
143
137
116
107
98
62
42
41
44
73
27
48
83
88
79
85
73
38
15
3
55
111
106
78
28
43
92
120
90
39
13
2
3
1
4
4
2
0
3
2
1
0
1
1
0
0
0
0
0
0
0
0
0
0
0
0

0
0
0
0
0
0
0
0
0
0
0
0
0
0
0
0
0
0
0
0
0
0
0
0
0
0
0
0
0
0
0
0
0
1
0
1
1
1
3
2
4
3
2
4
4
5
3
3
55
91
79
39
79
130
88
32
12
8
1
6
4
1
3
14
19
22
20
11
12
19
25
33
21
43
53
54
58
63
69
97
120
118
121
115
91
71
59
52
35
57
74
70
78
90
107
119
115
106
104
97
92
100
122
124
123
123
124
128
125
131
132
109
87
85
92
92
91
89
93
97
93
97
91
92
99
99
96
105
115
125
124
119
117
118
118
109
114
115
116
120
116
116
113
113
111
104
108
117
110
103
107
103
89
106
131
127
118
118
121
136
138
138
142
140
138
139
135
133
133
131
140
137
131
131
136
134
131
141
125
102
95
85
90
98
105
123
137
126
116
113
82
65
92
108
114
136
141
141
145
146
144
138
116
110
99
59
43
42
42
66
34
50
95
86
79
77
82
49
13
2
45
104
113
80
39
34
96
129
100
40
15
6
2
1
0
3
5
2
1
1
3
0
2
0
0
0
0
0
0
0
0
0
0
0
0
0

0
0
0
0
0
0
0
0
0
0
0
0
0
0
0
0
0
0
0
0
0
0
0
0
0
0
0
0
0
0
0
0
1
1
3
1
1
0
4
2
0
3
3
2
6
4
4
7
54
89
77
54
88
119
78
16
6
3
4
6
7
4
11
21
22
26
24
20
16
20
10
38
15
12
20
24
30
53
60
83
109
119
117
122
107
84
62
58
49
40
57
68
71
78
80
91
110
113
111
97
96
102
113
121
125
127
124
120
120
127
126
117
98
83
91
92
90
93
95
94
96
97
88
93
101
104
110
121
126
124
123
121
112
114
117
107
109
111
117
119
120
118
113
118
114
108
105
109
112
104
104
109
103
90
100
137
141
115
127
140
133
137
131
134
138
135
133
134
134
134
128
116
102
103
119
133
133
136
140
121
108
100
87
94
104
120
127
110
104
92
73
99
111
112
130
143
137
139
140
146
137
118
107
106
81
69
82
70
47
67
40
32
72
81
98
97
69
52
18
1
41
91
112
84
42
49
93
119
99
48
10
5
0
5
3
3
0
4
1
3
3
0
0
1
1
1
0
0
0
0
0
0
0
0
0
0

0
0
0
0
0
0
0
0
0
0
0
0
0
0
0
0
0
0
0
0
0
0
0
0
0
0
0
0
0
0
0
0
2
1
0
1
3
1
1
3
3
3
1
1
1
8
2
17
62
95
72
67
87
114
69
5
7
6
2
5
10
9
17
26
28
31
28
31
28
21
11
30
16
18
20
27
36
48
59
86
106
112
114
116
118
104
78
63
60
54
57
61
65
68
70
74
94
117
116
109
106
105
109
114
122
127
126
121
122
122
124
120
102
85
90
93
91
94
97
95
94
95
93
94
98
107
120
124
128
124
125
127
121
114
112
112
106
110
117
117
116
115
116
114
109
104
105
106
111
109
107
104
103
108
90
86
84
99
129
134
129
130
133
127
133
138
129
129
136
130
107
95
94
96
100
122
138
132
139
133
110
101
96
99
101
110
114
104
95
77
86
109
113
132
141
137
138
144
143
136
119
107
98
87
84
102
117
117
86
76
49
17
60
91
117
93
61
48
14
4
45
83
103
85
43
34
82
112
100
55
14
6
1
4
2
2
4
1
1
6
2
2
1
0
0
2
1
1
0
0
0
0
0
0
0
0

0
0
0
0
0
0
0
0
0
0
0
0
0
0
0
0
0
0
0
0
0
0
0
0
0
0
0
0
0
0
1
0
0
2
1
5
0
2
0
1
1
1
3
1
7
5
5
18
65
97
75
81
94
102
52
10
1
6
1
7
10
10
20
34
30
20
15
18
10
4
9
24
23
14
22
38
53
55
64
89
112
111
112
108
113
115
99
76
69
68
71
67
66
56
62
76
79
106
115
110
112
105
105
112
115
116
128
129
128
125
127
119
97
88
91
93
86
90
96
98
98
95
101
101
106
111
120
121
126
127
122
126
122
110
110
111
115
115
114
110
109
113
116
112
109
109
110
106
107
107
104
100
97
106
105
55
60
111
136
131
128
130
132
128
137
129
122
131
127
113
97
92
90
94
92
111
134
136
131
114
107
104
89
88
100
108
112
100
76
68
84
106
113
136
145
140
138
144
136
115
110
103
75
85
104
117
112
119
114
90
63
16
61
92
110
96
94
62
13
20
61
94
97
81
32
32
77
114
112
53
12
4
2
6
0
1
3
4
3
6
3
2
5
2
1
0
0
0
0
0
0
0
0
0
0
0

0
0
0
0
0
0
0
0
0
0
0
0
0
0
0
0
0
0
0
0
0
0
0
0
0
0
0
0
0
0
0
0
0
0
0
2
1
1
1
1
3
4
1
1
3
3
9
17
65
93
83
77
87
106
53
10
11
2
11
4
5
8
14
19
13
10
6
8
7
0
3
23
27
19
33
43
55
57
65
95
116
113
109
110
110
117
111
100
92
81
70
69
73
67
60
71
74
90
116
112
113
110
108
111
112
112
118
122
126
122
125
122
106
91
86
90
88
92
99
100
102
97
94
101
115
118
121
121
126
126
123
124
119
106
108
114
115
113
111
107
110
110
114
116
109
106
111
109
110
104
105
106
100
97
104
72
83
129
134
132
132
129
127
132
128
117
125
128
110
101
97
90
79
90
94
101
128
138
120
99
98
97
72
69
91
103
97
80
75
77
79
97
109
127
139
141
141
134
118
107
95
79
76
104
114
129
132
120
110
93
71
7
49
76
89
94
111
60
24
25
70
104
91
81
34
33
73
115
124
59
5
10
5
8
3
4
2
2
5
3
3
2
2
2
3
1
0
0
0
0
0
0
0
0
0
0

0
0
0
0
0
0
0
0
0
0
0
0
0
0
0
0
0
0
0
0
0
0
0
0
0
0
0
0
0
0
0
1
0
0
0
3
1
2
1
3
2
2
4
2
1
6
7
18
64
94
81
65
87
109
60
20
13
11
7
5
4
9
4
4
2
4
3
7
7
24
8
19
34
29
38
48
56
56
71
108
116
113
112
111
120
118
116
115
113
103
94
82
71
71
71
68
74
74
95
114
115
112
110
111
111
115
110
112
122
122
122
126
118
98
87
87
92
96
97
101
100
96
94
100
115
121
121
120
127
124
123
120
120
116
113
118
112
114
112
114
114
112
120
119
109
101
107
108
112
111
104
101
101
98
102
86
77
120
133
126
127
132
133
125
115
120
124
112
99
95
96
97
85
88
96
98
112
121
106
101
93
86
87
95
89
76
78
93
112
107
85
85
109
127
135
138
142
127
107
83
65
80
101
113
130
148
140
125
111
94
79
17
48
76
73
73
74
40
21
20
75
105
87
83
48
25
65
110
123
60
10
14
3
4
4
1
1
3
3
1
0
0
2
3
4
1
0
1
0
0
0
0
0
0
0
0

0
0
0
0
0
0
0
0
0
0
0
0
0
0
0
0
0
0
0
0
0
0
0
0
0
0
0
0
0
0
0
0
1
0
0
2
0
2
0
3
2
1
4
1
2
7
7
18
65
93
77
66
96
109
60
13
15
10
2
7
6
4
3
5
2
5
11
9
22
14
7
11
32
30
51
59
61
62
87
110
105
92
90
89
99
106
114
115
112
109
112
107
89
70
69
67
63
67
72
94
111
118
113
110
115
116
112
117
123
117
117
126
124
97
92
91
87
97
95
98
100
95
102
105
119
121
117
121
128
128
121
114
114
119
121
119
117
118
114
118
111
113
117
115
119
112
108
109
107
108
101
99
107
101
101
94
58
83
129
133
131
136
126
109
115
124
114
101
93
93
98
102
87
80
92
98
103
104
98
96
89
97
109
114
100
80
93
117
124
113
90
88
108
128
139
143
141
125
96
59
69
99
113
125
143
143
118
111
112
97
83
26
40
75
61
71
49
27
16
9
65
103
90
85
59
33
61
102
123
64
10
14
1
2
7
0
1
2
2
0
1
3
1
2
2
1
0
0
0
0
0
0
0
0
0
0

0
0
0
0
0
0
0
0
1
0
0
0
0
0
0
0
0
0
0
0
0
0
0
0
0
0
0
0
0
0
0
0
0
2
1
1
2
4
2
4
5
1
3
1
3
5
9
12
65
92
80
70
95
101
58
14
20
4
6
12
13
7
5
9
6
4
5
6
7
5
19
19
28
48
66
69
70
90
108
106
84
69
57
63
67
77
89
102
116
111
108
111
103
80
67
65
58
62
71
78
89
112
114
109
116
119
115
116
121
116
117
123
123
110
95
90
92
97
97
94
99
100
105
114
126
123
111
118
123
126
119
116
115
112
120
118
120
114
113
115
110
113
114
116
123
112
110
115
110
108
107
104
102
101
97
97
75
58
89
129
125
114
109
109
121
118
102
94
92
93
95
97
89
78
92
97
99
99
99
88
81
100
121
120
108
97
98
121
125
113
96
87
105
127
137
141
139
121
96
82
89
107
124
139
141
123
106
103
109
99
86
32
17
67
60
67
66
39
5
9
53
105
85
88
62
24
57
100
124
79
22
13
2
5
1
2
1
3
3
0
2
2
3
0
0
1
3
1
0
0
0
0
0
0
0
0

0
0
0
0
0
0
0
0
0
0
0
0
0
0
0
0
0
0
0
0
0
0
0
0
0
0
0
0
0
0
0
1
1
2
0
4
4
2
2
4
2
2
1
6
3
1
6
7
60
97
84
70
87
97
62
6
30
21
4
5
13
5
5
7
4
4
6
4
8
0
25
29
14
63
65
74
86
105
111
106
79
67
53
53
58
60
64
76
90
104
111
112
107
97
77
67
69
75
74
76
80
100
113
112
113
109
111
112
113
116
117
120
121
119
95
87
96
94
90
96
97
101
103
121
130
125
119
115
117
119
117
117
122
120
117
120
116
115
113
116
114
114
118
117
117
113
113
111
110
116
107
100
98
100
95
95
94
62
56
78
90
100
112
121
125
110
92
91
99
92
94
92
87
72
82
100
98
102
97
75
68
89
126
130
106
99
100
127
134
116
92
84
100
116
133
138
135
118
106
100
98
113
131
141
132
109
96
97
103
96
94
59
12
66
59
62
67
47
6
9
49
99
85
85
68
20
62
93
122
84
38
11
0
2
3
4
3
3
1
2
3
4
0
3
2
2
1
1
0
0
0
0
0
0
0
0

0
0
0
0
0
0
0
0
0
0
0
0
0
0
0
0
0
0
0
0
0
0
0
0
0
0
0
0
0
0
0
0
0
0
1
1
3
2
3
3
1
1
5
6
6
3
1
3
52
93
87
77
82
101
65
9
22
9
6
7
15
6
6
2
4
2
1
10
2
2
14
20
24
52
63
65
74
87
91
92
85
70
60
59
57
53
44
56
68
84
101
111
115
110
98
88
86
89
83
83
90
97
107
112
111
110
114
119
115
114
119
122
122
117
105
98
92
92
89
93
94
95
96
107
123
130
122
111
116
120
116
113
121
127
123
123
117
118
118
119
116
115
114
113
116
113
110
110
111
109
98
102
102
96
92
94
96
69
47
62
89
106
117
126
123
111
98
101
102
98
99
94
77
64
67
76
90
95
83
66
77
96
125
136
114
111
122
134
129
109
81
77
100
115
130
138
139
132
115
107
112
130
140
137
114
97
90
88
99
92
84
64
5
44
53
60
55
40
11
9
40
89
87
83
74
28
61
90
121
89
43
15
2
8
2
4
2
2
0
1
5
2
0
1
1
3
0
0
0
0
0
0
0
0
0
0

0
0
0
0
0
0
0
0
1
0
0
0
0
0
0
0
0
0
0
0
0
0
0
0
0
0
0
0
0
0
0
0
1
1
1
3
1
3
6
2
0
1
1
2
1
4
4
8
37
84
93
75
81
110
82
24
26
15
8
3
9
1
7
5
5
5
8
11
4
4
5
29
22
52
62
61
54
66
70
72
82
80
70
67
59
52
37
29
59
77
76
89
108
111
109
108
107
106
103
99
101
98
105
107
110
119
114
114
113
107
111
122
120
120
117
110
97
89
94
94
96
91
89
105
113
117
118
114
117
119
116
119
121
119
120
118
120
121
121
121
120
118
118
117
111
111
114
113
117
111
100
104
100
95
99
98
90
67
45
77
105
109
118
128
122
115
102
102
100
102
91
84
66
67
54
41
69
88
89
90
99
113
133
137
126
132
135
134
123
107
80
68
89
115
125
131
143
143
127
128
132
147
145
129
101
90
86
87
92
66
55
67
20
20
47
60
66
43
12
7
49
97
90
89
80
33
55
94
123
101
47
14
4
5
2
6
2
4
3
1
3
3
3
1
2
3
0
0
0
0
0
0
0
0
0
0

0
0
0
0
0
0
0
0
0
0
0
0
0
0
0
0
0
0
0
0
0
0
0
0
0
0
0
0
0
0
0
0
0
1
0
0
1
2
3
1
3
1
1
1
3
3
5
7
25
78
92
70
74
109
108
46
7
25
26
21
12
4
3
5
6
4
3
4
6
7
4
18
28
51
63
57
55
53
54
66
79
83
80
74
71
63
48
21
38
68
69
73
91
105
105
108
113
118
116
118
111
109
110
111
115
111
102
99
97
89
88
101
98
106
116
117
108
90
92
93
93
90
90
102
106
109
112
115
110
113
116
120
124
117
113
114
116
120
123
123
123
120
125
123
110
111
118
115
113
116
109
101
95
97
98
96
82
58
40
67
102
107
115
117
113
107
99
98
100
95
77
60
58
73
65
57
76
97
101
111
120
123
120
119
123
130
127
134
129
114
97
88
91
113
129
133
137
141
137
140
139
138
134
118
92
84
76
70
57
39
41
76
39
1
43
69
76
53
27
3
64
101
100
96
88
32
61
91
121
100
50
10
7
4
5
1
1
4
3
2
0
0
0
0
1
2
2
0
0
0
0
0
0
0
0
0

0
0
0
0
0
0
0
0
0
0
0
0
0
0
0
0
0
0
0
0
0
0
0
0
0
0
0
0
0
0
0
1
1
0
2
2
1
2
2
5
1
2
2
2
3
5
7
3
12
65
94
74
72
99
114
72
10
16
19
26
15
13
6
3
0
2
3
0
7
9
1
3
11
23
45
49
48
46
43
58
70
78
86
80
72
66
54
32
35
55
64
74
80
85
90
101
106
107
111
115
110
113
112
113
110
105
92
87
89
84
74
82
86
85
102
116
117
110
94
88
87
89
93
89
98
110
105
106
105
114
117
119
124
121
120
123
121
120
117
117
120
121
118
122
117
110
114
117
115
114
109
106
101
101
93
73
64
50
40
61
93
104
103
100
98
98
103
99
91
85
81
78
82
97
105
91
90
105
111
118
125
115
104
104
111
111
119
133
132
128
118
110
117
129
137
136
137
138
140
134
133
137
126
102
78
66
60
52
45
43
38
65
58
7
21
52
66
49
31
6
65
102
100
90
77
23
60
89
125
110
53
8
6
3
5
1
1
2
4
2
1
1
1
0
0
2
0
0
0
0
0
0
0
0
0
0

0
0
0
0
0
0
0
0
0
0
0
0
0
0
0
0
0
0
0
0
0
0
0
0
0
0
0
0
0
0
0
1
0
0
1
1
2
3
1
2
0
1
3
1
2
2
1
4
4
51
95
84
72
82
104
90
28
16
2
19
25
26
3
6
2
2
1
2
1
5
1
7
19
18
27
36
9
16
23
53
68
66
69
78
73
65
58
46
41
41
44
62
73
75
81
86
87
88
94
91
98
110
111
106
105
99
85
83
81
81
81
75
78
82
86
99
110
114
103
94
91
89
88
89
94
101
105
103
107
119
116
117
125
124
123
125
128
126
119
116
119
121
113
121
121
112
115
118
113
111
111
116
112
106
108
71
45
50
54
57
75
93
100
100
96
99
91
92
91
94
96
103
105
113
108
98
89
93
114
118
114
105
86
71
79
95
113
123
128
133
133
130
137
139
136
131
136
138
134
129
134
140
121
90
70
62
65
70
71
63
41
45
72
34
19
15
48
47
28
2
61
108
87
88
89
29
68
85
124
104
43
5
2
1
4
3
5
1
2
3
2
2
2
1
2
2
1
1
0
0
0
0
0
0
0
0

0
0
0
0
0
0
0
0
0
0
0
0
0
0
0
0
0
0
0
0
0
0
0
0
0
0
0
0
0
0
0
0
0
2
2
2
4
7
1
2
3
4
4
2
5
2
1
2
5
22
80
100
72
67
94
102
60
18
24
29
49
43
7
3
6
4
2
2
3
8
3
3
12
5
12
35
26
15
18
49
46
62
67
69
77
70
61
54
46
41
45
52
60
71
73
76
73
75
77
73
79
91
97
98
98
91
85
82
85
85
84
68
62
76
83
86
86
84
91
97
93
92
89
90
97
97
100
110
109
110
117
116
119
122
121
122
126
125
125
124
121
118
124
121
118
112
110
116
112
109
115
117
110
111
120
95
52
41
49
57
68
68
83
89
88
77
81
99
104
107
107
109
117
120
112
106
92
78
84
92
95
84
70
65
76
91
105
121
129
128
133
140
140
136
132
128
130
137
131
133
137
130
110
83
69
71
75
84
90
86
67
48
63
70
11
9
33
43
29
3
58
109
100
100
88
28
71
81
113
94
54
10
5
1
7
0
1
3
2
4
3
2
1
1
2
1
0
0
0
0
0
0
0
0
0
0

0
0
0
0
0
0
0
0
1
0
0
0
0
0
0
0
0
0
0
0
0
0
0
0
0
0
0
0
0
0
0
0
0
0
1
2
1
3
1
1
1
3
1
1
3
3
1
1
3
8
64
100
86
68
81
96
82
36
7
16
36
52
20
2
4
8
1
6
5
0
5
2
4
1
21
11
31
22
3
29
36
44
53
64
72
75
71
66
59
56
55
51
53
57
63
68
66
69
64
71
73
72
80
86
87
78
79
83
81
83
86
77
66
71
80
81
77
80
85
83
83
84
88
95
98
106
104
107
106
103
111
114
113
122
124
127
125
122
119
129
126
119
122
118
120
114
112
115
118
114
114
113
105
120
117
90
60
40
46
56
58
49
49
66
61
69
99
108
109
108
112
119
119
117
122
117
99
85
77
75
78
77
91
101
106
107
115
124
130
129
126
127
129
132
131
128
126
133
136
135
134
125
106
86
80
79
78
87
99
93
85
62
46
74
46
7
9
37
32
2
55
100
113
106
76
38
56
85
108
111
76
17
9
2
1
0
2
3
4
2
2
2
0
3
2
1
0
0
0
0
0
0
0
0
0
0

0
0
0
0
0
0
0
0
0
0
0
0
0
0
0
0
0
0
0
0
0
0
0
0
0
0
0
0
0
0
0
0
0
2
0
2
2
2
2
1
2
2
4
5
3
3
2
1
9
6
40
83
93
62
55
77
93
76
30
15
1
16
7
4
3
5
6
6
2
4
6
4
3
3
11
0
26
3
13
35
30
19
34
54
62
67
74
83
84
74
63
49
53
46
49
53
55
55
51
60
68
67
71
73
72
77
79
80
80
81
84
87
86
80
84
75
83
78
62
63
72
67
65
75
78
78
74
85
105
107
99
106
114
116
120
127
117
120
126
127
125
116
111
118
126
116
111
110
112
112
113
113
113
120
104
67
48
44
44
42
49
49
59
50
48
89
105
106
108
107
111
108
95
93
99
113
119
106
96
96
95
103
109
113
117
119
131
129
129
126
125
126
122
123
128
131
127
133
136
131
133
129
110
94
91
86
85
89
94
91
85
66
40
65
76
30
10
25
28
1
59
91
112
104
87
71
48
79
105
117
77
18
9
3
3
0
6
1
7
5
2
1
2
2
0
1
0
0
0
0
0
0
0
0
0
0

0
0
0
0
0
0
0
0
1
0
0
0
0
0
0
0
0
0
0
0
0
0
0
0
0
0
0
0
0
0
0
0
1
0
0
0
1
0
1
1
2
3
1
1
3
1
1
2
7
2
14
64
83
69
50
62
88
74
67
37
5
10
6
6
4
11
5
5
8
4
2
2
2
2
6
12
15
19
12
20
12
15
25
42
43
57
71
80
93
88
80
72
56
47
48
53
51
41
39
46
55
62
65
64
69
84
79
76
87
88
89
88
87
85
81
73
48
50
67
66
50
48
43
43
43
35
52
88
112
120
98
82
111
119
110
120
111
116
123
116
115
113
111
119
120
112
110
108
111
114
109
109
116
113
99
65
43
41
44
43
50
65
74
65
62
79
89
96
100
95
99
100
87
74
86
108
125
118
113
119
114
122
125
123
125
128
134
129
127
124
127
128
125
125
125
127
134
130
129
130
136
135
123
100
91
90
92
88
87
92
88
62
36
54
99
73
18
18
28
2
57
93
111
105
95
82
41
75
101
119
80
21
14
1
7
6
6
2
6
1
3
3
1
2
1
1
0
1
0
0
0
0
0
0
0
0

0
0
0
0
0
0
0
0
0
0
0
0
0
0
0
0
0
0
0
0
0
0
0
0
0
0
0
0
0
0
0
0
1
1
0
2
0
3
0
1
2
5
3
5
2
1
4
3
2
0
7
44
76
86
57
52
67
47
61
64
24
9
11
9
6
4
4
2
3
9
4
3
8
11
22
13
6
18
14
33
32
4
10
8
13
27
48
73
92
85
74
73
68
55
54
52
48
40
46
46
49
58
63
61
63
74
79
79
84
83
86
86
81
85
81
68
51
78
101
62
36
34
38
34
31
52
94
116
127
130
87
46
80
122
121
119
118
112
112
111
117
117
111
115
114
109
116
115
116
114
108
103
109
120
112
83
55
41
38
44
71
91
88
89
82
77
83
84
84
88
92
98
89
80
90
106
120
124
130
128
126
132
135
129
124
126
127
118
118
116
122
123
125
129
122
118
129
128
131
138
137
136
133
113
102
101
96
94
92
94
92
63
41
46
86
73
31
18
19
5
49
95
108
105
100
79
40
75
105
117
90
35
14
3
4
4
0
3
4
3
4
2
2
1
2
1
0
1
0
0
0
0
0
0
0
0

0
0
0
0
0
0
0
0
0
0
0
0
0
0
0
0
0
0
0
0
0
0
0
0
0
0
0
0
0
0
0
0
1
2
2
1
2
3
3
4
3
3
3
1
2
4
4
4
5
2
9
18
64
78
56
52
51
37
42
65
47
8
10
10
5
7
12
8
10
11
14
10
20
27
21
14
13
16
9
30
41
19
4
15
15
20
21
13
45
70
74
50
47
50
48
55
45
48
49
48
53
51
49
52
55
58
68
77
86
96
99
89
82
78
68
42
47
53
60
38
38
34
28
37
37
61
102
127
124
97
53
36
44
87
128
122
119
119
117
111
117
115
113
117
118
112
111
117
116
111
108
106
114
126
114
88
62
39
38
67
104
106
103
100
94
90
86
89
85
90
94
78
76
92
101
114
123
120
120
116
120
123
124
127
121
122
129
128
119
112
114
118
119
123
123
118
123
131
131
136
139
136
132
128
124
113
104
101
106
104
100
77
54
42
53
69
41
34
16
1
41
92
114
100
89
82
44
75
111
125
94
31
11
4
3
4
3
2
1
3
3
1
2
1
2
2
1
0
0
0
0
0
0
0
0
0

0
0
0
0
0
0
0
0
1
0
0
0
0
0
0
0
0
0
0
0
0
0
0
0
0
0
0
0
0
0
0
0
2
1
1
0
0
1
3
2
4
3
2
2
4
2
2
0
5
3
3
0
49
68
61
54
41
29
41
62
48
28
8
4
4
13
21
24
11
8
14
16
16
19
24
31
21
26
5
13
25
21
13
14
22
28
25
29
21
31
61
70
34
30
39
36
38
29
22
32
34
29
37
46
51
56
69
92
109
106
84
62
46
37
41
33
37
33
20
32
28
26
34
38
40
38
58
76
71
53
38
49
43
50
106
124
116
120
119
110
106
109
118
118
114
114
111
116
117
112
110
115
116
108
92
69
51
40
52
88
101
94
103
100
92
90
91
95
89
86
90
70
75
95
108
120
117
104
99
103
105
110
125
131
127
124
124
127
126
122
123
119
123
121
123
119
125
126
128
132
139
137
133
132
137
127
122
111
114
111
107
87
59
41
52
69
31
37
14
4
38
98
118
104
93
95
50
79
105
124
88
22
14
4
5
1
6
3
5
1
3
3
0
2
2
1
1
0
0
0
0
0
0
0
0
0

0
0
0
0
0
0
0
0
1
0
0
0
0
0
0
0
0
0
0
0
0
0
0
0
0
0
0
0
0
0
0
0
2
1
1
0
0
3
3
0
1
3
1
4
3
4
1
3
2
5
1
5
39
68
63
53
22
27
56
50
54
43
8
14
6
5
13
9
8
10
23
29
33
44
32
27
26
11
8
14
20
16
13
20
28
23
10
12
24
27
8
31
33
16
32
37
16
25
15
10
14
28
29
41
51
53
71
87
64
42
46
37
39
45
26
26
30
34
37
32
22
50
53
32
35
34
32
26
34
38
39
45
38
44
72
109
124
118
122
119
112
111
111
113
107
104
109
111
111
109
114
117
104
84
66
52
43
48
61
69
72
72
76
77
82
83
87
91
83
84
85
76
80
91
106
109
104
99
101
106
108
116
125
123
113
105
99
98
110
125
129
125
128
122
117
118
123
122
129
133
129
130
129
126
135
137
133
125
123
118
108
89
66
44
56
59
10
27
15
7
38
101
110
102
95
92
57
71
101
112
89
29
14
5
4
8
0
3
4
3
3
3
1
1
1
1
1
0
0
0
0
0
0
0
0
0

0
0
0
0
0
0
0
0
0
0
0
0
0
0
0
0
0
0
0
0
0
0
0
0
0
0
0
0
0
0
0
0
1
2
2
0
1
2
0
3
1
3
4
3
4
1
2
1
6
6
2
12
14
60
50
51
36
34
52
41
49
50
22
14
4
9
18
22
31
38
39
41
49
53
43
22
28
1
5
5
23
25
6
6
8
8
15
16
36
16
46
83
20
31
49
19
17
26
3
10
20
31
33
47
57
54
58
39
9
15
32
30
47
77
53
28
38
40
38
34
69
82
60
19
36
42
31
36
37
39
34
36
34
34
43
89
119
125
120
116
118
114
109
113
110
109
108
112
110
106
110
111
95
72
57
44
50
55
51
59
57
52
60
73
69
70
77
83
86
85
81
86
83
78
93
106
101
99
106
111
113
120
116
106
97
88
87
91
92
108
125
125
120
120
116
119
121
125
130
129
132
130
124
124
128
130
132
133
134
128
112
97
88
46
35
50
2
36
23
12
29
97
108
91
93
91
72
62
97
115
97
32
10
1
2
5
1
7
5
5
4
2
1
1
1
1
3
3
0
0
0
0
0
0
0
0

0
0
0
0
0
0
0
0
0
0
0
0
0
0
0
0
0
0
0
0
0
0
0
0
0
0
0
0
0
0
0
0
1
0
4
1
2
2
2
4
1
1
3
3
3
2
3
4
5
4
2
1
3
37
43
38
37
41
41
23
39
50
43
14
11
3
24
44
57
67
82
49
52
43
36
19
4
9
10
6
5
6
19
16
19
10
19
11
33
9
81
139
69
9
16
63
40
27
27
3
12
16
12
24
30
18
15
15
38
46
61
50
34
71
106
69
35
30
30
69
115
92
49
17
46
48
34
36
38
43
42
38
36
55
57
84
100
116
111
110
112
115
112
112
112
112
107
111
113
105
108
102
88
69
56
42
43
40
45
59
41
49
76
89
71
70
87
85
85
80
82
85
94
90
85
100
103
101
105
107
115
112
108
99
91
88
93
99
95
99
118
124
119
119
115
116
118
123
125
125
133
130
124
123
125
125
130
135
130
129
116
109
108
57
27
52
6
57
34
11
20
83
109
91
95
100
83
58
97
120
103
44
7
6
4
2
2
1
5
6
2
2
0
1
0
1
2
1
0
0
0
0
0
0
0
0

0
0
0
0
0
0
0
0
0
0
0
0
0
0
0
0
0
0
0
0
0
0
0
0
0
0
0
0
0
0
0
1
2
3
0
2
2
2
1
2
1
2
3
1
3
5
1
4
6
3
3
2
7
18
39
40
34
44
36
24
43
37
38
17
7
23
14
42
55
50
67
55
28
10
11
17
6
17
7
9
9
23
22
18
16
7
3
5
2
0
34
55
51
19
19
6
35
39
10
11
8
7
6
7
12
9
3
24
60
72
73
82
93
82
68
53
22
24
56
99
93
66
37
19
34
36
35
33
40
44
48
38
34
51
51
56
83
104
111
115
113
114
105
112
111
105
105
102
105
110
120
101
75
66
52
42
28
37
62
41
38
76
94
96
89
89
97
96
85
89
91
79
89
97
105
101
97
100
103
103
106
97
96
89
82
89
100
106
110
112
117
124
122
118
112
117
119
117
120
122
129
127
124
122
126
128
128
125
119
112
110
114
108
61
31
41
4
59
41
12
13
70
98
93
98
98
84
49
94
117
106
55
11
6
2
3
3
3
7
3
1
2
2
0
0
1
1
1
0
0
0
0
0
0
0
0

0
0
0
0
0
0
0
0
1
0
0
0
0
0
0
0
0
0
0
0
0
0
0
0
0
0
0
0
0
0
1
1
2
1
1
2
4
2
3
5
1
1
1
2
0
2
1
0
3
5
6
6
6
16
44
41
42
42
30
28
44
40
33
33
5
15
18
40
38
30
21
16
10
11
5
13
4
23
14
14
13
23
12
23
24
22
23
8
13
8
44
34
27
6
4
32
78
56
28
10
7
5
2
5
7
3
2
26
67
78
90
94
62
66
63
54
48
49
72
89
56
39
41
48
31
14
27
32
32
38
42
45
45
44
37
35
62
100
114
115
114
112
108
112
112
111
108
101
111
121
126
100
67
56
49
42
34
45
49
50
75
95
89
83
80
91
95
95
95
94
90
96
88
75
82
90
94
88
82
90
90
86
82
86
87
97
109
121
123
121
121
118
119
116
112
118
121
118
120
124
134
134
128
126
122
119
120
110
109
103
100
90
73
42
29
34
15
40
31
4
4
66
98
92
97
99
74
50
85
117
111
51
6
3
1
2
4
4
4
1
7
1
2
2
2
2
1
1
0
0
0
0
0
0
0
0

0
0
0
0
0
0
0
0
1
0
0
0
0
0
0
0
0
0
0
0
0
0
0
0
0
0
0
0
0
1
1
0
1
2
1
0
2
4
2
3
3
3
4
3
2
3
2
1
5
5
3
4
6
11
43
39
38
49
32
25
58
54
46
49
45
12
11
30
43
12
12
22
21
16
13
4
13
14
12
12
19
12
17
22
31
54
28
29
36
3
30
34
29
6
18
24
13
34
24
5
7
8
3
4
3
5
8
17
64
82
90
89
89
106
135
63
56
71
74
55
21
20
43
63
63
30
36
41
44
57
66
61
50
40
41
40
47
81
106
109
108
112
112
109
109
109
106
109
119
123
121
92
61
51
46
44
54
41
51
87
94
91
83
75
76
90
93
95
97
86
85
100
99
73
53
67
91
89
74
69
82
94
96
105
108
118
127
128
126
124
122
123
124
119
118
114
115
120
119
121
127
131
135
128
113
104
109
108
96
78
66
61
58
70
74
54
14
25
30
0
4
60
109
99
92
103
70
61
87
116
102
34
5
3
6
3
2
1
3
1
1
2
0
2
1
1
0
0
0
0
0
0
0
0
0
0

0
0
0
0
0
0
0
0
0
0
0
0
0
0
0
0
0
0
0
0
0
0
0
0
0
0
0
0
0
1
3
0
1
2
2
2
3
1
1
2
5
2
4
3
2
0
3
4
3
2
4
3
10
7
44
38
45
56
33
26
66
74
74
61
69
47
17
20
19
33
6
25
29
20
15
14
20
16
11
10
9
20
23
37
52
49
30
48
40
13
17
16
16
18
12
10
2
12
20
13
5
4
6
1
3
3
6
14
36
56
52
58
74
114
98
19
31
56
66
47
40
41
21
31
31
17
37
62
81
96
82
59
42
37
33
53
41
61
102
105
105
108
110
112
109
108
104
110
117
124
113
80
54
48
41
49
48
43
82
93
89
93
96
87
87
86
85
98
93
92
96
96
96
81
81
85
87
88
91
91
88
101
114
119
115
116
115
108
107
115
123
125
124
119
120
117
116
122
124
119
118
121
133
120
98
90
86
84
73
63
62
78
91
111
123
79
19
20
24
5
10
43
103
111
89
98
85
63
88
113
99
40
12
5
7
3
3
2
6
2
3
5
3
2
2
2
0
1
0
0
0
0
0
0
0
0

0
0
0
0
0
0
0
0
0
0
0
0
0
0
0
0
0
0
0
0
0
0
0
0
0
0
0
0
1
0
1
0
1
1
4
3
0
4
0
2
3
4
1
3
1
2
2
2
0
3
3
4
8
15
44
48
39
49
39
44
68
79
72
66
70
51
16
10
9
13
18
12
39
12
25
39
16
9
14
14
11
33
37
55
41
43
42
50
27
15
15
12
18
17
11
1
5
5
17
18
8
3
3
6
4
9
1
3
17
26
43
8
40
41
49
50
44
42
59
55
49
37
20
17
14
27
43
52
65
78
56
42
31
38
47
63
60
75
108
104
108
109
101
107
110
110
104
106
116
123
111
80
55
44
49
50
28
58
91
93
92
95
98
94
86
79
84
98
100
97
98
103
92
80
90
96
93
88
81
94
95
96
105
112
96
91
86
83
87
95
114
118
122
120
117
125
125
122
125
122
121
117
125
119
102
84
77
82
88
96
103
105
110
119
119
81
37
11
26
6
13
27
83
112
93
96
93
57
79
117
107
45
11
3
5
5
0
3
4
4
6
7
3
2
2
2
1
0
0
0
0
0
0
0
0
0

0
0
0
0
0
0
0
0
0
0
0
0
0
0
0
0
0
0
0
0
0
0
0
0
0
0
0
0
1
0
1
0
1
2
0
3
3
1
0
2
1
2
3
3
1
5
3
1
2
5
2
5
11
24
49
52
54
35
41
64
66
67
50
50
66
40
28
8
35
6
15
13
25
41
42
48
15
15
20
16
9
27
56
38
27
48
29
41
27
21
14
10
4
6
9
10
10
1
14
8
12
7
1
3
6
5
6
4
7
9
9
19
54
19
44
46
33
52
64
45
49
50
52
44
45
41
27
43
49
39
33
39
31
38
40
48
77
101
109
103
107
108
98
103
108
108
107
103
109
114
116
90
60
50
54
39
43
80
86
92
92
87
90
100
97
91
86
90
104
102
98
94
85
79
81
87
99
95
74
67
82
91
94
97
85
76
78
76
84
96
104
120
122
118
121
125
117
108
110
115
118
122
122
121
122
115
113
112
114
119
118
118
128
120
110
72
29
30
33
3
10
17
70
113
95
108
109
54
76
119
104
42
9
3
3
4
1
0
1
0
2
4
2
3
1
1
1
1
0
0
0
0
0
0
0
0

0
0
0
0
0
0
0
0
0
0
0
0
0
0
0
0
0
0
0
0
0
0
0
0
0
0
0
0
0
0
1
1
1
3
1
3
3
3
3
1
0
5
4
0
3
2
0
3
1
4
4
5
11
12
55
45
64
36
46
80
70
61
45
43
53
48
55
31
27
26
26
19
34
43
41
41
21
28
17
15
7
44
37
25
26
25
10
22
24
8
7
7
1
5
13
10
7
3
7
12
19
4
4
0
1
2
5
2
5
7
12
15
34
47
43
7
19
50
59
41
52
60
65
65
69
61
49
57
61
67
39
36
38
40
36
46
85
109
107
104
104
101
108
107
107
111
112
106
100
112
120
91
66
60
48
42
60
81
85
79
77
85
91
93
101
102
87
87
96
104
101
89
74
73
87
97
100
91
82
82
78
80
87
83
65
70
78
81
91
100
106
120
117
115
122
115
104
85
81
89
102
117
121
121
122
134
130
127
126
130
125
128
132
116
101
72
25
12
11
0
12
11
63
124
100
101
108
63
81
117
102
44
12
0
3
6
3
4
3
2
1
1
3
2
0
3
2
0
0
0
0
0
0
0
0
0

0
0
0
0
0
0
0
0
1
0
0
0
0
0
0
0
0
0
0
0
0
0
0
0
0
0
0
0
0
2
1
1
1
2
2
3
5
2
4
4
2
1
0
1
0
3
1
1
2
3
1
4
8
14
57
47
45
39
45
90
78
51
39
46
59
63
64
38
15
25
29
15
46
48
31
5
23
24
11
12
7
43
4
13
8
8
9
9
8
10
10
6
9
12
14
13
13
1
1
6
15
8
1
3
6
1
4
5
4
4
6
8
12
43
56
47
48
53
50
52
52
64
70
60
55
59
63
51
54
85
63
29
35
39
37
47
88
110
112
101
102
105
109
112
108
110
109
110
102
105
111
97
71
57
50
51
52
71
90
82
76
83
86
87
92
96
92
91
96
103
95
86
78
77
85
98
98
92
77
84
96
85
79
79
52
57
80
89
97
107
116
120
123
120
118
112
98
78
70
73
83
100
117
120
113
118
127
126
118
121
125
122
115
112
94
65
9
11
10
0
5
5
63
118
97
99
98
52
81
111
96
38
10
3
4
6
5
1
2
4
1
1
0
1
2
1
2
0
0
0
0
0
0
0
0
0

0
0
0
0
0
0
0
0
1
0
0
0
0
0
0
0
0
0
0
0
0
0
0
0
0
0
0
0
1
0
1
1
2
2
1
0
1
1
1
2
4
3
3
1
5
4
0
3
4
1
8
6
7
18
49
55
47
38
40
78
72
34
35
55
57
56
69
48
4
23
25
10
24
5
26
22
20
17
19
9
22
22
5
3
8
4
3
6
17
11
16
7
10
11
4
3
5
2
7
10
17
16
6
1
6
4
2
5
3
3
2
4
5
15
42
34
35
37
42
49
67
85
93
90
78
74
73
68
60
67
82
44
29
33
36
32
69
107
111
103
98
104
107
112
101
104
106
107
106
105
104
105
85
57
56
60
60
72
87
90
86
78
83
91
88
96
96
94
106
107
92
81
83
88
85
95
96
91
81
68
92
97
84
87
75
60
72
91
98
104
113
118
122
122
113
104
96
82
80
77
78
93
111
118
115
113
112
98
90
96
117
117
109
104
88
52
4
7
7
6
3
13
67
105
96
109
94
36
71
113
93
31
11
3
2
1
2
2
1
7
2
3
4
1
1
2
1
0
0
0
0
0
0
0
0
0

0
0
0
0
0
0
0
0
0
0
0
0
0
0
0
0
0
0
0
0
0
0
0
0
0
0
0
0
1
1
1
0
2
1
2
4
1
4
3
5
4
1
5
2
4
0
5
5
6
1
3
11
10
28
51
64
62
43
62
71
65
39
33
52
60
63
67
51
28
20
25
9
42
9
27
4
15
6
2
31
32
13
18
7
9
5
4
6
15
9
14
9
5
4
0
4
0
2
2
12
9
10
5
2
2
0
4
7
5
3
4
4
7
4
8
11
14
35
38
50
68
82
102
108
97
91
76
78
68
67
89
71
35
34
36
25
58
103
109
109
106
99
102
102
94
102
106
109
106
108
110
108
102
71
60
67
71
81
92
94
86
83
83
86
89
91
95
104
107
99
87
92
82
79
82
96
100
85
87
81
81
95
99
94
92
82
70
82
91
94
95
103
114
124
112
97
82
77
83
84
88
94
116
123
113
104
94
75
68
83
105
109
104
92
57
15
7
7
2
5
13
19
61
105
97
114
66
47
79
115
93
22
11
3
5
6
1
2
5
2
2
4
3
1
0
0
1
1
0
0
0
0
0
0
0
0

0
0
0
0
0
0
0
0
0
0
0
0
0
0
0
0
0
0
0
0
0
0
0
0
0
0
0
1
1
0
2
1
2
0
0
0
2
3
1
5
4
2
4
3
5
4
1
5
4
4
5
5
12
48
58
69
70
48
68
73
46
36
39
45
66
67
62
59
40
22
28
5
14
19
21
8
21
14
10
28
22
16
12
6
6
7
1
7
3
10
13
18
8
8
4
8
5
2
5
33
31
29
8
4
3
6
6
2
4
4
3
6
2
5
5
1
9
15
31
47
69
77
86
93
98
93
75
65
70
67
69
83
47
35
35
29
52
94
106
103
99
99
94
97
102
100
103
111
104
100
110
108
108
96
69
54
69
86
96
97
91
94
93
88
89
85
94
110
105
94
93
97
88
81
85
101
101
85
76
85
85
94
97
84
86
85
82
76
86
95
87
97
116
123
113
101
79
76
88
94
101
107
119
121
108
97
85
78
70
82
95
102
101
71
33
25
8
3
5
3
13
25
65
109
94
109
50
65
93
110
94
32
11
4
9
6
5
3
6
4
0
2
2
2
1
1
2
1
0
0
0
0
0
0
0
0

0
0
0
0
0
0
0
0
0
0
0
0
0
0
0
0
0
0
0
0
0
0
0
0
0
0
0
0
0
1
3
1
5
1
1
2
3
1
1
4
3
3
5
2
4
5
4
3
1
5
7
9
19
53
66
88
56
37
61
69
26
13
33
44
56
53
80
84
28
27
21
36
35
13
21
4
11
11
19
19
27
12
4
5
6
1
3
4
6
16
27
11
11
5
3
3
6
7
3
23
22
13
3
4
2
8
2
4
2
6
2
3
2
4
7
7
8
7
12
34
61
66
66
81
97
99
85
51
46
55
57
89
58
37
42
30
58
90
98
99
94
98
98
101
107
97
98
101
102
105
105
104
108
108
89
54
63
81
84
95
94
97
99
94
92
93
101
109
109
102
102
90
96
96
90
103
100
89
79
82
94
100
91
78
73
91
86
72
86
88
84
97
110
120
117
105
89
78
90
103
102
111
117
115
108
99
86
86
86
88
97
107
91
55
31
22
5
6
3
7
10
36
84
100
94
104
32
64
96
111
92
35
8
4
4
2
3
0
3
3
1
3
4
2
2
1
2
0
0
0
0
0
0
0
0
0

0
0
0
0
0
0
0
0
0
0
0
0
0
0
0
0
0
0
0
0
0
0
0
0
0
0
0
0
1
1
0
1
1
3
2
1
2
2
2
2
4
3
3
3
4
5
3
3
3
0
3
13
41
78
94
83
36
26
67
67
13
10
12
38
60
61
73
75
42
27
15
35
53
25
12
17
14
36
25
40
23
13
5
4
4
4
1
5
5
13
10
20
13
16
3
4
2
3
2
22
22
16
4
5
2
7
3
2
3
7
2
1
0
6
4
8
8
8
6
4
18
18
33
48
78
99
92
58
41
56
53
83
91
44
38
38
56
89
101
100
102
97
102
101
108
107
99
98
106
112
101
103
108
102
98
76
53
69
89
95
96
96
98
101
105
108
110
112
109
108
97
93
99
92
88
101
96
84
89
88
100
100
90
82
75
93
89
74
77
84
82
88
96
116
118
103
91
77
81
102
102
105
121
113
99
95
93
93
94
90
92
91
63
30
18
6
9
3
5
7
12
39
101
93
97
99
43
79
95
117
89
28
9
1
4
3
3
3
3
3
1
3
0
4
5
0
0
1
0
0
0
0
0
0
0
0

0
0
0
0
0
0
0
0
0
0
0
0
0
0
0
0
0
0
0
0
0
0
0
0
0
0
0
0
1
1
1
2
2
1
3
4
1
2
2
4
0
1
3
1
2
3
4
1
1
2
1
28
71
98
104
63
46
55
59
42
7
22
43
27
63
52
53
50
35
17
15
37
64
33
20
9
23
17
14
26
11
6
4
4
5
8
0
1
5
0
17
16
28
34
5
12
3
5
2
23
25
21
1
2
3
2
6
1
4
2
3
3
3
1
1
6
1
5
2
7
8
4
1
9
29
66
79
52
34
72
64
63
101
57
30
32
38
81
102
96
95
98
97
94
100
105
103
95
102
107
101
107
106
98
98
92
63
54
72
77
84
90
97
105
108
112
107
107
105
113
107
94
91
89
100
111
93
80
83
97
105
88
84
91
96
95
81
76
85
83
83
86
93
105
104
95
87
78
80
93
105
114
123
106
84
81
90
98
93
81
73
62
31
22
3
6
2
8
8
9
6
40
102
96
91
87
42
70
92
111
86
20
8
4
9
1
4
1
4
1
2
2
1
5
3
0
1
2
0
0
0
0
0
0
0
0

0
0
0
0
0
0
0
0
1
0
0
0
0
0
0
0
0
0
0
0
0
0
0
0
0
0
0
0
1
0
0
0
1
0
4
3
3
3
0
4
1
1
4
2
1
0
3
2
1
7
18
54
86
97
90
45
62
62
65
34
15
37
85
31
46
56
55
45
52
26
24
53
62
26
18
30
29
13
24
0
2
1
6
6
10
16
5
4
5
2
1
9
31
32
6
4
3
4
0
10
16
15
12
4
5
4
3
2
8
7
5
1
2
1
2
5
6
2
5
6
7
7
3
14
1
28
68
53
18
38
69
61
90
76
31
29
33
76
97
95
96
101
87
88
93
92
96
91
102
106
101
104
99
104
99
91
88
60
43
49
67
83
93
98
102
106
107
105
105
111
113
99
95
104
109
103
93
91
84
100
99
78
80
101
101
84
61
76
93
84
88
83
85
91
95
92
80
81
84
87
95
117
118
87
70
72
80
85
81
65
56
35
11
2
7
3
3
6
9
8
9
53
101
87
87
80
32
71
101
115
74
10
6
6
8
6
2
0
3
3
2
1
0
3
1
2
0
1
0
0
0
0
0
0
0
0

0
0
0
0
0
0
0
0
0
0
0
0
0
0
0
0
0
0
0
0
0
0
0
0
0
0
0
0
0
0
0
1
0
2
2
4
3
5
2
7
4
6
4
2
2
2
1
2
7
17
51
83
92
90
74
51
64
64
63
33
16
32
61
34
25
51
46
25
5
46
68
59
42
19
21
29
7
7
18
4
6
5
9
7
2
14
8
7
4
6
4
6
33
24
12
8
5
0
1
8
5
4
4
3
8
2
4
0
5
2
2
2
2
1
0
5
0
7
3
5
8
2
3
2
13
11
63
58
5
17
36
58
67
78
40
24
23
60
92
93
94
98
93
95
101
101
100
94
104
105
101
97
98
103
99
92
96
89
63
62
81
88
95
99
103
108
111
106
106
104
105
114
111
112
112
97
92
88
98
100
83
90
98
94
81
72
70
82
88
87
81
76
84
85
83
77
80
88
89
91
94
115
106
74
68
77
81
84
72
69
54
30
9
14
6
9
12
3
9
8
22
68
106
94
89
70
34
78
112
117
58
6
7
1
3
4
3
3
3
4
0
5
3
2
1
1
1
1
0
0
0
0
0
0
0
0

0
0
0
0
0
0
0
0
0
1
0
0
0
0
0
0
0
0
0
0
0
0
0
0
0
0
0
0
0
1
2
2
1
0
5
4
2
1
4
2
4
2
5
2
3
3
1
12
23
41
79
89
86
70
68
59
56
49
30
28
23
8
21
24
15
44
69
67
62
37
65
79
71
8
9
22
19
15
16
7
16
15
10
19
43
48
19
4
1
6
0
5
16
15
7
9
0
4
6
3
0
3
5
1
3
5
3
4
2
5
1
1
4
1
5
8
6
3
2
3
3
3
3
3
9
5
46
67
21
20
45
18
49
62
48
22
17
32
74
98
89
94
104
97
98
102
107
99
96
98
98
95
97
94
99
99
95
101
94
96
97
92
99
106
104
107
105
102
107
106
105
111
112
105
110
111
96
89
109
107
95
103
99
86
83
83
80
90
98
85
69
83
90
77
74
71
82
97
102
107
114
118
104
88
78
86
94
86
78
60
36
15
17
7
19
13
8
9
10
10
28
76
94
83
85
65
35
74
107
98
48
12
4
1
1
3
4
2
3
4
2
3
1
1
0
1
1
1
0
0
0
0
0
0
0
0

0
0
0
0
0
0
0
0
0
0
0
0
0
0
0
0
0
0
0
0
0
0
0
0
0
0
0
0
0
0
1
1
1
0
4
3
1
4
3
0
7
3
6
4
5
0
9
18
38
64
81
73
64
59
63
64
46
26
13
15
30
26
14
5
9
49
99
96
75
39
40
48
83
64
69
8
15
8
8
13
9
13
11
18
30
20
10
4
2
5
6
3
11
14
13
4
4
5
3
6
7
10
17
6
3
4
2
4
0
3
1
2
2
5
2
6
6
2
3
5
4
4
2
5
4
3
29
61
35
28
41
38
23
44
44
32
23
17
46
83
97
98
98
94
91
93
96
97
97
98
94
94
96
101
98
97
101
99
93
101
96
92
100
101
98
101
100
98
101
103
105
108
109
109
111
114
109
107
111
104
102
93
78
87
96
82
80
98
93
82
87
93
80
78
73
79
87
94
104
112
116
112
111
105
99
96
95
78
66
29
18
7
13
14
19
10
9
12
6
13
39
80
79
65
90
50
40
78
110
85
38
12
3
5
2
0
3
7
4
1
3
2
2
3
2
1
1
0
0
0
0
0
0
0
0
0

0
0
0
0
0
0
0
0
0
0
0
0
0
0
0
0
0
0
0
0
0
0
0
0
0
0
0
0
1
0
0
1
0
3
2
0
1
0
1
1
5
2
2
3
2
10
17
33
55
78
76
58
56
71
59
52
35
13
13
14
40
45
43
34
30
34
71
97
96
78
40
12
31
85
127
84
30
24
24
8
3
10
7
14
15
14
5
4
4
5
6
4
13
9
12
3
5
4
4
8
11
4
3
3
4
3
2
1
1
1
3
1
1
7
4
4
1
1
0
1
3
2
6
1
4
5
17
49
39
33
45
37
25
18
43
32
22
22
22
45
87
97
97
99
98
95
93
94
98
102
99
98
98
102
98
99
101
100
95
92
99
96
95
99
93
97
100
95
89
94
101
107
109
109
110
109
110
110
111
99
83
86
82
93
87
77
98
98
90
96
96
96
91
92
78
61
66
81
90
96
100
101
105
102
113
106
83
57
39
26
11
5
15
17
9
13
9
17
8
30
52
95
74
73
76
28
39
83
119
79
18
15
4
3
0
1
3
3
4
0
4
2
1
3
2
2
1
2
0
0
0
0
0
0
0
0

0
0
0
0
0
0
0
0
1
0
0
0
0
0
0
0
0
0
0
0
0
0
0
0
0
0
0
0
0
0
3
0
1
4
1
6
0
4
3
1
1
2
7
2
4
17
31
50
71
83
62
53
70
75
46
42
20
16
23
40
68
84
77
74
72
45
51
60
73
81
54
21
18
51
91
92
62
10
23
8
5
7
13
22
24
14
1
7
8
5
5
6
4
6
1
1
1
6
0
5
9
8
10
2
5
8
2
4
1
4
2
0
2
6
8
1
4
1
5
3
6
1
2
0
1
0
5
14
24
34
49
35
26
9
41
49
25
26
25
32
64
94
99
97
99
95
95
99
97
98
101
97
101
103
101
99
101
101
97
92
97
101
101
105
97
103
106
100
98
98
98
96
105
104
101
103
104
107
112
106
87
87
91
96
87
93
111
97
94
95
87
88
92
75
67
57
67
80
85
90
89
99
104
100
82
61
35
49
44
19
9
8
9
8
8
7
12
17
55
50
69
82
61
84
47
31
55
95
112
69
9
11
4
1
1
1
4
3
3
0
4
4
4
2
1
1
1
0
0
0
0
0
0
0
0
0

0
0
0
0
0
0
0
0
0
0
0
0
0
0
0
0
0
0
0
0
0
0
0
0
0
0
0
0
0
0
1
0
2
3
0
1
1
1
2
4
2
1
1
4
18
28
44
61
75
70
39
46
61
61
35
22
18
24
42
71
100
106
102
96
91
79
51
50
79
87
55
30
40
30
50
65
69
26
8
22
5
7
13
15
15
10
15
13
2
7
1
13
12
13
8
4
6
3
1
7
7
8
8
11
6
10
5
7
3
4
3
3
0
3
2
3
3
2
2
1
5
5
6
3
3
1
7
16
17
31
37
40
30
19
16
69
55
26
27
31
42
75
98
101
96
96
97
96
98
101
102
96
102
110
98
89
95
96
93
98
97
101
104
105
106
107
103
100
108
99
98
95
91
95
106
107
104
108
107
107
103
98
100
102
102
100
95
96
84
85
90
74
75
57
59
78
87
72
62
75
78
91
96
80
56
40
59
45
7
25
4
13
14
8
10
22
55
98
106
53
87
70
74
86
19
51
75
103
96
60
8
5
5
7
4
4
1
3
7
2
1
2
4
1
0
1
2
0
0
0
0
0
0
0
0
0

0
0
0
0
0
0
0
0
0
0
0
0
0
0
0
0
0
0
0
0
0
0
0
0
0
0
0
1
1
0
0
1
2
0
2
2
3
3
2
4
4
3
1
9
20
33
50
63
72
57
43
55
52
44
14
19
29
34
68
95
109
96
93
93
87
96
75
46
62
81
61
56
43
43
46
50
57
44
31
8
2
10
31
32
18
24
21
13
8
8
9
12
13
7
9
1
1
5
5
4
13
7
13
32
40
13
2
4
7
4
3
8
5
7
4
3
5
3
7
4
4
6
2
8
4
3
9
13
31
24
27
43
50
30
16
48
71
39
23
31
31
44
81
101
105
98
95
96
99
100
101
104
103
100
95
89
87
89
94
99
101
105
101
103
108
100
93
91
91
93
97
99
90
83
98
108
104
110
109
108
108
106
107
101
98
92
79
81
85
78
72
72
80
76
85
86
83
72
74
75
74
81
52
51
67
50
47
23
12
9
7
12
8
13
38
73
80
121
87
70
78
73
82
54
34
57
84
100
90
36
13
4
1
5
2
6
4
4
6
2
0
4
3
2
1
2
1
1
0
0
0
0
0
0
0
0

0
0
0
0
0
0
0
0
0
0
0
0
0
0
0
0
0
0
0
0
0
0
0
0
0
0
0
0
1
0
1
1
0
5
3
3
5
3
0
2
5
6
7
10
19
38
63
72
69
66
69
73
61
30
14
31
38
59
84
98
95
96
102
91
78
81
73
46
50
59
56
51
32
38
52
43
44
51
41
18
6
45
70
78
45
26
14
5
4
4
13
22
33
24
14
4
2
10
7
21
29
36
64
31
66
51
19
7
2
6
5
7
3
5
3
3
3
2
4
11
8
10
8
2
4
6
3
14
30
39
37
46
53
35
27
21
62
56
19
32
42
31
55
80
101
103
96
97
97
95
93
102
102
96
96
91
93
93
97
96
101
112
106
105
97
99
92
87
81
85
92
95
99
95
90
102
107
105
108
113
107
108
104
87
83
92
82
74
85
69
72
85
89
97
92
93
96
91
87
91
66
64
34
35
59
47
42
21
13
7
15
6
4
44
87
76
96
111
60
72
53
77
89
28
47
63
93
96
76
11
10
1
2
2
2
3
4
4
2
4
3
3
2
2
1
0
0
0
0
0
0
0
0
0
0
0

0
0
0
0
0
0
0
0
1
0
0
0
0
0
0
0
0
0
0
0
0
0
0
0
0
0
0
0
0
2
2
3
1
4
1
6
5
0
1
1
4
5
6
18
25
43
68
76
69
76
89
87
68
35
27
35
43
72
89
97
96
97
81
71
67
68
59
48
37
48
68
68
50
16
22
43
42
46
45
35
29
32
47
47
57
43
38
32
22
3
10
15
4
12
15
6
6
13
18
26
34
51
70
23
40
42
57
43
15
4
4
1
4
1
2
0
6
5
3
12
14
12
0
4
3
6
10
17
36
41
41
45
50
23
15
29
52
71
40
26
34
32
33
49
67
92
99
100
105
103
104
103
93
96
98
93
93
97
102
98
104
99
97
99
93
96
93
90
87
80
88
92
98
105
99
99
109
108
110
111
107
109
108
90
84
83
78
86
91
90
101
98
97
100
88
88
89
98
82
88
64
64
44
28
59
54
35
17
19
8
4
10
52
91
77
76
122
86
65
60
65
98
72
18
45
80
97
95
41
11
7
1
1
1
1
3
1
2
1
4
2
4
4
2
1
0
0
0
0
0
0
0
0
0
0
0

0
0
0
0
0
0
0
0
1
0
0
0
0
0
0
0
0
0
0
0
0
0
0
0
0
0
0
0
2
1
0
0
2
3
2
1
2
4
3
3
1
4
13
22
41
64
77
71
64
81
90
77
59
37
32
41
50
78
95
97
80
69
46
38
47
52
60
54
31
40
64
65
77
71
42
14
20
43
41
51
51
43
34
15
25
28
38
55
56
43
22
5
7
6
6
4
9
18
43
42
49
14
50
12
45
41
67
69
30
2
2
6
4
4
3
4
10
13
25
66
75
48
13
8
2
5
8
17
32
42
44
56
56
25
21
43
55
78
71
43
27
34
26
20
28
42
61
84
98
91
88
93
94
95
97
94
89
93
99
104
93
72
84
89
87
92
92
90
89
82
79
89
99
101
103
97
103
111
112
112
109
107
111
104
99
87
93
102
103
100
96
96
88
93
89
73
78
83
87
93
65
64
44
14
48
46
22
18
7
3
20
67
84
89
74
100
120
62
63
66
94
90
24
41
60
96
92
82
19
20
10
1
0
0
6
2
1
3
6
8
1
4
0
1
1
2
1
0
0
0
0
0
0
0
0
0

0
0
0
0
0
0
0
0
0
0
0
0
0
0
0
0
0
0
0
0
0
0
0
0
0
0
0
0
1
1
0
1
1
1
0
1
2
1
3
5
5
11
16
30
53
73
87
71
62
84
89
66
55
30
31
49
63
81
102
97
63
31
26
40
46
41
47
55
45
36
46
54
56
77
72
43
29
20
28
58
66
61
63
44
37
26
11
35
56
72
57
30
21
9
6
6
5
9
30
27
13
11
22
23
31
49
58
40
38
15
1
5
4
2
0
2
3
9
32
82
99
98
56
4
10
6
7
22
43
35
46
47
56
45
32
31
52
66
71
63
38
26
28
23
21
14
27
41
49
51
46
55
71
90
100
93
98
97
93
102
76
62
79
87
76
84
89
86
86
84
82
95
98
101
108
101
99
105
108
111
111
110
108
111
108
105
110
100
98
95
84
91
84
93
99
99
78
49
65
78
49
37
41
19
46
26
24
15
8
5
66
92
88
81
75
125
108
56
64
76
98
63
9
46
84
103
93
58
10
8
7
4
5
1
4
3
2
3
3
1
1
2
0
1
1
0
1
0
0
0
0
0
0
0
0
0

0
0
0
0
0
0
0
0
1
0
0
0
0
0
0
0
0
0
0
0
0
0
0
0
0
0
0
1
1
0
1
0
2
2
4
3
2
0
3
3
4
12
18
34
63
75
81
70
72
91
91
77
57
40
36
55
72
85
87
62
38
48
52
62
68
69
54
46
45
40
35
45
47
53
73
79
54
40
27
27
49
76
74
64
48
44
19
21
38
52
52
28
12
12
17
8
7
7
7
2
1
12
29
26
47
46
59
58
63
33
5
6
3
3
1
7
4
6
32
83
96
112
97
45
8
6
3
30
55
45
60
71
73
68
48
37
57
64
64
78
63
31
24
25
27
27
32
24
28
33
36
39
40
61
91
100
101
102
104
98
70
67
83
87
80
80
89
86
91
97
96
100
99
102
106
107
105
105
106
108
109
107
108
113
106
97
87
83
87
88
76
73
78
79
76
81
62
50
64
77
72
58
40
30
46
12
23
9
18
41
88
85
95
81
99
136
73
49
66
88
83
25
32
55
96
97
82
31
12
5
7
5
3
2
3
3
6
3
3
1
2
3
0
2
1
1
1
0
0
0
0
0
0
0
0
0

0
0
0
0
0
0
0
0
0
0
0
0
0
0
0
0
0
0
0
0
0
0
0
0
0
0
0
0
0
1
3
0
4
2
2
1
1
7
2
1
7
14
22
41
71
83
78
66
80
95
83
83
70
46
46
62
75
80
78
60
56
64
67
77
83
87
87
61
49
47
39
42
43
38
53
61
75
72
59
38
25
54
73
76
61
45
42
19
16
16
22
24
31
39
35
22
18
10
4
4
7
12
39
60
52
38
40
56
41
24
5
9
5
2
5
6
9
10
29
86
86
105
100
73
14
8
15
41
55
49
58
76
69
66
52
49
48
40
51
55
68
57
45
38
29
36
26
26
34
33
34
41
45
29
59
88
98
103
107
85
64
73
82
84
85
85
94
101
109
111
103
102
101
104
105
104
107
106
109
111
109
106
110
108
108
101
85
78
80
87
71
54
58
63
53
46
78
86
87
98
103
77
40
16
19
24
9
22
13
73
86
90
86
88
123
101
44
53
79
101
56
13
41
72
96
89
56
10
7
6
2
3
2
2
4
4
3
3
1
5
3
2
2
2
0
2
0
1
0
0
0
0
0
0
0
0

0
0
0
0
0
0
0
0
0
0
0
0
0
0
0
0
0
0
0
0
0
0
0
0
0
0
0
0
0
1
1
1
1
0
3
0
2
3
5
8
16
25
27
51
77
79
71
66
87
94
86
83
77
56
60
67
79
84
78
64
60
69
77
77
74
77
84
71
57
51
43
47
48
58
49
25
42
65
67
58
48
31
43
51
54
33
30
30
24
30
19
16
21
21
12
10
12
3
12
6
14
37
81
100
72
43
13
28
30
13
7
14
11
5
9
9
1
8
46
121
99
90
108
65
22
11
20
60
68
65
63
77
63
49
39
16
30
59
84
68
18
22
43
44
42
47
32
25
31
34
30
35
47
28
51
75
97
97
83
68
66
68
72
74
79
85
100
110
112
109
102
110
103
100
107
107
105
106
113
111
110
109
110
109
109
111
102
87
85
92
81
77
74
83
77
78
91
91
91
88
87
64
42
5
9
13
0
21
53
88
83
93
78
102
112
58
50
62
102
95
37
26
55
88
87
89
33
14
3
7
2
0
3
3
2
2
2
5
0
2
1
3
2
3
2
0
0
1
0
0
0
0
0
0
0
0

0
0
0
0
0
0
0
0
0
0
0
0
0
0
0
0
0
0
0
0
0
0
0
0
0
0
0
0
0
2
3
5
4
1
2
2
3
3
6
10
15
26
37
57
76
71
64
77
93
98
98
85
67
68
74
79
87
89
83
69
68
69
73
62
64
70
66
59
51
52
53
49
63
45
41
29
8
8
40
74
69
54
40
32
29
18
5
7
12
27
29
25
19
26
29
23
17
18
22
15
16
18
23
62
68
62
22
13
13
9
5
2
13
17
27
23
16
20
58
130
100
71
89
19
14
34
58
84
89
75
71
62
42
28
21
4
19
48
70
87
62
31
2
12
41
60
48
31
31
38
33
40
51
39
60
80
77
78
66
64
64
52
63
71
75
88
106
105
106
108
101
105
111
104
103
100
97
104
97
96
97
100
104
109
109
111
107
102
95
83
80
98
99
89
80
87
82
85
93
88
85
74
35
17
7
3
22
54
77
85
88
87
84
116
87
45
72
63
106
60
22
43
69
95
90
69
12
8
3
5
2
3
4
7
5
0
2
1
3
3
1
1
2
2
1
1
0
0
0
0
0
0
0
0
0
0

0
0
0
0
0
0
0
0
0
0
0
0
0
0
0
0
0
0
0
0
0
0
0
0
0
0
0
0
1
0
1
1
2
3
2
3
2
6
12
11
16
34
51
65
67
66
75
83
96
98
99
77
61
73
82
89
86
86
76
77
74
64
62
66
71
60
57
48
42
49
49
65
41
44
34
5
10
18
20
43
68
80
65
43
25
26
16
12
13
14
22
34
37
31
31
22
19
13
21
29
23
24
27
33
47
64
56
23
14
13
2
7
7
6
17
18
7
11
32
83
74
50
34
4
30
68
90
93
86
71
64
48
21
11
13
20
24
22
39
53
57
60
62
44
10
38
46
36
29
35
44
47
42
45
60
56
55
63
57
57
61
62
75
77
85
102
109
108
108
111
109
105
111
116
109
74
77
104
88
81
84
85
97
110
105
107
113
116
107
90
81
85
86
76
78
88
96
95
88
85
83
66
14
6
12
16
51
76
88
78
94
79
98
117
44
71
57
87
91
24
32
51
85
94
97
42
10
4
4
1
1
1
5
1
3
2
4
3
4
4
2
2
3
1
1
0
0
0
0
0
0
0
0
0
0
0

0
0
0
0
0
0
0
0
0
0
0
0
0
0
0
0
0
0
0
0
0
0
0
0
0
0
0
1
2
1
1
3
8
1
4
9
0
3
6
16
28
44
66
70
60
70
72
78
85
90
88
65
65
76
74
86
90
86
69
71
73
65
59
60
68
58
55
54
49
41
49
50
50
48
46
36
26
8
24
32
48
75
90
85
77
64
57
45
32
17
18
19
23
24
20
17
20
20
18
34
33
30
32
32
43
51
58
55
38
24
15
9
2
6
7
6
9
6
12
15
13
13
30
40
58
94
104
77
72
76
58
53
18
13
20
28
21
35
37
45
56
64
71
68
54
21
21
36
30
36
38
35
26
41
51
32
49
63
58
67
80
86
89
87
91
102
106
109
107
108
110
106
104
102
109
72
60
99
87
78
83
81
94
112
96
94
100
108
117
107
104
92
89
90
98
99
106
98
89
86
73
35
15
2
8
27
75
87
92
83
95
79
107
100
24
59
62
103
65
10
42
65
96
92
70
13
7
1
3
1
1
2
5
3
7
8
5
2
1
1
3
2
0
0
0
0
0
0
0
0
0
0
0
0
0
0

0
0
0
0
0
0
0
0
0
0
0
0
0
0
0
0
0
0
0
0
0
0
0
0
0
0
1
0
1
1
2
3
2
1
4
10
8
10
12
29
41
60
69
60
75
80
62
70
72
76
78
64
64
66
81
92
86
70
69
70
69
64
59
53
63
60
59
59
54
43
46
57
63
66
62
42
10
10
2
19
30
45
77
101
103
91
79
78
63
42
19
9
11
2
11
26
39
38
42
47
64
58
56
54
53
43
40
45
38
27
19
31
29
17
7
10
13
10
11
34
42
47
63
90
99
96
84
71
74
76
54
36
25
16
20
26
29
28
39
44
42
54
73
72
61
37
3
28
35
28
29
30
34
36
38
35
52
67
74
88
98
88
80
91
91
92
100
101
101
97
94
92
96
87
98
81
51
91
87
73
86
91
87
103
96
79
82
93
106
112
110
102
98
110
99
79
80
77
86
84
59
4
7
14
6
44
89
86
84
88
88
85
120
79
45
73
83
96
38
39
62
80
99
93
41
12
3
4
2
1
3
4
2
4
3
5
1
1
2
1
4
2
0
1
1
0
0
0
0
0
0
0
0
0
0
0

0
0
0
0
0
0
0
0
0
0
0
0
0
0
0
0
0
0
0
0
0
0
0
0
0
0
1
0
3
4
0
2
2
4
2
6
10
23
31
43
60
71
67
77
93
76
69
76
58
50
62
69
55
50
88
92
78
61
70
79
63
49
50
58
63
56
58
52
55
54
66
53
46
55
62
50
27
3
3
6
6
9
30
51
52
72
82
85
81
82
75
41
19
3
4
7
14
23
47
53
60
56
52
47
54
41
31
37
22
13
11
44
60
41
26
27
33
39
44
64
78
77
89
96
98
92
83
78
75
73
56
29
21
24
37
44
37
33
43
37
31
57
80
66
50
32
12
25
37
30
31
36
38
35
37
49
68
83
87
88
95
93
79
82
96
93
95
96
99
93
89
89
91
89
99
81
48
81
97
69
79
94
90
99
97
78
83
89
87
94
99
88
86
93
94
84
81
85
76
53
4
19
24
5
23
80
88
83
83
90
86
95
118
52
72
74
90
83
24
44
68
90
97
74
15
11
3
2
1
1
1
1
2
2
0
1
3
0
2
1
1
2
2
0
0
0
0
0
0
0
0
0
0
0
0
0

0
0
0
0
0
0
0
0
0
0
0
0
0
0
0
0
0
0
0
0
0
0
0
0
0
0
1
3
3
1
2
2
3
2
5
13
24
30
42
58
72
73
85
94
87
80
80
79
69
65
65
65
62
53
65
73
86
72
69
72
66
54
55
59
63
64
61
57
54
59
57
48
56
62
59
46
16
3
7
2
7
7
6
26
47
38
18
60
77
76
80
71
69
55
43
20
13
8
19
31
40
42
52
48
41
33
47
32
18
16
3
36
61
54
65
65
69
70
82
89
98
95
92
82
101
96
79
75
72
81
64
39
16
19
37
41
38
42
43
27
21
63
84
60
29
22
27
35
38
36
32
40
38
35
44
66
78
86
96
82
86
98
88
83
86
91
91
92
92
96
93
88
91
91
93
84
56
66
90
73
68
86
92
99
104
89
78
86
83
83
102
81
74
75
77
91
105
96
65
19
13
23
10
7
53
93
87
83
95
92
84
97
92
33
61
73
91
67
18
57
81
101
96
47
11
6
2
4
5
2
3
4
2
2
3
2
6
3
1
1
3
2
1
1
0
0
0
0
0
0
0
0
0
0
0
0

0
0
0
0
0
0
0
0
0
0
0
0
0
0
0
0
0
0
0
0
0
0
0
0
0
0
0
1
1
2
1
2
2
7
13
13
19
33
57
77
79
83
93
88
87
81
76
75
71
73
63
66
75
63
61
71
84
80
76
73
67
61
67
69
67
70
67
57
48
60
57
57
60
65
64
49
25
6
5
7
5
9
8
8
12
26
26
17
32
39
54
71
82
84
79
61
49
40
23
21
15
8
29
47
34
27
36
8
8
20
14
45
47
56
79
83
77
63
70
71
76
83
83
83
88
89
79
86
74
88
72
43
21
17
12
13
29
40
49
27
33
70
75
66
29
42
40
36
43
36
37
33
38
39
51
78
85
76
95
91
80
90
91
84
79
92
92
87
89
95
93
87
87
94
86
89
72
61
82
78
67
83
81
88
109
98
80
83
83
89
101
92
86
82
67
77
87
53
19
25
28
19
27
44
74
84
88
82
91
84
85
90
72
48
67
89
80
47
28
63
91
110
79
21
10
2
6
2
0
2
3
4
5
3
1
2
0
4
4
0
3
0
0
2
1
0
0
0
0
0
0
0
0
0
0
0

0
0
0
0
0
0
0
0
0
0
0
0
0
0
0
0
0
0
0
0
0
0
0
0
0
0
0
1
0
2
1
3
1
6
12
15
25
46
77
85
83
80
80
79
79
86
81
79
90
97
89
102
89
72
68
76
74
83
74
69
59
54
65
71
62
56
61
49
53
65
56
51
60
62
53
32
17
16
9
7
7
4
3
6
12
14
10
21
37
43
70
75
64
69
73
63
63
75
78
55
36
20
10
7
5
8
7
12
2
11
16
16
57
82
63
58
47
38
34
42
54
61
72
74
73
82
90
89
78
88
77
37
38
28
17
9
17
17
16
22
47
85
83
63
27
52
43
43
46
37
35
30
31
34
46
67
82
86
85
94
87
80
94
92
82
87
93
93
91
90
89
87
85
91
87
91
83
76
89
80
72
86
79
86
104
105
89
77
73
88
87
98
95
86
89
77
56
32
23
4
18
19
46
68
78
81
83
82
87
77
102
94
50
77
76
88
68
39
50
70
97
105
58
2
8
4
4
0
2
1
2
2
2
4
2
3
2
6
1
0
0
0
1
0
0
0
0
0
0
0
0
0
0
0
0
0

0
0
0
0
0
0
0
0
0
0
0
0
0
0
0
0
0
0
0
0
0
0
0
0
0
0
0
0
0
0
2
2
6
13
21
30
57
81
88
79
85
84
83
86
96
91
96
121
133
127
121
111
92
81
72
78
72
87
74
66
62
51
58
72
66
51
45
43
65
57
48
50
53
57
53
44
29
11
5
30
12
3
4
11
16
16
3
3
8
25
52
54
42
38
39
51
66
65
78
75
63
32
16
25
35
35
33
29
12
6
9
13
66
90
76
59
49
40
35
25
38
47
52
67
68
69
88
90
85
89
80
35
35
41
67
41
8
5
14
25
26
33
62
67
22
47
56
74
54
46
30
31
28
34
32
44
77
87
82
85
92
80
87
95
79
83
89
88
87
87
83
82
89
88
83
93
90
86
90
87
79
87
82
90
89
90
90
79
69
75
85
88
84
90
86
64
38
23
18
51
19
35
58
74
80
81
77
87
89
81
109
85
46
54
46
90
43
34
60
87
97
87
43
10
4
5
4
3
2
2
3
1
2
1
4
4
2
1
2
0
1
1
0
0
0
0
0
0
0
0
0
0
0
0
0
0

0
0
0
0
0
0
0
0
0
0
0
0
0
0
0
0
0
0
0
0
0
0
0
0
0
0
0
0
0
0
1
4
14
24
40
53
77
87
77
81
85
86
97
102
93
102
134
140
114
96
90
88
94
88
86
98
85
89
82
69
66
59
64
65
61
56
45
52
61
47
48
53
48
46
48
36
37
27
16
39
34
29
38
46
63
56
47
30
14
7
8
11
18
18
4
28
47
48
50
53
52
42
34
40
68
75
70
45
17
5
9
12
55
76
69
60
62
60
46
48
59
50
47
53
61
67
81
86
83
80
75
40
34
23
59
62
71
61
64
66
25
17
55
70
31
23
63
72
53
50
34
28
27
28
30
45
80
83
82
85
89
89
87
86
82
89
87
85
86
92
91
89
91
91
87
94
90
76
89
95
80
78
81
93
90
86
99
93
74
58
82
88
86
92
63
38
19
11
63
48
41
45
72
84
86
83
83
89
82
91
111
68
56
31
94
88
22
47
58
92
93
75
19
9
2
4
1
4
0
4
6
7
2
3
5
1
1
2
3
0
3
2
0
0
0
0
0
0
0
0
0
0
0
0
0
0

0
0
0
0
0
0
0
0
0
0
0
0
0
0
0
0
0
0
0
0
0
0
0
0
0
0
0
1
2
2
3
10
20
34
44
58
86
88
84
84
82
80
83
88
107
131
132
95
70
70
76
84
92
92
108
110
94
94
82
66
67
67
64
60
58
65
62
60
48
47
42
38
36
34
43
40
30
31
35
46
50
48
56
57
61
59
51
42
38
27
23
17
6
19
23
11
17
43
52
57
61
52
46
44
60
69
65
40
22
5
12
14
42
75
77
65
68
67
57
58
60
50
52
53
60
75
78
79
78
81
79
46
47
26
46
66
66
66
43
57
31
27
47
69
80
8
64
61
49
50
42
37
31
26
33
42
63
87
88
85
86
87
87
87
88
85
84
91
87
94
98
97
92
90
92
96
89
82
92
92
81
80
87
98
94
86
100
98
82
67
76
80
84
81
50
12
22
24
46
41
31
69
81
84
83
84
88
89
83
100
101
39
69
64
106
58
27
49
76
95
90
50
5
6
5
3
4
2
7
3
5
3
2
1
1
4
1
4
5
2
2
0
0
0
0
0
0
0
0
0
0
0
0
0
0
0

0
0
0
0
0
0
0
0
0
0
0
0
0
0
0
0
0
0
0
0
0
0
0
0
0
0
0
0
1
1
6
16
27
39
54
72
84
80
83
78
70
75
98
121
135
122
101
95
86
81
81
84
100
122
138
115
102
90
82
66
63
69
60
60
66
70
61
53
56
49
44
41
34
38
50
46
36
34
35
41
46
53
61
54
44
36
38
35
29
31
13
29
21
25
39
26
36
50
52
55
56
49
50
50
47
57
53
30
14
8
2
15
23
68
93
78
74
63
60
60
71
64
63
61
57
68
72
83
85
88
77
48
61
48
50
77
68
55
59
57
25
41
52
48
82
59
36
71
51
56
50
42
37
35
34
35
39
67
91
90
85
85
84
87
82
81
83
86
86
86
90
90
85
89
90
92
81
73
87
86
82
85
86
96
85
67
85
92
92
84
67
64
73
52
22
12
2
46
50
27
49
81
81
87
80
79
86
86
86
115
86
29
56
96
89
24
43
47
94
100
73
17
8
2
2
5
3
1
5
3
0
1
4
2
1
2
4
3
2
0
0
1
0
0
0
0
0
0
0
0
0
0
0
0
0
0

0
0
0
0
0
0
0
0
0
0
0
0
0
0
0
0
0
0
0
0
0
0
0
0
0
0
0
0
1
1
8
20
37
50
65
80
108
117
107
95
94
113
128
127
117
106
100
96
81
77
77
83
97
98
124
117
89
64
48
59
51
54
55
53
61
58
55
59
63
52
47
49
44
43
39
41
40
41
42
35
30
49
45
46
49
41
38
33
39
45
54
72
56
32
38
55
64
54
49
53
54
47
41
31
39
55
39
24
7
4
5
6
16
40
73
83
68
64
72
71
71
69
65
64
53
66
72
78
88
85
64
48
69
61
50
73
66
66
73
48
24
51
50
24
53
97
30
71
58
47
52
40
35
31
37
38
29
36
58
79
84
82
87
94
93
83
80
79
76
76
83
83
83
83
80
88
73
69
92
88
71
75
81
97
94
68
83
86
77
83
82
56
26
26
15
15
39
53
30
43
79
82
86
88
87
83
95
79
91
123
71
30
62
108
58
34
48
66
95
98
52
3
3
6
3
1
5
1
2
3
3
3
4
1
3
2
0
1
0
2
0
2
1
0
0
0
0
0
0
0
0
0
0
0
0
0

0
0
0
0
0
0
0
0
0
0
0
0
0
0
0
0
0
0
0
0
0
0
0
0
0
0
0
0
0
1
10
21
41
62
72
94
128
123
109
100
100
105
98
89
90
100
85
83
79
69
73
84
71
12
74
79
73
78
64
37
30
44
44
33
37
50
51
61
67
66
61
53
53
50
44
49
42
47
50
39
45
54
53
52
53
51
54
61
74
68
71
78
69
57
52
63
61
53
46
40
53
47
36
30
46
38
29
19
5
4
8
4
6
7
23
65
79
85
65
67
69
71
68
64
60
66
75
76
86
81
64
57
76
70
66
77
71
65
43
8
26
54
41
23
39
74
69
29
66
48
58
46
37
31
40
39
33
28
32
49
66
67
67
79
88
83
83
83
77
78
80
79
85
84
82
88
83
80
84
79
72
78
77
78
91
78
85
89
77
87
78
40
5
9
12
33
55
37
37
72
86
80
81
83
84
89
93
80
108
118
37
53
86
109
35
45
55
90
97
86
29
8
2
2
3
1
1
4
4
3
4
1
2
1
6
0
1
3
0
0
0
1
0
0
0
0
0
0
0
0
0
0
0
0
0
0

0
0
0
0
0
0
0
0
0
0
0
0
0
0
0
0
0
0
0
0
0
0
0
0
0
0
0
0
2
1
11
24
52
73
87
99
101
86
83
73
70
76
83
82
91
90
93
95
104
90
83
87
47
35
31
54
57
60
65
63
41
10
24
27
18
41
52
66
74
70
67
63
63
62
67
61
51
54
50
48
61
58
63
60
62
75
76
64
60
67
69
70
68
59
57
58
62
63
60
50
44
39
34
42
62
39
19
5
4
3
8
10
4
3
9
42
76
83
64
60
69
66
71
65
64
67
76
85
82
70
65
66
81
81
79
67
69
75
48
27
21
45
38
31
35
43
64
72
31
57
70
63
46
43
35
38
32
38
39
40
53
79
79
65
62
74
88
89
85
84
78
79
79
86
88
86
73
50
53
68
78
81
83
87
92
91
86
87
82
51
41
43
36
58
53
53
45
32
55
78
84
81
82
80
80
88
83
83
119
105
27
66
101
76
31
41
76
94
93
70
8
7
7
8
2
2
2
4
1
2
2
2
1
3
4
1
4
2
1
0
1
0
0
0
0
0
0
0
0
0
0
0
0
0
0
0

0
0
0
0
0
0
0
0
0
0
0
0
0
0
0
0
0
0
0
0
0
0
0
0
0
0
0
1
2
2
4
25
59
81
79
89
94
90
82
77
77
73
75
78
74
93
105
83
69
46
41
37
2
42
12
31
50
62
61
59
53
55
28
8
19
34
63
93
89
77
69
61
63
62
54
57
62
56
49
52
57
52
62
75
78
79
80
66
53
57
54
52
49
53
51
55
65
69
65
61
51
44
34
46
47
22
9
5
4
3
15
5
2
5
8
12
49
69
89
72
63
60
65
70
68
81
81
79
77
71
65
72
82
85
86
60
54
72
52
30
22
38
34
26
34
36
48
80
55
30
53
78
55
49
39
35
33
36
49
48
51
72
85
74
70
65
71
77
82
87
82
78
83
86
84
77
47
34
44
53
69
78
87
88
77
69
61
42
23
38
78
41
26
59
77
63
46
32
77
80
86
83
88
79
86
86
81
81
118
78
43
90
92
39
35
50
89
93
80
38
10
1
7
1
2
1
4
2
4
4
1
2
3
3
2
0
0
1
2
2
0
0
0
0
0
0
0
0
0
0
0
0
0
0
0
0

0
0
0
0
0
0
0
0
0
0
0
0
0
0
0
0
0
0
0
0
0
0
0
0
0
0
0
0
1
1
2
20
51
78
81
89
92
88
74
70
70
66
60
58
50
35
30
18
24
19
17
13
8
29
33
35
51
60
68
64
54
36
39
30
16
29
48
70
83
103
107
67
60
72
63
61
75
66
66
68
59
58
59
64
62
64
67
59
54
51
50
53
52
61
54
54
64
63
56
58
57
48
35
33
9
9
7
5
2
4
14
7
10
8
3
5
23
47
95
97
69
62
69
69
64
77
76
73
73
75
64
81
85
82
86
60
47
61
49
32
34
38
32
37
37
38
47
64
70
41
26
53
73
54
48
40
48
49
57
56
56
56
51
33
29
43
38
40
48
49
40
41
46
52
39
7
5
10
23
32
36
40
34
34
23
22
7
13
40
81
70
41
42
68
83
60
32
73
81
84
81
84
85
81
82
85
81
92
110
37
64
103
68
36
38
68
96
94
66
8
9
2
2
0
2
2
1
4
3
3
1
3
3
1
2
1
1
0
0
0
0
0
0
0
0
0
0
0
0
0
0
0
0
0
0
0

0
0
0
0
0
0
0
0
0
0
0
0
0
0
0
0
0
0
0
0
0
0
0
0
0
0
0
1
1
2
4
6
23
65
83
85
93
86
70
64
59
37
40
26
16
16
12
9
12
13
8
12
12
24
34
39
50
59
63
61
49
40
35
38
27
24
38
25
16
37
64
58
51
81
85
82
84
79
71
64
70
74
72
68
74
77
74
69
64
59
64
72
74
75
71
66
70
68
75
63
52
41
22
17
8
11
4
5
9
11
10
8
16
3
8
13
13
34
76
113
85
68
77
62
53
66
68
75
70
71
65
77
78
84
83
52
63
58
39
45
36
36
40
41
47
49
44
41
60
43
14
29
71
69
46
45
58
51
53
69
68
66
49
37
25
8
9
14
14
21
42
40
44
41
40
48
37
65
86
78
90
86
44
22
12
3
14
51
92
61
43
51
75
90
72
40
58
83
86
84
80
88
77
88
79
91
90
84
74
29
91
98
38
37
46
87
94
86
42
10
2
3
0
3
3
2
0
0
0
1
1
4
3
4
3
0
2
0
0
1
0
0
0
0
0
0
0
0
0
0
0
0
0
0
0
0

0
0
0
0
0
0
0
0
0
0
0
0
0
0
0
0
0
0
0
0
0
0
0
0
0
0
0
1
1
4
3
3
7
40
73
93
106
105
85
44
29
22
21
14
16
17
14
13
17
15
9
14
21
17
50
55
58
76
75
63
55
45
46
48
40
45
42
28
40
25
15
28
34
34
41
36
31
38
31
12
27
37
36
50
66
75
81
82
69
52
59
80
85
83
72
75
85
91
86
38
15
14
6
2
7
9
8
13
16
11
14
13
5
12
1
13
6
24
38
73
61
67
72
64
52
59
67
76
71
73
68
74
73
84
75
45
59
51
59
48
28
33
36
35
43
48
32
28
46
45
17
23
60
84
65
38
48
56
49
72
80
91
79
41
25
24
18
19
4
25
47
54
65
62
49
60
68
66
70
60
42
17
28
31
5
22
59
96
77
50
49
68
80
71
53
54
80
73
85
84
86
86
81
89
77
99
65
48
61
48
107
83
33
39
70
95
90
71
13
7
4
4
3
5
1
2
3
3
2
0
1
2
4
3
3
0
2
1
1
1
0
0
0
0
0
0
0
0
0
0
0
0
0
0
0
0

0
0
0
0
0
0
0
0
0
0
0
0
0
0
0
0
0
0
0
0
0
0
0
0
0
0
0
0
1
1
1
2
8
11
38
66
108
114
57
25
20
2
6
18
16
8
12
14
6
8
16
16
28
28
66
59
62
83
84
60
53
53
65
52
47
28
36
39
30
36
19
18
21
31
41
37
23
42
47
31
35
34
19
24
28
40
64
61
39
17
29
55
67
57
46
55
56
56
45
26
10
11
12
5
8
7
7
18
14
9
41
46
41
40
25
14
2
9
20
30
39
55
65
66
55
61
70
76
72
69
65
75
74
84
63
31
6
82
60
44
45
40
39
38
38
38
17
24
24
34
28
27
46
73
83
66
61
75
82
78
84
84
81
79
56
23
20
24
22
26
55
52
35
32
36
47
50
30
38
39
36
13
21
21
31
81
85
48
32
43
55
67
75
56
44
81
73
84
86
78
83
87
86
87
77
86
30
38
65
60
111
66
33
41
81
93
84
44
7
4
4
1
2
4
0
0
2
2
3
3
1
1
2
1
3
2
2
1
0
0
0
0
0
0
0
0
0
0
0
0
0
0
0
0
0
0

0
0
0
0
0
0
0
0
0
0
0
0
0
0
0
0
0
0
0
0
0
0
0
0
0
0
0
1
1
1
1
5
4
2
7
21
44
44
5
17
14
2
11
20
9
4
3
5
19
29
40
40
39
54
85
80
71
74
68
59
53
56
75
57
37
25
18
15
0
23
22
19
25
35
33
36
36
50
60
49
45
46
35
33
34
19
12
7
2
12
21
18
17
5
17
9
4
11
19
20
14
13
19
29
18
9
13
10
4
29
48
65
70
65
54
43
30
17
14
20
39
44
59
66
65
72
68
69
67
64
65
69
75
92
79
52
16
28
16
35
46
40
39
29
32
28
17
18
21
30
26
3
25
48
79
83
67
61
83
87
83
80
82
79
73
55
33
44
18
22
44
55
63
56
56
47
27
33
33
18
8
19
8
47
83
86
50
17
38
30
62
74
74
53
76
83
80
93
83
79
84
88
87
88
79
63
38
63
53
76
115
54
33
59
90
100
71
14
12
5
6
2
3
2
2
3
5
4
4
1
5
3
3
3
1
3
2
1
3
1
0
1
0
0
0
0
0
0
0
0
0
0
0
0
0
0

0
0
0
0
0
0
0
0
0
0
0
0
0
0
0
0
0
0
0
0
0
0
0
0
0
0
0
0
0
0
1
2
1
4
4
7
13
14
8
1
1
8
13
21
23
12
12
25
15
20
38
32
62
88
105
81
64
52
43
44
42
46
59
47
17
22
38
33
50
50
36
27
20
14
11
7
13
20
19
15
12
16
19
23
30
9
28
51
29
29
35
42
39
43
32
36
36
17
10
11
24
32
35
50
30
11
8
6
11
31
66
75
66
65
82
75
61
38
12
19
42
50
56
65
67
60
60
67
69
65
67
66
73
89
93
68
34
35
48
45
34
33
36
34
39
35
23
23
27
28
26
22
37
42
46
58
49
52
55
62
76
76
80
83
89
79
29
34
42
5
34
30
48
56
34
20
7
6
2
19
34
63
80
89
76
50
25
38
41
56
75
88
67
67
91
79
87
85
76
72
79
86
89
85
78
53
61
56
55
110
100
40
35
79
91
94
50
5
7
4
3
1
2
2
3
5
0
3
3
2
7
3
3
3
2
4
3
1
2
1
0
0
0
0
0
0
0
0
0
0
0
0
0
0
0
0

0
0
0
0
0
0
0
0
0
0
0
0
0
0
0
0
0
0
0
0
0
0
0
0
0
0
0
0
0
0
1
1
2
5
5
3
3
1
2
2
9
14
12
18
26
17
21
33
58
88
94
88
88
103
100
92
72
46
36
44
37
37
42
14
44
27
65
74
86
97
93
96
77
41
32
16
16
18
19
15
18
24
17
11
14
10
34
59
36
22
30
39
37
43
47
33
19
16
10
14
40
55
50
42
28
20
20
12
25
42
77
75
59
72
90
90
79
58
34
30
47
61
64
58
59
62
68
72
69
69
73
67
73
69
61
17
17
3
45
51
41
32
20
24
30
25
32
42
41
50
42
36
40
36
30
53
59
51
53
46
55
65
67
81
91
97
48
12
34
24
8
46
50
75
72
21
35
5
44
64
92
94
87
63
58
63
60
34
62
79
78
72
57
77
81
82
84
81
75
76
80
84
81
83
70
61
62
41
86
124
59
40
50
84
93
77
28
11
1
4
3
3
3
3
1
1
4
7
1
3
4
2
3
2
1
1
1
0
0
0
0
0
0
0
0
0
0
0
0
0
0
0
0
0
0
0

0
0
0
0
0
0
0
0
0
0
0
0
0
0
0
0
0
0
0
0
0
0
0
0
0
0
0
0
0
1
2
1
1
4
1
3
10
6
5
4
4
5
4
17
28
22
20
35
42
68
112
114
98
107
100
91
67
56
52
60
64
52
50
15
32
46
83
98
109
95
77
101
108
101
73
35
23
30
44
29
32
41
31
15
30
30
18
14
7
4
10
8
4
6
0
9
15
14
7
22
39
74
80
58
33
32
25
27
43
50
68
60
47
67
80
84
88
76
53
49
57
68
67
57
49
64
70
71
72
70
74
70
70
61
62
20
32
27
16
50
73
70
42
21
6
18
35
45
38
45
43
38
37
52
64
61
74
60
50
43
41
53
66
69
71
81
69
23
9
17
39
88
77
105
89
10
24
28
43
54
62
73
82
67
57
55
42
53
76
84
76
70
68
75
78
92
86
76
75
91
86
84
77
74
52
67
41
63
119
101
39
43
65
86
97
58
3
8
0
2
4
1
1
3
1
1
3
1
3
2
3
2
5
2
2
2
1
0
0
0
0
0
0
0
0
0
0
0
0
0
0
0
0
0
0
0

0
0
0
0
0
0
0
0
0
0
0
0
0
0
0
0
0
0
0
0
0
0
0
0
0
0
0
1
1
1
0
3
3
1
4
2
6
7
4
1
9
4
5
15
20
12
24
23
51
67
60
56
60
79
83
78
80
71
69
75
73
49
46
23
16
81
114
123
114
90
69
87
103
113
82
46
41
31
37
46
35
29
38
32
39
33
20
17
8
8
26
28
23
35
59
79
64
31
32
6
64
129
133
99
54
21
15
19
24
33
57
57
50
60
68
81
89
85
67
58
67
74
60
59
50
67
71
67
71
68
73
81
75
70
54
22
24
29
32
24
45
53
60
53
50
49
51
22
6
15
38
53
80
83
69
58
78
77
63
48
52
49
46
59
60
72
75
42
27
14
76
105
92
105
90
16
29
19
57
17
54
94
98
57
33
50
50
77
82
84
78
67
79
77
82
87
80
73
82
86
86
77
76
69
59
58
34
87
129
60
50
45
76
97
79
27
10
1
1
3
2
1
0
2
1
1
3
4
4
0
3
3
2
1
0
1
1
1
0
1
0
0
0
0
0
0
0
0
0
0
0
0
0
0
0
0

0
0
0
0
0
0
0
0
0
0
0
0
0
0
0
0
0
0
0
0
0
0
0
0
0
0
0
0
0
0
0
1
2
1
5
1
8
1
0
2
8
1
1
13
23
31
26
5
12
51
49
27
31
46
67
77
84
79
82
85
74
55
46
16
26
102
121
112
104
107
97
99
97
94
102
70
41
31
54
51
32
26
27
23
43
29
20
57
61
86
53
21
75
107
135
132
134
87
38
21
58
113
126
107
89
59
46
46
48
63
71
76
65
62
76
75
84
86
81
65
71
77
69
64
68
78
76
72
70
69
79
85
81
80
62
8
27
30
36
42
33
19
16
30
54
82
86
63
54
62
72
82
84
51
32
63
82
78
81
72
62
67
48
43
63
74
70
50
36
76
114
115
117
121
90
25
64
58
43
36
72
96
91
63
62
45
67
73
79
80
77
69
77
85
87
79
78
84
89
83
80
76
79
76
78
37
50
112
105
44
49
63
86
93
57
2
10
3
7
4
0
3
2
2
2
2
3
3
3
3
3
3
2
2
2
1
0
1
0
0
0
0
0
0
0
0
0
0
0
0
0
0
0
0
0
0

0
0
0
0
0
0
0
0
0
0
0
0
0
0
0
0
0
0
0
0
0
0
0
0
0
0
0
0
0
0
1
1
3
2
2
3
2
7
3
3
1
2
3
12
17
25
56
59
58
76
57
37
26
45
73
80
74
83
85
82
78
70
52
18
35
120
123
101
105
100
86
89
90
81
73
52
25
20
36
35
33
22
8
20
26
36
72
77
96
119
105
101
104
107
119
104
118
111
72
39
69
100
100
93
102
89
77
69
68
77
75
70
74
79
85
81
82
94
89
75
76
83
85
70
72
73
70
76
72
65
75
83
85
88
71
10
37
38
29
29
24
23
14
1
11
20
44
43
50
52
48
38
23
24
40
67
68
72
78
89
70
52
58
45
56
67
65
66
50
98
118
113
128
128
99
30
56
51
39
53
67
85
72
66
66
61
71
81
82
81
78
80
80
83
89
83
80
89
83
86
78
88
85
85
67
30
86
107
61
53
39
82
93
88
41
8
8
4
2
2
5
1
1
4
2
3
3
4
1
3
3
3
2
1
2
1
2
1
0
0
0
0
0
0
0
0
0
0
0
0
0
0
0
0
0
0

0
0
0
0
0
0
0
0
0
0
0
0
0
0
0
0
0
0
0
0
0
0
0
0
0
0
0
0
0
0
0
1
1
2
1
4
3
0
5
1
8
2
4
15
20
42
60
65
62
70
49
42
46
60
67
77
74
76
78
81
78
78
51
23
52
127
127
108
102
113
105
91
88
71
44
35
14
24
39
55
62
42
29
40
46
66
73
84
98
102
91
69
66
71
86
95
102
108
109
91
82
94
85
83
96
92
87
82
78
75
71
71
75
86
82
79
84
85
91
80
75
80
82
71
66
66
70
77
73
65
72
80
89
94
60
20
18
30
25
36
38
34
24
30
10
19
29
29
3
15
16
3
5
10
17
38
61
66
76
82
87
42
48
36
59
82
70
60
59
105
126
130
145
123
76
14
43
60
71
70
77
88
59
31
67
74
82
83
81
93
82
80
90
81
86
82
80
78
85
82
89
91
85
84
54
44
90
93
49
52
57
91
90
72
12
11
6
3
4
3
4
1
1
3
1
4
2
3
1
1
2
2
0
2
1
1
0
0
0
0
0
0
0
0
0
0
0
0
0
0
0
0
0
0
0
0

0
0
0
0
0
0
0
0
0
0
0
0
0
0
0
0
0
0
0
0
0
0
0
0
0
0
0
0
0
0
0
0
0
0
4
2
2
4
1
3
7
2
6
15
24
56
54
51
60
60
47
47
57
58
67
78
77
72
77
84
71
83
52
19
59
124
128
119
104
117
115
96
76
55
21
27
35
33
40
48
61
61
58
65
55
69
93
106
111
107
102
88
80
85
81
90
97
101
106
83
76
87
72
73
99
96
100
98
104
108
95
87
82
78
77
77
78
77
84
80
77
82
82
73
61
64
72
77
68
65
77
83
88
86
46
11
15
25
33
43
46
27
18
32
9
8
22
27
16
26
29
32
24
13
17
22
9
25
62
67
70
73
53
49
77
82
57
51
72
121
153
138
114
56
24
29
64
86
84
88
87
90
66
34
74
74
84
83
84
90
82
85
88
83
85
86
85
79
85
84
95
85
91
71
55
67
81
60
41
39
79
89
85
43
10
6
2
1
5
2
2
0
1
2
3
3
1
1
0
1
0
0
0
0
0
0
0
0
0
0
0
0
0
0
0
0
0
0
0
0
0
0
0
0
0
0

0
0
0
0
0
0
0
0
0
0
0
0
0
0
0
0
0
0
0
0
0
0
0
0
0
0
0
0
0
0
0
0
0
2
2
0
1
3
3
5
2
1
4
15
33
68
53
61
52
55
62
59
59
56
77
72
81
88
89
74
70
84
47
14
79
119
116
126
112
100
105
78
32
29
6
14
38
52
55
48
58
62
70
48
41
74
94
87
87
80
77
81
68
77
73
75
83
91
83
59
69
90
90
92
98
101
112
112
118
124
113
93
82
76
79
86
83
78
77
83
89
86
90
86
64
73
81
73
70
68
79
94
89
69
45
24
21
34
37
28
31
32
22
27
21
12
11
20
18
28
52
46
28
18
25
23
24
16
12
45
57
67
69
70
82
71
61
90
111
128
129
84
31
50
60
68
80
83
89
87
95
90
65
55
80
76
77
79
91
78
82
89
85
84
88
85
85
85
77
96
90
75
95
46
79
102
75
42
34
54
89
89
68
18
6
1
4
3
6
3
0
0
0
1
2
0
3
4
0
0
0
2
0
0
0
0
0
0
0
0
0
0
0
0
0
0
0
0
0
0
0
0
0
0
0
0

0
0
0
0
0
0
0
0
0
0
0
0
0
0
0
0
0
0
0
0
0
0
0
0
0
0
0
0
0
0
0
0
0
0
0
2
2
4
5
1
2
5
9
18
46
64
58
66
54
59
67
64
63
66
78
80
98
111
105
77
88
71
29
34
106
120
117
132
111
87
75
45
30
4
13
41
47
65
67
56
61
46
39
22
34
54
60
62
53
54
58
76
82
80
80
80
78
74
64
63
87
99
95
118
93
89
117
104
97
112
123
105
81
76
82
82
81
76
80
82
86
92
97
80
60
79
81
78
79
68
84
93
89
67
44
31
23
38
20
23
36
38
28
24
26
29
19
22
22
27
27
24
25
15
18
16
16
23
19
5
32
51
65
60
62
63
72
93
123
125
56
26
63
82
82
77
81
81
87
82
95
79
53
54
73
84
77
80
90
79
85
86
87
84
87
79
79
77
88
94
74
84
62
53
117
111
47
41
39
77
91
87
37
3
1
0
0
2
2
2
1
1
0
2
2
2
3
2
0
0
1
0
0
0
0
0
0
0
0
0
0
0
0
0
0
0
0
0
0
0
0
0
0
0
0
0

0
0
0
0
0
0
0
0
0
0
0
0
0
0
0
0
0
0
0
0
0
0
0
0
0
0
0
0
0
0
0
1
0
1
0
4
2
1
2
3
1
5
11
22
53
59
59
66
62
68
72
69
73
72
76
104
109
120
99
93
94
53
21
50
110
112
105
103
105
87
39
34
19
9
46
77
73
69
53
48
28
5
5
19
46
45
38
47
47
47
54
69
70
74
82
77
80
82
76
87
90
85
92
94
81
82
99
86
84
107
117
105
102
87
80
77
75
70
78
87
88
90
96
80
61
77
88
84
75
70
88
92
84
60
50
43
16
30
33
33
31
22
15
19
24
34
31
27
22
18
18
22
21
8
5
14
10
26
31
5
16
21
16
18
24
28
53
85
114
93
31
90
86
88
82
76
82
86
83
89
84
77
52
60
77
86
78
88
84
80
87
85
85
85
84
83
82
85
95
88
84
66
44
86
124
106
46
35
64
94
101
73
8
6
3
2
3
6
3
4
1
2
3
1
1
2
4
3
0
1
1
0
0
0
0
0
0
0
0
0
0
0
0
0
0
0
0
0
0
0
0
0
0
0
0
0

0
0
0
0
0
0
0
0
0
0
0
0
0
0
0
0
0
0
0
0
0
0
0
0
0
0
0
0
0
0
0
0
0
2
1
2
1
1
1
1
4
11
17
36
63
63
66
72
70
72
67
75
78
73
90
95
96
96
79
100
75
39
20
54
114
113
101
94
107
53
40
17
8
42
68
70
61
42
38
25
10
11
22
47
54
56
56
63
62
58
55
61
54
59
61
55
62
62
62
74
78
75
95
77
69
83
69
57
66
88
98
102
115
111
88
78
74
72
69
80
98
103
101
80
62
80
90
84
78
74
88
86
76
49
61
66
32
28
29
21
20
22
16
18
16
23
28
22
25
27
27
34
26
17
31
22
20
28
30
32
8
10
10
6
5
18
43
20
103
24
91
91
85
88
81
82
83
83
88
97
77
66
47
62
83
86
83
89
79
82
84
82
83
87
80
79
87
93
86
81
78
31
78
113
106
81
48
41
86
98
95
36
5
3
5
6
3
2
2
1
4
5
6
1
1
2
3
2
2
1
0
0
0
0
0
0
0
0
0
0
0
0
0
0
0
0
0
0
0
0
0
0
0
0
0
0

0
0
0
0
0
0
0
0
0
0
0
0
0
0
0
0
0
0
0
0
0
0
0
0
0
0
0
0
0
0
0
0
0
1
0
0
3
1
1
0
3
14
22
44
71
76
78
81
81
68
66
79
77
88
111
80
82
74
84
89
41
20
24
95
122
108
98
88
56
33
22
10
44
76
52
38
32
22
14
21
31
49
66
76
67
71
75
70
70
63
60
64
62
58
60
52
59
55
54
59
71
76
86
84
82
87
65
54
61
75
96
110
121
125
111
90
76
70
69
79
97
107
102
84
75
85
87
84
74
74
85
68
60
53
47
54
41
25
17
19
25
29
30
25
21
33
32
20
24
25
18
28
17
36
49
37
29
19
22
14
18
29
18
19
22
14
30
31
39
49
104
87
84
87
85
85
78
74
90
94
76
28
55
70
86
85
92
84
82
86
84
79
82
88
76
74
84
85
76
79
49
43
131
126
85
57
27
71
93
93
62
7
7
5
5
6
2
3
2
1
5
1
3
1
2
2
2
1
1
1
0
1
0
0
0
0
0
0
0
0
0
0
0
0
0
0
0
0
0
0
0
0
0
0
0
0

0
0
0
0
0
0
0
0
0
0
0
0
0
0
0
0
0
0
0
0
0
0
0
0
0
0
0
0
0
0
0
0
1
1
1
3
1
1
3
4
9
18
39
61
84
87
82
85
87
69
72
77
75
107
111
81
80
71
89
56
29
14
52
130
124
110
81
42
6
14
15
47
61
55
28
35
32
8
32
44
64
81
79
75
75
80
78
67
72
76
79
73
67
65
70
64
66
69
71
74
73
71
76
79
84
74
65
62
59
71
88
96
113
118
113
101
85
68
68
83
95
95
91
79
76
84
85
82
68
75
77
57
57
62
61
60
53
26
29
39
44
40
35
27
34
38
37
33
36
33
25
14
10
32
59
62
54
40
20
9
8
17
20
23
47
19
9
37
35
64
99
93
80
83
79
89
75
79
104
73
53
30
67
80
88
81
90
82
85
82
86
83
86
89
76
76
88
89
79
67
14
80
136
111
78
29
54
88
89
79
32
8
3
3
1
5
5
3
1
1
3
3
1
2
2
1
3
1
1
1
1
0
0
0
0
0
0
0
0
0
0
0
0
0
0
0
0
0
0
0
0
0
0
0
0
0

0
0
0
0
0
0
0
0
0
0
0
0
0
0
0
0
0
0
0
0
0
0
0
0
0
0
0
0
0
0
0
0
0
2
1
0
0
2
5
6
12
26
57
89
93
88
85
73
80
71
76
77
85
111
93
82
85
81
74
31
23
23
86
117
135
114
48
6
14
15
43
62
44
26
19
6
22
51
65
72
76
68
63
80
84
81
75
65
67
73
77
71
66
74
77
72
67
71
73
78
77
71
70
79
70
60
62
67
57
67
86
87
96
102
96
91
79
66
67
83
91
90
84
76
74
86
78
82
74
78
68
56
75
81
84
95
93
54
43
68
73
68
65
72
56
32
32
34
40
27
32
20
20
27
62
67
65
53
44
53
33
6
25
30
47
20
51
74
68
70
80
99
91
86
77
85
73
89
94
60
39
49
68
87
87
80
84
82
83
82
86
85
89
86
78
86
90
59
90
36
34
106
128
79
59
23
81
90
88
56
11
9
3
2
2
1
1
1
1
1
1
2
1
3
6
2
2
1
3
1
0
0
0
0
0
0
0
0
0
0
0
0
0
0
0
0
0
0
0
0
0
0
0
0
0
0

0
0
0
0
0
0
0
0
0
0
0
0
0
0
0
0
0
0
0
0
0
0
0
0
0
0
0
0
0
0
0
1
0
2
2
2
4
3
4
11
36
57
91
103
103
84
80
77
77
77
91
80
89
95
87
82
85
83
46
22
23
34
91
95
110
68
7
13
8
47
65
46
25
9
20
51
73
82
71
77
70
69
80
80
78
78
79
75
68
69
73
68
60
69
74
70
70
79
75
69
75
74
69
83
80
70
66
68
69
72
82
85
101
100
95
81
74
86
78
83
85
87
80
74
72
76
72
83
80
83
58
58
92
90
83
104
89
88
98
93
98
96
100
111
99
72
51
49
52
48
35
25
28
44
71
72
72
79
56
54
75
64
24
42
42
49
83
81
88
84
66
84
99
90
83
82
87
92
78
62
40
48
73
91
82
82
84
85
82
84
81
86
87
82
81
95
69
90
71
32
74
124
103
57
22
64
94
99
80
25
12
4
8
8
2
2
6
6
1
3
4
5
1
2
3
0
2
2
3
2
1
0
0
0
0
0
0
0
0
0
0
0
0
0
0
0
0
0
0
0
0
0
0
0
0
0

0
0
0
0
0
0
0
0
0
0
0
0
0
0
0
0
0
0
0
0
0
0
0
0
0
0
0
0
0
0
0
0
1
3
1
4
1
4
7
28
61
96
108
106
96
86
82
83
84
89
98
82
72
76
84
90
76
53
23
34
27
33
67
101
73
23
15
7
39
67
47
31
30
35
56
70
68
65
69
77
82
86
81
73
75
80
79
77
72
70
65
60
59
63
70
66
61
71
73
66
69
72
67
66
80
89
82
69
62
65
68
77
94
97
94
78
63
82
81
82
85
87
81
79
89
90
78
78
79
87
49
61
77
32
22
44
39
51
62
58
75
84
100
98
81
76
61
58
55
53
48
40
59
67
72
81
82
87
72
69
74
76
71
39
33
77
87
91
92
88
68
63
90
98
92
78
102
106
94
37
26
58
80
85
75
84
83
89
82
84
85
89
80
82
87
88
80
110
47
55
104
121
79
40
34
89
95
94
47
4
6
2
2
3
2
0
2
1
4
3
2
6
3
1
1
1
0
0
1
1
0
0
0
0
0
0
0
0
0
0
0
0
0
0
0
0
0
0
0
0
0
0
0
0
0
0

0
0
0
0
0
0
0
0
0
0
0
0
0
0
0
0
0
0
0
0
0
0
0
0
0
0
0
0
0
0
0
0
2
2
1
3
3
2
8
30
73
115
109
105
96
97
101
95
91
94
94
80
65
66
85
80
53
18
15
37
35
34
67
84
36
22
10
26
51
58
42
41
51
67
72
71
70
74
77
87
85
83
77
84
81
78
78
79
70
59
54
51
55
57
61
57
53
62
69
68
70
72
70
65
64
78
88
74
58
59
76
87
89
95
99
78
49
64
71
65
75
81
89
97
103
102
91
77
78
88
49
68
43
23
8
10
30
15
7
11
22
37
69
84
70
44
24
59
97
91
84
82
73
57
71
78
83
77
45
51
52
47
56
50
56
68
78
88
87
83
68
59
82
100
93
95
112
98
63
18
37
78
86
82
80
88
80
88
86
90
89
78
77
90
85
84
114
83
40
80
104
96
62
24
78
86
96
76
15
9
4
8
4
1
1
2
0
5
1
2
2
1
3
0
3
2
1
1
0
0
1
0
0
0
0
0
0
0
0
0
0
0
0
0
0
0
0
0
0
0
0
0
0
0
0
0

0
0
0
0
0
0
0
0
0
0
0
0
0
0
0
0
0
0
0
0
0
0
0
0
0
0
0
0
0
0
0
1
0
0
0
1
0
1
4
19
69
118
114
106
105
112
108
99
100
96
84
71
63
73
84
66
44
3
7
29
31
28
44
31
18
27
38
48
51
52
52
57
68
66
70
73
82
84
76
81
79
77
82
83
80
74
70
71
57
44
46
47
44
50
55
57
53
62
61
58
70
70
66
65
62
68
77
82
77
70
77
79
91
111
98
73
94
93
79
49
63
81
93
96
86
87
91
73
80
98
55
60
29
22
29
28
31
27
20
16
0
13
20
36
41
57
66
64
71
78
75
82
64
50
72
71
70
70
37
24
30
58
78
75
72
78
76
76
87
87
69
56
75
87
88
107
86
67
44
36
68
80
88
78
84
88
82
88
87
88
80
76
84
93
87
89
146
74
68
114
94
66
29
50
90
91
84
40
9
3
1
2
0
2
0
0
2
0
4
1
2
2
0
1
1
1
0
1
1
0
0
0
0
0
0
0
0
0
0
0
0
0
0
0
0
0
0
0
0
0
0
0
0
0
0
0

0
0
0
0
0
0
0
0
0
0
0
0
0
0
0
0
0
0
0
0
0
0
0
0
0
0
0
0
0
0
0
0
1
1
0
1
2
0
6
7
38
99
119
106
113
115
98
90
94
95
79
73
73
81
90
82
38
10
9
27
22
17
22
10
25
56
68
73
57
64
56
64
74
59
66
80
86
75
77
84
69
69
80
76
69
67
57
51
48
41
39
43
53
49
48
60
52
55
52
52
53
56
54
54
66
70
69
80
80
76
73
69
85
114
84
47
90
88
93
56
64
81
88
91
82
97
89
67
88
98
50
63
44
28
17
19
16
14
23
25
5
7
7
10
7
18
60
67
50
62
66
54
56
60
75
72
77
78
64
44
41
77
86
71
80
82
78
79
85
95
88
66
73
68
72
77
51
71
45
56
62
79
89
74
83
84
82
85
87
84
74
79
93
93
78
131
146
53
86
109
84
56
20
85
94
103
66
7
12
5
1
1
2
1
2
4
2
4
5
3
1
3
2
0
0
1
1
2
0
0
0
0
0
0
0
0
0
0
0
0
0
0
0
0
0
0
0
0
0
0
0
0
0
0
0
0

0
0
0
0
0
0
0
0
0
0
0
0
0
0
0
0
0
0
0
0
0
0
0
0
0
0
0
0
0
0
0
0
1
1
0
0
2
1
1
3
9
59
109
119
118
115
94
81
89
88
79
82
80
88
97
64
15
3
15
28
11
17
26
12
44
73
84
75
67
71
61
66
72
78
82
86
86
83
78
79
71
69
68
64
59
59
56
50
47
41
47
52
57
47
47
56
56
64
54
54
48
52
55
49
54
61
74
76
76
80
79
75
83
86
80
28
24
69
81
60
61
82
82
92
95
110
82
72
87
84
51
74
57
25
14
19
31
11
10
10
8
7
2
12
14
15
6
41
62
61
75
66
57
54
62
62
70
68
54
54
81
89
82
80
84
83
81
83
86
88
91
78
63
34
49
58
60
50
62
45
48
87
89
75
88
83
82
84
91
73
74
82
96
95
74
168
119
65
81
86
71
37
60
95
94
92
37
6
5
4
4
4
3
1
1
7
4
2
2
2
2
2
3
4
2
2
2
0
0
0
0
0
0
0
0
0
0
0
0
0
0
0
0
0
0
0
0
0
0
0
0
0
0
0
0
0

0
0
0
0
0
0
0
0
0
0
0
0
0
0
0
0
0
0
0
0
0
0
0
0
0
0
0
0
0
0
0
0
0
0
2
0
1
3
1
0
2
20
84
128
133
112
98
79
79
71
61
69
70
90
69
30
2
4
26
23
1
10
15
37
70
66
86
71
62
59
57
73
71
85
85
85
78
83
71
57
63
65
58
51
54
49
48
51
52
43
46
50
45
41
59
63
62
63
53
49
54
60
53
42
45
62
69
67
77
78
79
76
74
73
92
55
23
68
68
53
62
85
81
90
100
96
80
73
76
84
60
72
65
32
28
40
34
22
14
17
23
8
13
4
2
15
18
28
67
68
66
70
68
64
51
46
44
41
55
77
91
88
84
85
84
86
82
76
80
79
76
67
48
27
46
46
35
28
61
43
63
88
80
80
92
82
81
83
78
68
75
90
95
88
108
156
72
77
101
95
59
29
90
92
93
61
12
7
7
3
3
2
0
3
2
3
5
3
0
3
1
2
2
1
1
2
0
0
0
0
0
0
0
0
0
0
0
0
0
0
0
0
0
0
0
0
0
0
0
0
0
0
0
0
0
0

0
0
0
0
0
0
0
0
0
0
0
0
0
0
0
0
0
0
0
0
0
0
0
0
0
0
0
0
0
0
0
0
0
1
1
1
1
3
2
3
0
5
29
72
101
92
87
83
78
64
49
55
63
83
44
16
13
10
29
12
27
22
37
39
69
85
87
68
66
69
65
78
79
78
78
82
82
78
61
51
52
52
52
46
44
39
38
51
51
47
45
42
45
48
59
65
68
54
49
56
58
55
54
53
51
56
62
67
73
74
81
79
68
80
90
61
10
45
52
59
81
80
83
87
89
77
78
72
77
90
63
63
73
49
22
32
33
23
36
40
42
30
38
33
32
32
13
20
40
64
68
62
71
70
68
63
54
54
81
94
82
86
86
84
84
80
80
81
80
76
78
68
45
8
62
45
22
76
66
40
80
87
77
87
88
84
82
84
73
76
83
100
91
77
122
89
58
85
102
98
34
62
100
94
88
34
7
1
2
4
5
2
1
2
2
3
2
5
3
1
2
1
2
0
0
0
1
0
0
0
0
0
0
0
0
0
0
0
0
0
0
0
0
0
0
0
0
0
0
0
0
0
0
0
0
0

0
0
0
0
0
0
0
0
0
0
0
0
0
0
0
0
0
0
0
0
0
0
0
0
0
0
0
0
0
0
0
1
1
1
1
0
1
1
2
3
3
3
7
13
45
54
61
68
81
66
43
41
64
80
46
27
17
20
37
31
51
61
97
58
59
83
71
60
75
81
78
78
85
81
75
71
69
68
53
50
54
47
40
35
39
45
46
44
37
44
53
55
46
48
54
65
70
65
54
55
55
55
59
62
54
51
64
72
69
69
79
77
72
91
99
56
18
40
38
66
79
79
86
94
84
88
81
69
81
90
61
58
71
66
44
34
50
50
28
29
23
31
28
42
39
39
22
19
20
13
49
61
70
59
68
71
63
68
84
79
81
87
85
81
86
81
80
83
86
76
82
77
41
21
75
65
75
98
72
43
86
84
78
87
89
86
86
81
74
80
89
97
81
91
75
45
72
103
105
80
16
86
95
95
61
7
10
1
1
2
2
6
8
1
4
1
2
2
2
2
3
3
2
0
1
2
0
0
1
0
0
0
0
0
0
0
0
0
0
0
0
0
0
0
0
0
0
0
0
0
0
0
0
0
0
0

0
0
0
0
0
0
0
0
0
0
0
0
0
0
0
0
0
0
0
0
0
0
0
0
0
0
0
0
0
0
0
0
1
1
1
2
0
2
3
1
2
4
8
7
5
7
27
24
56
54
61
45
45
64
39
22
22
28
26
8
24
64
84
68
74
75
75
67
64
69
76
77
77
71
65
60
48
46
51
42
34
37
37
39
45
50
51
33
37
54
60
52
47
51
59
65
62
64
64
56
53
58
58
56
56
55
65
65
62
60
72
73
80
89
82
30
17
60
69
72
74
82
86
97
91
97
84
70
87
90
52
50
61
69
65
51
30
43
22
21
18
24
29
20
27
26
14
23
33
25
13
23
49
64
69
53
54
64
83
80
86
86
86
78
82
79
77
76
79
80
78
72
44
47
69
76
102
67
80
54
91
74
78
85
89
81
69
64
78
78
95
91
81
90
33
53
76
105
114
57
53
100
96
80
23
7
4
3
3
1
0
3
1
2
5
2
2
3
0
0
2
1
3
1
0
0
1
1
0
0
0
0
0
0
0
0
0
0
0
0
0
0
0
0
0
0
0
0
0
0
0
0
0
0
0
0

0
0
0
0
0
0
0
0
0
0
0
0
0
0
0
0
0
0
0
0
0
0
0
0
0
0
0
0
0
0
0
0
0
1
1
1
2
2
3
3
2
0
3
6
10
22
24
8
17
21
15
30
25
41
34
17
19
11
13
40
44
35
62
88
67
83
80
62
54
66
65
59
61
58
53
48
44
45
53
46
43
41
43
44
53
54
43
33
43
62
65
51
57
60
62
67
61
62
73
60
59
59
57
57
57
60
69
67
65
61
69
74
76
79
66
21
49
91
94
76
79
81
89
88
87
88
78
74
84
83
52
43
54
73
62
62
33
21
34
24
25
18
16
28
36
16
10
21
24
12
4
10
7
22
65
67
60
72
83
83
83
80
89
89
84
76
79
84
80
83
82
72
54
76
69
92
92
95
65
69
85
68
82
88
89
76
56
70
88
86
91
83
87
67
44
66
77
120
111
24
77
97
100
60
0
5
1
4
4
2
2
1
2
3
3
2
1
2
6
3
2
1
4
2
0
1
0
1
0
0
0
0
0
0
0
0
0
0
0
0
0
0
0
0
0
0
0
0
0
0
0
0
0
0
0
0

0
0
0
0
0
0
0
0
0
0
0
0
0
0
0
0
0
0
0
0
0
0
0
0
0
0
0
0
0
0
0
0
0
1
1
1
3
3
3
2
1
2
8
13
26
44
50
39
47
51
80
39
12
11
25
24
1
13
5
40
49
75
61
64
52
73
58
57
52
55
47
32
45
45
40
44
42
64
61
55
48
38
43
43
51
42
39
47
51
53
64
64
58
59
65
66
66
74
73
60
67
65
52
63
65
64
66
59
63
60
64
71
68
73
66
29
44
84
87
76
80
87
92
87
85
84
81
78
74
78
61
49
48
69
60
53
62
46
25
89
98
55
39
11
24
6
12
8
20
14
5
6
17
12
35
67
58
77
78
83
82
85
88
89
89
82
83
90
87
89
86
78
80
85
79
107
91
112
24
73
78
67
87
92
90
68
58
85
86
89
83
78
92
68
73
73
96
129
93
16
94
98
90
35
7
5
2
4
6
1
4
1
2
5
2
2
1
2
5
4
2
0
4
2
0
1
1
0
1
0
0
0
0
0
0
0
0
0
0
0
0
0
0
0
0
0
0
0
0
0
0
0
0
0
0
0

0
0
0
0
0
0
0
0
0
0
0
0
0
0
0
0
0
0
0
0
0
0
0
0
0
0
0
0
0
0
0
0
1
0
1
0
2
2
4
0
3
8
23
37
52
61
62
70
90
87
88
56
38
13
16
26
15
5
26
43
26
48
65
38
34
50
44
45
47
39
38
28
32
33
42
53
60
75
66
58
35
35
47
50
43
34
55
53
53
57
64
60
53
65
63
58
62
68
67
65
68
65
65
70
68
66
62
53
57
62
70
75
67
67
86
65
80
100
82
80
83
86
86
86
81
86
80
77
79
81
70
53
44
57
62
50
73
72
74
182
152
67
34
16
21
4
25
13
22
26
31
14
21
22
12
48
71
83
90
86
94
94
88
86
88
84
82
89
86
86
81
84
99
83
87
106
96
91
27
77
73
78
91
94
79
56
82
84
86
81
82
77
104
93
90
69
116
115
54
48
94
100
70
11
10
3
1
2
1
3
7
0
2
5
1
3
1
2
3
4
3
3
3
0
0
1
1
0
0
0
0
0
0
0
0
0
0
0
0
0
0
0
0
0
0
0
0
0
0
0
0
0
0
0
0
0

0
0
0
0
0
0
0
0
0
0
0
0
0
0
0
0
0
0
0
0
0
0
0
0
0
0
0
0
0
0
0
0
0
0
2
0
2
0
0
2
8
10
26
42
60
70
81
77
84
96
107
78
41
16
33
6
5
21
2
27
16
23
32
19
9
16
19
27
33
53
57
37
40
40
49
47
51
52
40
51
51
44
46
50
47
37
48
52
51
65
62
64
62
62
52
49
47
46
57
63
69
72
78
68
62
64
60
56
67
77
80
71
70
71
90
83
87
92
79
86
88
82
79
84
82
87
80
74
80
86
73
56
51
61
64
68
84
66
145
224
152
95
33
14
18
14
15
22
22
33
38
29
18
37
25
17
56
86
99
86
92
86
88
87
90
88
82
87
89
75
80
93
93
70
86
82
82
67
48
77
70
84
89
85
72
71
91
89
88
82
88
86
116
94
85
68
110
109
29
82
99
101
50
3
9
0
2
3
3
1
6
2
3
4
3
5
1
1
2
4
1
3
1
1
0
1
0
0
0
0
0
0
0
0
0
0
0
0
0
0
0
0
0
0
0
0
0
0
0
0
0
0
0
0
0
0

0
0
0
0
0
0
0
0
0
0
0
0
0
0
0
0
0
0
0
0
0
0
0
0
0
0
0
0
0
0
0
1
0
0
1
1
0
1
0
2
7
13
33
63
88
96
110
90
93
85
98
82
57
44
43
19
6
14
19
25
14
20
12
4
5
4
14
6
35
64
70
56
51
30
38
28
24
18
22
38
41
35
39
41
35
35
45
50
55
64
59
69
72
61
44
34
44
39
52
59
68
71
69
62
56
54
59
52
65
81
76
59
65
74
77
76
74
71
75
86
84
84
84
88
83
81
85
79
73
82
74
64
55
64
68
70
90
91
181
214
120
87
43
20
2
7
9
12
25
36
45
45
26
20
21
26
42
89
95
94
91
81
84
88
90
87
84
82
83
77
77
86
81
69
73
59
83
58
56
74
71
85
91
85
68
91
88
91
84
82
90
98
111
82
86
73
110
95
45
99
104
91
26
13
4
3
1
3
5
2
5
4
3
6
3
3
1
3
3
2
1
3
2
0
1
0
0
0
0
0
0
0
0
0
0
0
0
0
0
0
0
0
0
0
0
0
0
0
0
0
0
0
0
0
0
0

0
0
0
0
0
0
0
0
0
0
0
0
0
0
0
0
0
0
0
0
0
0
0
0
0
0
0
0
0
0
0
0
0
0
0
3
0
1
2
2
6
20
47
69
83
102
119
106
96
55
40
41
57
41
8
17
7
11
12
39
34
29
26
38
32
29
36
36
42
52
58
61
47
32
28
23
26
22
24
19
14
14
28
37
26
37
48
40
54
54
52
65
72
66
53
36
33
30
35
53
65
63
63
61
63
61
55
53
59
72
72
60
64
66
70
81
76
66
70
77
82
80
83
87
80
83
88
77
70
80
82
64
55
61
70
66
63
110
203
205
105
70
54
47
29
5
12
10
9
18
33
36
27
16
10
28
50
78
90
93
91
88
90
90
85
82
85
82
78
76
82
91
86
57
64
63
92
59
64
76
77
84
82
76
75
94
87
94
91
84
93
108
109
64
71
92
139
80
58
99
100
67
12
13
3
3
5
1
4
0
3
4
4
3
5
2
2
1
1
3
2
0
1
1
1
0
0
0
0
0
0
0
0
0
0
0
0
0
0
0
0
0
0
0
0
0
0
0
0
0
0
0
0
0
0
0

0
0
0
0
0
0
0
0
0
0
0
0
0
0
0
0
0
0
0
0
0
0
0
0
0
0
0
0
0
0
0
0
1
1
0
0
0
2
1
7
6
29
56
74
92
101
115
122
104
68
65
96
93
84
61
45
9
25
21
51
59
58
47
48
30
35
37
43
79
74
62
48
27
39
33
28
27
31
30
26
26
22
31
37
40
40
39
45
55
48
45
59
67
62
56
47
20
14
20
47
62
63
62
61
64
67
54
49
48
59
61
54
61
63
69
79
73
63
69
74
81
71
79
85
80
80
87
74
69
87
83
63
56
51
67
59
49
111
212
209
85
62
61
59
39
11
13
8
7
15
26
20
21
23
3
14
45
68
91
88
85
86
87
84
85
83
80
83
87
92
105
96
71
49
67
68
92
65
73
74
84
82
64
59
91
89
86
95
95
97
93
125
110
61
74
109
130
57
68
99
100
52
2
7
6
3
5
2
1
0
1
0
5
3
2
0
1
1
1
0
0
1
0
0
0
0
0
0
0
0
0
0
0
0
0
0
0
0
0
0
0
0
0
0
0
0
0
0
0
0
0
0
0
0
0
0

0
0
0
0
0
0
0
0
0
0
0
0
0
0
0
0
0
0
0
0
0
0
0
0
0
0
0
0
0
0
0
0
1
1
0
2
0
2
0
6
12
35
57
69
91
102
115
123
106
112
126
119
108
73
71
40
22
26
9
39
58
50
35
56
48
46
44
55
70
62
52
31
23
32
25
14
24
27
30
41
37
35
34
33
43
50
46
50
42
47
45
56
63
67
50
45
31
28
32
42
53
54
62
61
58
64
59
43
50
61
56
59
66
71
71
77
76
64
77
78
78
79
85
87
78
78
92
73
65
86
78
60
54
50
67
62
60
115
224
193
65
58
63
68
46
11
17
9
4
18
24
25
23
27
10
20
37
64
83
93
92
86
85
86
89
87
84
92
94
108
109
80
51
64
68
76
92
71
76
76
89
73
58
77
92
85
90
97
92
101
86
129
101
60
84
122
109
35
83
104
92
44
9
2
3
1
1
2
1
0
1
2
1
2
2
3
1
0
0
0
0
0
0
0
0
0
0
0
0
0
0
0
0
0
0
0
0
0
0
0
0
0
0
0
0
0
0
0
0
0
0
0
0
0
0
0

0
0
0
0
0
0
0
0
0
0
0
0
0
0
0
0
0
0
0
0
0
0
0
0
0
0
0
0
0
0
0
1
0
0
1
2
2
3
2
2
11
25
49
69
84
109
123
113
107
119
125
102
97
83
81
52
36
24
15
22
18
5
10
42
54
60
60
60
65
61
64
49
32
37
24
23
29
32
36
33
26
30
33
39
40
49
57
49
41
58
52
53
65
71
59
48
48
39
43
45
46
50
63
63
61
69
57
50
68
64
53
72
88
84
76
80
87
70
70
75
85
86
87
86
83
81
89
72
61
84
78
56
59
54
71
69
59
135
216
158
61
66
67
80
65
33
14
14
20
10
18
29
14
27
20
9
39
62
83
97
89
85
86
88
85
91
93
95
99
108
89
67
50
73
61
89
82
74
84
72
72
54
64
92
88
86
96
92
93
93
85
122
98
61
82
129
102
44
84
109
86
31
9
0
1
4
2
0
4
2
1
1
1
1
1
1
1
1
0
0
0
0
0
0
0
0
0
0
0
0
0
0
0
0
0
0
0
0
0
0
0
0
0
0
0
0
0
0
0
0
0
0
0
0
0
0

0
0
0
0
0
0
0
0
0
0
0
0
0
0
0
0
0
0
0
0
0
0
0
0
0
0
0
0
0
0
0
0
1
0
2
2
2
2
5
3
1
11
28
58
89
110
126
114
96
93
95
106
87
101
112
81
51
28
9
6
17
25
7
36
62
41
42
55
65
72
79
67
63
54
41
43
38
56
61
38
38
48
49
51
54
56
64
57
58
67
53
48
53
62
59
59
53
42
48
53
51
55
63
63
67
74
60
61
63
46
41
65
95
93
86
82
90
75
65
74
88
84
91
85
81
81
87
66
65
87
75
58
68
60
79
75
61
152
205
134
71
69
57
50
35
42
31
27
23
16
15
22
17
32
40
17
48
81
88
97
91
92
77
82
80
83
89
96
108
93
64
50
70
67
58
84
76
78
74
65
62
44
81
92
88
84
98
86
96
90
87
119
90
67
78
124
86
65
88
99
67
14
8
3
1
9
2
1
5
3
4
2
2
2
3
1
0
1
0
0
0
0
0
0
0
0
0
0
0
0
0
0
0
0
0
0
0
0
0
0
0
0
0
0
0
0
0
0
0
0
0
0
0
0
0
0

0
0
0
0
0
0
0
0
0
0
0
0
0
0
0
0
0
0
0
0
0
0
0
0
0
0
0
0
0
0
0
0
0
0
0
2
4
1
3
3
4
1
17
45
86
116
122
108
87
74
77
93
95
107
139
108
55
39
10
5
26
20
12
30
58
56
51
52
58
64
68
70
75
67
57
51
56
61
53
40
36
41
49
57
63
66
68
63
63
63
54
46
43
59
62
63
57
46
47
53
51
55
55
64
73
68
58
63
45
32
38
57
79
91
82
86
88
66
61
59
70
81
95
91
86
90
98
74
73
85
73
59
68
65
90
67
55
152
199
117
67
70
64
39
28
60
64
29
23
23
23
28
34
42
37
25
41
62
47
48
62
92
93
93
95
99
105
109
93
67
60
53
76
59
70
83
71
71
56
69
72
58
89
96
84
89
98
87
94
93
98
119
79
71
80
118
62
75
96
94
55
8
12
1
1
2
3
3
9
4
5
3
2
1
1
1
0
1
1
0
0
0
0
0
0
0
0
0
0
0
0
0
0
0
0
0
0
0
0
0
0
0
0
0
0
0
0
0
0
0
0
0
0
0
0
0

0
0
0
0
0
0
0
0
0
0
0
0
0
0
0
0
0
0
0
0
0
0
0
0
0
0
0
0
0
0
0
0
1
2
0
1
1
3
0
1
6
3
9
30
67
114
109
93
86
70
69
72
92
104
121
111
67
63
28
11
29
22
11
12
42
67
84
58
49
54
84
88
79
65
57
52
60
63
52
45
37
33
32
43
54
63
79
88
90
67
51
43
46
51
59
60
64
53
48
51
47
48
49
62
68
61
62
59
41
45
51
56
74
81
74
89
93
59
60
58
64
83
96
92
96
85
93
81
81
84
82
68
67
55
70
43
34
150
195
101
65
86
78
51
1
47
95
55
31
36
29
37
45
44
33
6
52
50
40
25
7
57
93
87
85
89
82
62
50
62
57
72
74
60
88
84
58
44
36
56
64
73
97
93
77
92
95
89
93
92
105
106
76
76
102
127
52
84
104
104
54
2
7
3
1
1
1
1
3
4
5
3
3
1
1
0
2
2
1
0
0
0
0
0
0
0
0
0
0
0
0
0
0
0
0
0
0
0
0
0
0
0
0
0
0
0
0
0
0
0
0
0
0
0
0
0

0
0
0
0
0
0
0
0
0
0
0
0
0
0
0
0
0
0
0
0
0
0
0
0
0
0
0
0
0
0
0
1
0
2
2
1
2
3
2
3
5
6
9
20
46
105
126
111
90
74
57
55
71
95
117
113
87
82
92
39
15
44
22
13
26
40
70
88
86
56
72
73
93
92
66
58
60
68
64
51
40
33
23
26
49
62
73
90
99
74
41
37
40
39
42
51
57
55
50
43
51
51
46
57
67
63
67
51
50
66
67
64
82
85
87
91
103
81
38
40
71
91
104
100
97
80
86
71
78
85
80
72
66
49
38
24
44
152
189
89
75
92
59
25
10
16
82
96
46
38
17
32
32
22
49
35
93
90
110
58
34
37
56
60
59
53
55
65
70
69
81
77
51
73
105
75
66
57
40
57
68
84
100
85
79
92
91
92
95
88
109
95
81
85
117
128
40
87
103
98
39
7
4
2
3
2
2
0
5
2
1
3
3
3
4
2
0
0
1
0
0
0
0
0
0
0
0
0
0
0
0
0
0
0
0
0
0
0
0
0
0
0
0
0
0
0
0
0
0
0
0
0
0
0
0
0

0
0
0
0
0
0
0
0
0
0
0
0
0
0
0
0
0
0
0
0
0
0
0
0
0
0
0
0
0
0
0
0
0
1
1
1
1
0
4
3
2
4
3
8
26
69
114
134
113
89
60
43
51
82
115
109
96
101
115
86
46
48
28
38
21
8
47
44
56
63
38
27
63
86
66
41
45
59
54
33
33
33
35
48
55
51
61
66
62
55
35
31
24
30
30
42
49
62
47
37
42
49
39
54
63
66
60
44
55
74
76
74
81
91
89
86
106
107
59
15
80
120
123
106
93
87
93
68
72
85
67
68
67
52
55
46
49
152
181
84
70
55
11
29
22
6
26
79
94
43
50
52
31
27
42
60
106
105
125
55
19
8
23
52
58
61
69
84
92
95
72
34
48
93
99
57
48
49
52
60
77
94
94
83
91
96
88
93
97
93
113
99
86
90
129
109
46
93
98
89
29
7
3
4
2
3
3
5
3
9
1
4
2
1
3
2
1
2
1
0
0
0
0
0
0
0
0
0
0
0
0
0
0
0
0
0
0
0
0
0
0
0
0
0
0
0
0
0
0
0
0
0
0
0
0
0

0
0
0
0
0
0
0
0
0
0
0
0
0
0
0
0
0
0
0
0
0
0
0
0
0
0
0
0
0
0
0
0
1
0
2
3
2
1
3
1
1
1
0
5
2
15
48
97
125
103
79
37
23
57
90
96
89
93
100
126
97
72
2
14
51
9
9
10
15
39
34
26
24
31
40
27
35
46
41
34
43
45
42
55
54
40
57
62
55
37
29
27
20
22
27
42
53
60
45
38
34
38
34
42
50
63
49
44
57
84
93
81
79
81
75
80
94
89
42
1
48
86
105
97
89
87
89
66
71
89
64
69
64
61
65
51
40
148
183
78
56
38
25
24
7
6
7
19
78
83
33
12
28
53
72
57
107
100
90
41
23
44
35
60
71
83
87
88
64
28
29
42
67
97
78
41
23
40
44
48
79
96
85
87
97
94
86
96
98
93
103
100
75
84
132
76
75
103
97
79
33
9
3
4
5
2
1
5
2
6
4
2
2
4
2
2
0
1
0
0
0
0
0
0
0
0
0
0
0
0
0
0
0
0
0
0
0
0
0
0
0
0
0
0
0
0
0
0
0
0
0
0
0
0
0
0

0
0
0
0
0
0
0
0
0
0
0
0
0
0
0
0
0
0
0
0
0
0
0
0
0
0
0
0
0
0
0
0
0
1
4
1
2
2
1
2
3
6
3
3
3
4
6
39
93
103
80
58
17
31
61
97
108
104
84
101
92
45
20
40
32
41
6
15
16
15
45
38
31
28
48
50
54
50
42
42
44
53
66
61
47
41
52
58
53
33
12
32
27
30
34
48
66
56
42
40
26
27
35
43
53
53
43
47
57
79
92
80
70
64
79
88
90
70
39
5
12
57
75
84
85
80
86
65
66
95
63
64
61
74
62
36
41
135
184
82
58
50
15
11
11
19
21
20
23
63
22
91
43
78
75
63
110
84
44
31
18
11
28
39
52
81
87
78
53
31
38
44
67
85
58
38
37
61
50
64
84
99
82
88
96
96
87
93
94
97
102
97
57
89
121
49
88
97
104
82
34
10
3
6
5
3
1
3
2
4
3
5
1
2
3
1
0
1
0
0
0
0
0
0
0
0
0
0
0
0
0
0
0
0
0
0
0
0
0
0
0
0
0
0
0
0
0
0
0
0
0
0
0
0
0
0

0
0
0
0
0
0
0
0
0
0
0
0
0
0
0
0
0
0
0
0
0
0
0
0
0
0
0
0
0
0
0
0
2
1
1
0
2
1
2
4
2
3
3
1
5
7
7
8
35
86
84
80
40
18
27
70
113
121
89
76
110
78
18
32
41
38
30
29
21
75
49
39
47
67
81
70
54
49
46
48
72
91
105
88
59
51
53
51
28
6
11
19
32
44
47
58
68
62
47
32
16
13
40
57
55
46
45
46
54
62
52
51
55
63
90
92
84
54
44
12
14
45
55
69
80
72
79
68
69
90
64
62
65
81
77
26
44
132
183
100
82
41
18
25
34
26
26
22
36
35
8
100
42
77
54
66
91
58
27
64
25
21
45
36
14
14
28
31
7
23
29
43
65
70
54
47
74
73
56
79
87
90
81
92
95
96
83
88
98
105
111
86
55
96
109
32
93
99
103
76
23
10
3
2
1
5
4
2
3
4
4
0
0
3
2
2
0
1
0
0
0
0
0
0
0
0
0
0
0
0
0
0
0
0
0
0
0
0
0
0
0
0
0
0
0
0
0
0
0
0
0
0
0
0
0
0

0
0
0
0
0
0
0
0
0
0
0
0
0
0
0
0
0
0
0
0
0
0
0
0
0
0
0
0
0
0
0
0
1
1
1
0
2
1
3
1
4
3
4
4
2
3
1
6
8
37
81
77
62
26
9
22
70
97
96
97
99
89
58
26
19
26
44
9
16
72
107
54
44
61
72
66
47
53
61
66
92
116
110
85
62
56
52
43
17
6
14
6
39
55
54
67
63
63
56
16
9
16
43
58
50
49
45
46
51
45
34
50
59
72
89
90
66
40
28
6
11
17
42
56
71
69
74
69
68
83
68
67
75
82
89
56
27
129
177
104
73
45
18
27
35
27
8
17
30
32
7
52
60
82
55
65
75
69
69
62
24
30
49
58
43
47
52
51
23
17
16
54
80
70
71
64
88
76
68
86
86
81
79
94
89
96
84
92
101
117
113
58
67
90
87
38
99
105
86
61
22
8
3
3
3
3
5
3
2
4
2
1
1
3
1
1
1
0
0
0
0
0
0
0
0
0
0
0
0
0
0
0
0
0
0
0
0
0
0
0
0
0
0
0
0
0
0
0
0
0
0
0
0
0
0
0

0
0
0
0
0
0
0
0
0
0
0
0
0
0
0
0
0
0
0
0
0
0
0
0
0
0
0
0
0
0
0
1
1
1
1
0
0
2
2
2
4
3
3
1
2
5
5
4
9
16
60
73
65
43
17
5
9
55
82
87
79
71
75
58
9
31
38
47
10
18
101
106
60
23
33
43
46
65
68
63
79
110
103
79
57
57
62
49
34
14
23
22
47
57
54
65
66
61
54
29
25
31
49
61
55
55
47
55
50
41
55
68
69
80
93
92
68
50
23
10
31
23
32
50
67
71
75
65
64
82
71
71
76
80
80
69
52
128
171
98
58
22
16
34
29
17
9
16
18
34
20
32
83
66
63
71
83
80
61
47
45
29
5
33
52
71
59
11
29
51
45
73
85
85
73
75
93
81
75
87
90
85
87
93
89
100
90
91
100
130
120
44
81
115
65
64
104
100
77
56
13
4
7
6
0
3
2
1
3
0
2
3
4
1
0
0
0
0
0
0
0
0
0
0
0
0
0
0
0
0
0
0
0
0
0
0
0
0
0
0
0
0
0
0
0
0
0
0
0
0
0
0
0
0
0
0

0
0
0
0
0
0
0
0
0
0
0
0
0
0
0
0
0
0
0
0
0
0
0
0
0
0
0
0
0
0
0
0
0
0
3
1
3
1
1
2
3
2
2
5
1
2
1
1
2
11
28
64
59
63
44
5
21
8
60
73
68
88
82
80
49
4
28
29
24
16
53
114
107
64
24
28
47
58
70
63
69
101
110
96
76
65
84
79
86
64
27
31
40
38
44
58
61
65
58
46
41
47
55
59
53
58
49
56
46
53
65
77
89
92
94
81
72
52
7
20
31
22
18
54
65
67
67
62
69
76
65
65
77
73
71
58
57
128
180
98
63
17
11
19
18
9
14
7
16
31
28
26
50
33
60
71
84
77
60
53
45
57
60
32
36
72
53
5
27
41
59
80
87
80
66
74
89
80
81
93
95
83
92
93
90
96
96
91
107
132
114
37
95
123
40
96
100
107
87
39
5
3
10
4
2
5
5
4
4
0
2
4
3
0
1
0
0
0
0
0
0
0
0
0
0
0
0
0
0
0
0
0
0
0
0
0
0
0
0
0
0
0
0
0
0
0
0
0
0
0
0
0
0
0
0
0

0
0
0
0
0
0
0
0
0
0
0
0
0
0
0
0
0
0
0
0
0
0
0
0
0
0
0
0
0
0
0
0
1
0
1
0
2
2
1
1
1
2
3
2
3
2
3
0
2
5
19
46
71
75
68
12
9
12
8
51
69
77
86
78
82
48
5
30
42
12
9
67
112
106
72
18
33
56
75
65
59
86
110
101
77
62
73
88
101
87
63
68
48
27
25
44
45
63
66
51
41
44
57
60
49
53
50
50
40
60
73
88
97
99
86
66
58
39
13
12
18
17
23
46
60
63
60
66
66
66
54
61
84
67
70
68
53
111
180
108
85
88
37
5
10
9
4
1
10
17
26
25
23
42
69
66
70
83
76
53
43
55
78
70
56
71
51
25
34
36
63
83
85
71
75
85
88
82
86
98
95
82
94
93
89
94
100
99
115
138
101
33
104
103
32
101
94
102
75
18
9
2
5
1
1
2
0
3
5
2
1
2
2
1
1
0
0
0
0
0
0
0
0
0
0
0
0
0
0
0
0
0
0
0
0
0
0
0
0
0
0
0
0
0
0
0
0
0
0
0
0
0
0
0
0
0

0
0
0
0
0
0
0
0
0
0
0
0
0
0
0
0
0
0
0
0
0
0
0
0
0
0
0
0
0
0
0
0
0
0
0
2
1
1
3
4
3
1
5
2
1
1
6
0
0
1
12
28
73
67
67
43
0
12
14
21
60
72
77
82
82
85
49
6
20
16
17
11
73
117
104
47
18
50
75
70
68
86
108
103
79
60
49
68
82
74
81
90
64
44
33
35
31
36
57
54
46
48
61
54
42
44
47
49
54
61
72
98
101
92
76
60
74
53
13
14
13
6
37
36
46
62
59
71
58
64
57
56
71
56
67
76
50
100
175
123
84
99
78
37
9
17
11
8
15
16
33
25
45
76
78
62
81
90
71
52
62
73
62
54
37
58
65
17
40
62
72
79
84
79
89
88
91
81
88
98
92
89
96
90
93
96
99
99
112
139
89
61
103
48
78
92
98
87
46
9
4
5
2
0
2
1
1
2
6
2
3
2
0
1
1
0
0
0
0
0
0
0
0
0
0
0
0
0
0
0
0
0
0
0
0
0
0
0
0
0
0
0
0
0
0
0
0
0
0
0
0
0
0
0
0
0

0
0
0
0
0
0
0
0
0
0
0
0
0
0
0
0
0
0
0
0
0
0
0
0
0
0
0
0
0
0
0
1
0
1
1
0
3
2
5
2
1
3
1
2
1
6
2
1
1
3
5
20
47
67
62
65
27
11
5
18
40
63
73
76
72
79
85
48
12
15
10
15
32
69
82
71
31
20
66
89
83
84
99
92
93
78
54
54
67
69
82
94
77
56
34
41
41
22
42
59
44
43
59
48
38
39
29
38
53
58
70
97
102
71
45
54
63
36
17
5
5
7
31
42
49
60
61
73
61
64
59
46
60
46
67
78
52
94
170
120
75
71
67
58
25
30
19
14
28
28
42
34
56
83
70
66
94
89
56
55
74
85
64
42
28
20
66
37
17
47
65
65
83
87
87
86
89
84
93
92
85
89
96
87
93
95
99
95
106
131
58
88
102
31
102
94
111
76
25
9
2
6
1
2
4
1
5
4
3
3
0
1
2
1
0
0
0
0
0
0
0
0
0
0
0
0
0
0
0
0
0
0
0
0
0
0
0
0
0
0
0
0
0
0
0
0
0
0
0
0
0
0
0
0
0
0

0
0
0
0
0
0
0
0
0
0
0
0
0
0
0
0
0
0
0
0
0
0
0
0
0
0
0
0
0
0
0
0
0
0
1
2
2
1
2
0
2
3
2
1
1
5
4
2
3
3
2
14
30
67
65
63
55
18
13
4
24
38
65
73
67
61
79
79
41
8
15
10
7
40
69
91
50
22
40
73
90
85
81
89
102
96
78
59
62
76
86
82
74
55
31
45
56
34
30
47
36
40
60
60
53
35
12
18
39
57
67
75
66
40
33
35
34
38
31
18
9
12
28
49
62
61
58
73
64
62
56
45
58
43
66
78
56
85
161
122
64
80
77
72
38
13
24
16
31
30
37
36
66
77
64
75
94
92
55
62
87
90
63
35
45
32
36
63
57
67
81
81
76
85
79
88
86
88
95
90
84
93
97
89
94
95
99
96
109
117
47
90
85
53
95
117
94
41
6
2
4
2
1
2
2
6
5
2
0
3
0
2
2
2
0
0
0
0
0
0
0
0
0
0
0
0
0
0
0
0
0
0
0
0
0
0
0
0
0
0
0
0
0
0
0
0
0
0
0
0
0
0
0
0
0
0

0
0
0
0
0
0
0
0
0
0
0
0
0
0
0
0
0
0
0
0
0
0
0
0
0
0
0
0
0
0
0
0
1
1
0
1
0
1
0
1
2
3
3
3
2
1
1
1
3
3
1
4
24
43
59
54
57
38
4
11
12
27
51
66
65
62
72
89
57
13
14
17
16
14
70
119
88
43
40
22
73
93
77
86
105
112
93
71
73
85
89
82
62
49
43
45
56
52
39
47
45
57
57
57
57
38
16
21
42
51
57
58
43
41
39
15
23
43
32
21
12
29
40
48
61
67
63
67
60
49
53
45
52
43
61
75
48
74
156
130
64
80
71
61
63
38
12
20
31
33
24
37
70
65
60
82
96
77
55
74
97
90
67
44
42
36
34
17
62
81
72
93
85
81
81
92
85
92
95
89
87
95
94
95
97
94
92
93
117
112
53
102
63
82
105
117
60
7
10
4
4
3
1
1
1
6
5
0
0
0
2
0
1
2
1
0
0
0
0
0
0
0
0
0
0
0
0
0
0
0
0
0
0
0
0
0
0
0
0
0
0
0
0
0
0
0
0
0
0
0
0
0
0
0
0
0

0
0
0
0
0
0
0
0
0
0
0
0
0
0
0
0
0
0
0
0
0
0
0
0
0
0
0
0
0
0
0
0
1
1
0
1
0
2
1
4
2
2
3
2
1
1
4
5
5
2
3
3
15
16
45
46
53
52
17
18
16
23
51
63
60
61
65
84
77
24
16
22
30
43
70
145
150
89
71
24
55
94
86
86
104
112
99
74
80
81
80
89
75
61
44
34
48
59
59
55
47
53
55
55
55
45
38
40
38
49
60
52
53
76
62
30
31
35
30
7
36
52
53
46
57
66
71
62
56
44
51
46
52
44
53
70
44
63
150
130
67
77
61
31
42
69
48
17
36
31
16
29
54
61
70
85
83
64
68
89
106
98
87
58
42
39
47
41
29
69
67
81
87
86
90
92
89
97
91
84
92
95
89
97
98
90
86
89
115
88
59
106
67
89
113
112
45
1
5
5
8
3
4
1
1
2
3
3
1
2
1
3
3
1
1
0
0
0
0
0
0
0
0
0
0
0
0
0
0
0
0
0
0
0
0
0
0
0
0
0
0
0
0
0
0
0
0
0
0
0
0
0
0
0
0
0

0
0
0
0
0
0
0
0
0
0
0
0
0
0
0
0
0
0
0
0
0
0
0
0
0
0
0
0
0
0
0
0
1
0
0
1
0
1
3
0
2
2
3
0
1
5
3
4
2
0
2
3
7
19
36
46
54
51
37
14
24
25
43
65
54
50
50
64
86
38
35
7
47
49
82
128
156
131
100
58
24
71
85
92
95
94
89
83
85
85
88
89
85
87
69
52
47
59
58
58
53
46
51
57
52
52
53
47
33
48
60
55
72
86
81
44
14
10
12
17
56
58
58
47
50
52
68
63
56
45
55
53
50
44
47
58
45
64
141
127
68
83
66
42
25
61
86
54
31
44
29
22
30
61
83
74
68
72
84
90
110
111
93
51
48
34
63
52
33
27
57
78
86
89
91
89
92
97
90
83
95
94
89
94
96
85
89
90
94
59
79
108
66
92
115
100
40
5
4
1
5
1
1
3
2
1
4
1
2
1
2
2
0
0
0
0
0
0
0
0
0
0
0
0
0
0
0
0
0
0
0
0
0
0
0
0
0
0
0
0
0
0
0
0
0
0
0
0
0
0
0
0
0
0
0
0

0
0
0
0
0
0
0
0
0
0
0
0
0
0
0
0
0
0
0
0
0
0
0
0
0
0
0
0
0
0
0
0
0
0
0
1
0
1
2
2
2
5
1
2
5
2
4
3
2
2
1
0
1
21
39
49
61
53
50
49
23
28
42
62
61
67
51
33
75
55
38
22
68
64
99
99
98
126
104
57
4
43
77
91
98
90
81
86
84
79
85
86
91
100
101
82
50
48
47
53
61
54
47
47
44
51
51
49
43
51
71
81
83
66
43
16
24
12
5
21
44
56
56
41
39
47
69
71
62
43
55
54
47
41
53
60
46
64
135
123
75
88
69
48
23
25
76
100
44
40
16
6
43
67
85
70
66
88
89
84
105
115
97
52
37
35
58
60
36
33
45
84
87
91
89
89
93
97
93
87
94
94
93
93
88
86
90
86
82
70
84
115
71
84
102
74
26
12
4
1
0
3
5
2
5
4
5
1
1
4
2
0
0
0
0
0
0
0
0
0
0
0
0
0
0
0
0
0
0
0
0
0
0
0
0
0
0
0
0
0
0
0
0
0
0
0
0
0
0
0
0
0
0
0
0
0

0
0
0
0
0
0
0
0
0
0
0
0
0
0
0
0
0
0
0
0
0
0
0
0
0
0
0
0
0
0
0
0
0
0
1
1
2
2
2
2
1
3
2
3
4
1
2
4
1
1
0
2
6
10
20
44
54
63
49
55
27
29
37
69
70
70
57
35
50
75
29
17
59
75
107
96
94
128
97
30
25
30
72
95
99
80
74
84
85
72
75
84
103
101
102
93
52
24
23
29
49
58
43
41
48
46
42
48
50
57
77
89
72
31
22
38
25
6
11
35
40
49
51
48
44
57
74
75
66
46
50
49
48
41
40
53
39
58
133
127
71
81
77
39
17
4
25
89
102
43
25
2
41
79
87
72
68
84
85
81
99
113
90
64
66
31
59
64
63
47
66
90
86
91
91
93
93
97
90
93
94
91
93
97
92
93
91
89
109
89
75
103
62
87
94
69
28
11
4
6
7
2
2
4
0
0
4
0
2
3
0
0
0
1
0
0
0
0
0
0
0
0
0
0
0
0
0
0
0
0
0
0
0
0
0
0
0
0
0
0
0
0
0
0
0
0
0
0
0
0
0
0
0
0
0
0

0
0
0
0
0
0
0
0
0
0
0
0
0
0
0
0
0
0
0
0
0
0
0
0
0
0
0
0
0
0
0
0
0
1
0
2
2
3
2
2
1
4
3
4
1
6
6
4
1
2
0
3
3
8
23
42
50
63
62
46
34
33
25
61
82
61
66
37
34
76
39
40
41
63
92
113
103
110
105
70
56
27
76
101
93
75
69
90
97
78
75
83
95
99
94
89
66
28
21
25
30
45
49
52
56
49
48
40
37
50
69
73
56
29
23
26
18
12
34
58
62
54
59
60
55
65
74
65
59
46
52
52
51
47
27
28
26
60
122
124
68
83
69
28
2
15
3
21
80
78
84
33
37
85
87
70
70
82
75
72
85
93
74
75
78
53
46
62
66
70
88
97
84
90
94
94
92
96
92
96
94
90
92
102
101
96
94
99
133
85
68
96
51
97
97
82
34
12
5
5
2
6
2
3
1
3
2
1
2
1
1
2
0
0
0
0
0
0
0
0
0
0
0
0
0
0
0
0
0
0
0
0
0
0
0
0
0
0
0
0
0
0
0
0
0
0
0
0
0
0
0
0
0
0
0
0

0
0
0
0
0
0
0
0
0
0
0
0
0
0
0
0
0
0
0
0
0
0
0
0
0
0
0
0
0
0
0
0
0
0
0
2
1
1
1
2
3
1
2
3
4
7
2
5
3
1
2
0
1
8
22
34
57
60
73
47
38
39
43
49
84
67
70
45
23
60
47
34
41
54
84
117
87
88
111
95
49
30
70
85
83
70
66
76
88
77
70
65
72
80
77
66
54
46
43
45
36
28
52
61
53
50
53
39
39
51
59
60
44
40
36
25
10
30
63
74
71
61
66
60
47
51
62
61
55
40
51
61
54
54
34
25
39
64
102
116
80
69
35
11
22
11
22
14
18
39
67
43
32
87
88
75
75
91
75
78
74
61
60
82
71
50
41
36
52
87
102
87
84
91
97
92
90
90
91
98
95
95
91
97
101
100
95
105
131
72
60
90
56
79
95
74
34
12
4
6
2
4
2
3
5
4
4
1
2
2
0
0
0
1
0
0
0
0
0
0
0
0
0
0
0
0
0
0
0
0
0
0
0
0
0
0
0
0
0
0
0
0
0
0
0
0
0
0
0
0
0
0
0
0
0
0

0
0
0
0
0
0
0
0
0
0
0
0
0
0
0
0
0
0
0
0
0
0
0
0
0
0
0
0
0
0
0
0
0
0
0
0
1
1
0
2
2
1
2
2
4
4
4
2
2
1
4
5
0
8
14
38
59
61
70
64
38
36
54
57
61
69
67
65
29
47
58
34
27
54
92
108
87
91
125
98
37
33
48
51
64
63
55
59
77
76
73
63
69
72
76
62
58
65
63
58
53
42
41
47
50
54
50
51
60
60
47
42
42
43
31
24
19
61
77
68
69
66
67
64
49
42
55
65
57
40
51
68
58
61
42
25
53
55
98
121
81
51
30
15
31
20
27
21
32
10
37
40
32
86
85
73
75
90
84
71
58
51
30
70
70
42
42
28
44
92
110
88
82
93
101
93
89
94
92
101
92
95
91
96
97
103
95
106
136
75
62
85
57
88
99
75
31
11
5
4
1
5
6
3
0
4
2
1
1
1
1
0
0
0
0
0
0
0
0
0
0
0
0
0
0
0
0
0
0
0
0
0
0
0
0
0
0
0
0
0
0
0
0
0
0
0
0
0
0
0
0
0
0
0
0
0

0
0
0
0
0
0
0
0
0
0
0
0
0
0
0
0
0
0
0
0
0
0
0
0
0
0
0
0
0
0
0
0
0
0
0
0
1
1
1
2
1
1
1
2
4
5
1
2
2
2
5
7
4
9
8
23
46
66
73
76
47
45
55
56
50
71
62
63
26
42
49
28
34
53
79
91
87
82
108
105
59
31
36
44
52
53
45
55
71
78
82
74
76
74
73
61
62
73
72
64
60
51
42
42
51
58
52
50
57
59
51
41
49
51
35
20
38
58
57
54
58
58
64
66
53
53
67
62
57
45
55
65
63
58
45
24
42
46
92
124
68
55
28
7
22
21
24
25
34
22
42
35
41
91
81
73
76
89
83
61
48
60
38
34
73
51
37
21
55
94
106
91
85
100
98
92
94
94
91
103
88
95
92
102
97
100
90
106
141
66
69
91
53
88
105
79
31
12
1
2
2
4
2
4
2
4
5
0
0
1
1
1
0
0
0
0
0
0
0
0
0
0
0
0
0
0
0
0
0
0
0
0
0
0
0
0
0
0
0
0
0
0
0
0
0
0
0
0
0
0
0
0
0
0
0
0

0
0
0
0
0
0
0
0
0
0
0
0
0
0
0
0
0
0
0
0
0
0
0
0
0
0
0
0
0
0
0
0
0
0
0
1
0
1
2
1
0
2
0
2
3
3
2
1
3
3
4
0
4
3
5
20
30
60
65
82
66
52
46
55
39
61
74
60
19
51
42
25
50
38
64
86
90
53
86
127
75
14
28
39
52
51
47
58
75
83
76
69
72
68
60
54
59
70
69
71
62
47
49
52
54
61
54
44
51
59
59
55
50
52
44
27
40
52
54
66
58
45
59
64
59
57
65
60
61
53
54
62
69
64
52
43
39
45
85
117
62
45
26
17
9
12
13
19
19
12
27
22
33
94
86
75
81
89
73
79
56
67
61
26
58
65
36
15
68
93
102
91
91
94
91
89
94
85
89
98
90
98
94
98
96
99
96
114
103
43
70
93
52
83
113
73
21
13
6
3
7
5
2
2
2
3
3
0
0
2
1
1
0
0
0
0
0
0
0
0
0
0
0
0
0
0
0
0
0
0
0
0
0
0
0
0
0
0
0
0
0
0
0
0
0
0
0
0
0
0
0
0
0
0
0
0

0
0
0
0
0
0
0
0
0
0
0
0
0
0
0
0
0
0
0
0
0
0
0
0
0
0
0
0
0
0
0
0
0
0
0
0
0
0
2
0
0
0
0
0
1
5
1
4
1
1
2
2
1
4
7
16
26
51
62
74
75
55
41
44
49
46
89
62
18
53
53
48
73
36
58
85
84
56
93
136
99
23
19
35
62
61
51
63
82
83
58
57
61
64
59
61
67
71
67
68
59
55
54
61
67
72
61
50
48
50
58
62
54
39
39
50
53
52
62
61
44
34
50
65
63
51
61
65
58
62
64
71
69
70
61
54
36
31
72
110
71
49
44
41
31
23
19
15
7
2
15
19
24
76
85
66
81
86
74
90
56
69
73
62
9
55
28
25
66
66
91
93
87
88
93
91
91
84
94
90
92
95
99
91
93
99
105
105
59
66
78
100
43
97
124
76
16
13
5
1
10
5
3
4
4
2
3
2
0
2
1
1
0
0
0
0
0
0
0
0
0
0
0
0
0
0
0
0
0
0
0
0
0
0
0
0
0
0
0
0
0
0
0
0
0
0
0
0
0
0
0
0
0
0
0
0

0
0
0
0
0
0
0
0
0
0
0
0
0
0
0
0
0
0
0
0
0
0
0
0
0
0
0
0
0
0
0
0
0
0
0
0
1
1
2
1
0
2
0
0
2
3
1
3
1
4
2
3
5
4
3
6
16
35
60
66
73
54
48
34
42
50
93
74
33
73
64
49
83
60
61
80
68
46
64
101
103
62
8
45
57
49
48
73
83
75
53
62
69
72
66
71
75
73
69
62
58
69
70
66
68
72
67
58
53
50
58
61
60
53
48
58
50
44
48
40
28
26
52
60
51
50
60
71
62
61
67
78
64
70
67
40
32
28
52
99
56
26
9
10
23
34
26
19
12
23
24
16
28
68
82
66
85
84
82
89
65
69
88
74
38
24
7
43
62
55
88
84
84
92
90
88
96
83
93
91
95
90
98
88
96
96
98
95
55
86
85
112
36
99
98
58
4
10
4
1
2
3
1
2
3
2
0
4
2
1
0
1
0
0
0
0
0
0
0
0
0
0
0
0
0
0
0
0
0
0
0
0
0
0
0
0
0
0
0
0
0
0
0
0
0
0
0
0
0
0
0
0
0
0
0
0

0
0
0
0
0
0
0
0
0
0
0
0
0
0
0
0
0
0
0
0
0
0
0
0
0
0
0
0
0
0
0
0
0
0
0
0
0
0
0
0
0
2
1
1
1
1
4
1
2
1
3
0
1
1
2
5
6
21
44
63
68
54
50
51
34
45
81
86
47
90
64
15
43
82
71
83
53
16
35
98
119
79
26
26
32
41
57
78
80
68
55
63
73
75
67
70
69
65
63
61
63
63
68
62
61
61
61
64
67
62
62
66
67
66
60
48
23
30
37
32
16
29
63
57
64
60
66
65
64
64
74
79
65
72
72
47
34
32
58
94
57
15
30
22
39
28
21
15
22
25
27
18
30
64
78
74
82
81
81
84
71
64
88
87
48
34
53
69
62
68
94
78
83
91
87
89
93
85
89
90
97
90
94
89
89
85
86
100
89
86
90
105
45
100
92
50
8
9
3
2
2
2
2
1
3
1
1
2
2
1
0
0
0
0
0
0
0
0
0
0
0
0
0
0
0
0
0
0
0
0
0
0
0
0
0
0
0
0
0
0
0
0
0
0
0
0
0
0
0
0
0
0
0
0
0
0

0
0
0
0
0
0
0
0
0
0
0
0
0
0
0
0
0
0
0
0
0
0
0
0
0
0
0
0
0
0
0
0
0
0
0
0
0
0
0
1
0
1
3
2
1
4
4
3
1
3
4
1
4
2
3
6
3
16
30
52
59
52
51
54
52
38
74
89
52
83
43
27
32
76
79
84
62
26
34
119
129
72
47
5
30
40
58
67
72
63
53
63
70
68
61
59
56
56
61
61
60
58
58
64
70
61
59
67
71
68
68
67
72
71
56
51
32
19
11
36
34
34
44
68
47
47
72
75
65
76
86
72
68
62
67
67
44
18
57
93
81
56
51
49
14
8
18
20
14
17
24
16
36
46
71
76
76
75
81
82
76
59
77
88
52
33
84
79
68
87
92
79
83
86
86
93
85
87
92
85
93
90
97
90
79
75
75
96
92
71
100
99
56
106
103
52
7
6
2
2
4
1
1
0
5
1
2
1
1
0
1
0
0
0
0
0
0
0
0
0
0
0
0
0
0
0
0
0
0
0
0
0
0
0
0
0
0
0
0
0
0
0
0
0
0
0
0
0
0
0
0
0
0
0
0
0

0
0
0
0
0
0
0
0
0
0
0
0
0
0
0
0
0
0
0
0
0
0
0
0
0
0
0
0
0
0
0
0
0
0
0
0
0
1
2
1
2
2
2
3
3
1
1
2
2
3
2
0
3
2
1
5
4
11
22
46
55
56
42
44
60
49
72
84
63
69
22
40
48
71
84
113
73
50
74
116
92
47
44
15
41
45
52
67
68
53
55
68
68
63
62
60
59
59
63
63
56
60
62
66
64
60
62
70
68
64
64
69
73
73
57
52
33
23
77
86
61
21
56
48
13
62
70
89
69
83
72
58
63
60
64
70
54
26
46
90
83
51
57
59
66
33
2
20
21
24
23
14
43
53
78
80
72
71
87
84
82
67
74
84
54
50
85
57
79
106
86
79
85
85
83
95
83
86
96
86
88
90
94
86
84
87
74
90
71
59
99
90
52
106
81
44
9
5
4
1
1
2
4
2
2
3
2
1
1
0
0
0
0
0
0
0
0
0
0
0
0
0
0
0
0
0
0
0
0
0
0
0
0
0
0
0
0
0
0
0
0
0
0
0
0
0
0
0
0
0
0
0
0
0
0
0

0
0
0
0
0
0
0
0
0
0
0
0
0
0
0
0
0
0
0
0
0
0
0
0
0
0
0
0
0
0
0
0
0
0
0
0
0
2
1
0
3
3
1
1
3
4
1
0
4
1
4
1
2
4
2
1
4
5
12
30
53
58
55
57
55
36
65
83
71
56
35
30
66
81
83
117
70
45
99
99
49
26
20
21
41
46
55
69
60
55
62
71
66
64
67
62
60
63
61
60
59
58
59
61
56
53
58
63
60
60
63
65
65
70
52
30
7
19
34
50
49
44
41
16
31
52
47
80
74
78
67
56
59
65
62
66
41
33
51
77
67
45
49
57
69
67
49
9
27
28
31
18
37
55
74
78
66
77
84
81
82
64
72
82
68
60
68
47
84
114
89
79
84
90
85
93
83
83
91
87
85
87
87
87
89
97
80
90
64
67
115
63
73
99
82
38
6
5
1
5
0
5
6
3
0
3
2
1
0
1
0
0
0
0
0
0
0
0
0
0
0
0
0
0
0
0
0
0
0
0
0
0
0
0
0
0
0
0
0
0
0
0
0
0
0
0
0
0
0
0
0
0
0
0
0
0

0
0
0
0
0
0
0
0
0
0
0
0
0
0
0
0
0
0
0
0
0
0
0
0
0
0
0
0
0
0
0
0
0
0
0
0
0
0
1
2
1
1
0
3
3
2
1
1
1
1
2
2
1
2
1
1
4
1
10
29
53
54
67
57
40
26
52
66
82
52
45
28
49
71
89
102
79
73
104
70
31
14
14
28
48
48
57
58
50
60
69
74
66
63
60
57
56
61
59
59
56
58
57
59
54
54
57
59
54
59
64
56
62
67
46
19
8
8
13
42
29
50
35
23
32
28
39
75
68
64
64
51
61
62
62
65
43
42
53
65
60
57
60
55
36
39
65
64
21
30
28
18
25
34
56
72
67
80
80
79
73
54
68
80
71
61
58
51
89
100
84
83
82
83
83
85
80
82
84
83
83
84
89
92
89
93
87
95
64
63
122
67
73
99
80
29
6
3
3
2
2
3
2
5
3
2
2
2
0
1
0
0
0
0
0
0
0
0
0
0
0
0
0
0
0
0
0
0
0
0
0
0
0
0
0
0
0
0
0
0
0
0
0
0
0
0
0
0
0
0
0
0
0
0
0
0

0
0
0
0
0
0
0
0
0
0
0
0
0
0
0
0
0
0
0
0
0
0
0
0
0
0
0
0
0
0
0
0
0
0
0
0
0
0
0
0
1
1
2
3
0
6
3
2
4
6
3
1
2
1
2
2
1
1
5
11
40
60
67
53
36
37
46
58
79
47
34
27
19
60
100
111
92
87
75
39
17
4
15
30
51
52
55
53
50
58
66
67
65
61
55
58
61
61
60
60
56
54
58
62
56
59
58
55
49
51
56
58
67
60
39
24
9
3
31
32
37
56
53
34
16
15
17
47
52
57
52
47
60
63
61
58
54
51
46
58
53
49
44
47
25
14
30
81
69
25
30
33
13
28
51
64
71
77
75
76
59
46
66
79
74
72
66
56
89
85
80
86
83
79
82
84
78
86
85
83
82
85
87
88
94
90
89
97
62
52
101
59
65
102
72
27
11
6
3
2
3
1
0
4
0
1
2
1
1
0
0
0
0
0
0
0
0
0
0
0
0
0
0
0
0
0
0
0
0
0
0
0
0
0
0
0
0
0
0
0
0
0
0
0
0
0
0
0
0
0
0
0
0
0
0
0

0
0
0
0
0
0
0
0
0
0
0
0
0
0
0
0
0
0
0
0
0
0
0
0
0
0
0
0
0
0
0
0
0
0
0
0
0
0
0
0
0
2
3
0
1
3
0
2
1
2
3
1
1
1
2
1
2
3
3
5
22
51
60
51
44
40
48
43
69
46
29
21
5
33
61
66
54
38
16
21
5
21
21
28
37
46
55
53
50
55
61
60
61
62
59
55
60
55
54
59
57
50
53
61
55
47
50
50
50
53
50
52
56
49
32
19
26
20
25
27
23
34
60
45
29
16
20
28
32
50
48
44
54
62
49
39
52
54
35
50
51
48
36
46
35
13
13
49
83
77
27
32
11
33
49
63
75
75
68
65
47
42
65
72
79
70
58
58
84
79
79
81
80
78
83
82
78
85
83
84
80
81
81
82
95
86
83
89
55
60
95
40
73
94
73
28
7
3
3
3
4
1
3
3
1
2
0
1
1
0
0
0
0
0
0
0
0
0
0
0
0
0
0
0
0
0
0
0
0
0
0
0
0
0
0
0
0
0
0
0
0
0
0
0
0
0
0
0
0
0
0
0
0
0
0
0

0
0
0
0
0
0
0
0
0
0
0
0
0
0
0
0
0
0
0
0
0
0
0
0
0
0
0
0
0
0
0
0
0
0
0
0
0
0
0
0
1
0
1
1
1
0
1
2
2
2
2
3
4
2
2
2
3
3
4
4
8
36
55
56
50
44
46
22
66
67
22
19
12
10
18
14
11
7
7
5
3
24
32
36
41
56
62
49
47
54
60
57
56
52
51
48
49
52
52
56
62
57
58
62
60
62
62
63
65
53
49
49
47
48
37
25
45
46
46
55
16
31
52
52
31
11
30
25
23
35
40
35
41
58
37
32
51
58
31
33
40
48
46
42
36
29
18
15
45
90
71
28
18
37
52
72
75
72
67
60
46
45
61
68
68
59
50
61
79
69
72
75
75
69
79
79
77
78
78
80
72
76
83
81
87
85
80
88
53
54
101
48
65
94
65
23
6
1
0
3
2
2
2
2
0
0
0
0
0
0
0
0
0
0
0
0
0
0
0
0
0
0
0
0
0
0
0
0
0
0
0
0
0
0
0
0
0
0
0
0
0
0
0
0
0
0
0
0
0
0
0
0
0
0
0
0

0
0
0
0
0
0
0
0
0
0
0
0
0
0
0
0
0
0
0
0
0
0
0
0
0
0
0
0
0
0
0
0
0
0
0
0
0
0
0
0
0
1
1
1
1
1
1
2
2
2
1
3
0
2
4
6
2
4
1
1
3
14
40
60
57
41
39
25
35
82
32
15
12
7
1
8
7
8
4
10
6
13
31
41
56
61
53
45
49
56
54
55
52
49
51
46
48
54
47
36
33
30
34
44
42
49
44
45
44
33
38
45
42
46
49
42
56
58
54
46
26
34
51
51
25
10
26
27
24
32
40
26
31
56
34
30
52
59
34
25
26
47
44
43
32
16
12
12
2
38
72
65
28
28
52
73
67
68
64
59
45
40
54
69
64
68
59
67
74
66
72
76
77
69
74
77
73
78
75
76
70
74
82
79
77
81
76
87
57
60
95
44
71
92
58
14
10
3
3
5
0
3
1
1
1
0
1
0
0
0
0
0
0
0
0
0
0
0
0
0
0
0
0
0
0
0
0
0
0
0
0
0
0
0
0
0
0
0
0
0
0
0
0
0
0
0
0
0
0
0
0
0
0
0
0
0

0
0
0
0
0
0
0
0
0
0
0
0
0
0
0
0
0
0
0
0
0
0
0
0
0
0
0
0
0
0
0
0
0
0
0
0
0
0
0
0
0
1
2
0
0
2
2
1
4
3
3
2
1
2
1
3
1
2
5
2
1
3
17
46
58
46
38
43
16
47
57
20
8
15
6
8
7
13
17
15
19
29
39
48
51
45
41
43
45
48
46
48
52
49
54
51
51
41
23
4
14
15
18
25
37
44
44
43
37
24
14
18
23
36
49
45
60
49
37
19
23
35
48
35
11
10
25
28
25
31
44
24
30
52
30
26
41
50
34
17
21
48
47
41
24
3
10
10
4
9
16
35
51
35
51
68
61
66
61
57
46
41
51
61
67
65
44
63
76
68
71
74
72
70
70
67
72
78
72
73
73
70
71
73
72
78
74
86
62
59
83
35
72
82
49
9
8
3
4
5
2
3
1
1
1
0
0
0
0
0
0
0
0
0
0
0
0
0
0
0
0
0
0
0
0
0
0
0
0
0
0
0
0
0
0
0
0
0
0
0
0
0
0
0
0
0
0
0
0
0
0
0
0
0
0
0

0
0
0
0
0
0
0
0
0
0
0
0
0
0
0
0
0
0
0
0
0
0
0
0
0
0
0
0
0
0
0
0
0
0
0
0
0
0
0
0
1
1
0
2
0
2
1
1
1
3
2
2
3
1
2
1
3
1
2
0
1
4
4
24
48
57
42
42
32
20
46
48
23
6
16
22
15
13
20
18
18
29
37
48
46
45
52
49
46
49
50
50
52
56
57
50
42
31
19
4
5
8
12
9
21
34
33
31
33
19
11
13
3
32
46
41
54
43
14
6
9
28
44
24
15
7
18
26
19
27
39
28
30
44
27
23
26
38
32
13
26
45
51
34
16
12
22
9
9
9
14
8
37
45
52
58
61
60
56
53
46
44
56
55
62
58
36
54
65
58
66
68
63
63
66
65
70
70
69
71
67
68
68
70
74
75
69
84
59
50
76
36
62
82
48
7
6
1
4
0
2
1
1
2
1
0
0
1
0
0
0
0
0
0
0
0
0
0
0
0
0
0
0
0
0
0
0
0
0
0
0
0
0
0
0
0
0
0
0
0
0
0
0
0
0
0
0
0
0
0
0
0
0
0
0
0

0
0
0
0
0
0
0
0
0
0
0
0
0
0
0
0
0
0
0
0
0
0
0
0
0
0
0
0
0
0
0
0
0
0
0
0
0
0
0
0
0
1
1
0
2
1
1
1
2
1
0
1
2
0
2
2
1
2
1
1
1
4
2
4
26
49
58
37
32
24
20
46
49
38
20
17
22
21
12
16
21
22
25
30
39
44
46
47
48
50
53
54
51
56
48
35
33
27
22
14
15
10
8
8
3
5
13
25
28
13
25
29
13
30
43
38
48
33
5
7
16
28
34
14
5
3
23
25
22
26
37
31
27
41
28
25
24
29
22
21
36
37
46
25
6
4
14
4
13
10
17
20
21
52
49
48
62
57
49
48
42
41
51
48
52
50
47
53
54
57
68
65
61
59
62
63
66
62
63
64
63
70
66
66
71
68
63
78
60
44
64
38
65
74
39
3
4
1
4
1
1
0
0
0
1
1
0
0
0
0
0
0
0
0
0
0
0
0
0
0
0
0
0
0
0
0
0
0
0
0
0
0
0
0
0
0
0
0
0
0
0
0
0
0
0
0
0
0
0
0
0
0
0
0
0
0

0
0
0
0
0
0
0
0
0
0
0
0
0
0
0
0
0
0
0
0
0
0
0
0
0
0
0
0
0
0
0
0
0
0
0
0
0
0
0
0
0
0
0
0
1
0
1
0
2
1
1
2
0
2
1
1
1
1
1
2
0
3
1
2
8
26
50
51
40
30
21
30
41
48
47
45
44
34
27
23
14
11
8
11
16
23
27
34
35
33
36
38
40
36
31
26
17
20
19
19
24
17
12
12
11
8
3
28
35
24
39
29
11
33
37
35
44
32
19
15
30
30
29
9
6
1
16
21
22
24
37
33
27
38
27
24
21
23
19
25
37
27
37
22
11
0
2
6
19
19
15
17
17
44
44
46
62
52
48
43
37
45
47
44
45
27
37
51
52
59
62
57
56
57
58
54
63
59
58
60
61
62
57
56
63
63
63
69
36
35
60
38
62
72
34
4
2
0
3
4
0
0
1
1
1
2
0
0
0
0
0
0
0
0
0
0
0
0
0
0
0
0
0
0
0
0
0
0
0
0
0
0
0
0
0
0
0
0
0
0
0
0
0
0
0
0
0
0
0
0
0
0
0
0
0
0

0
0
0
0
0
0
0
0
0
0
0
0
0
0
0
0
0
0
0
0
0
0
0
0
0
0
0
0
0
0
0
0
0
0
0
0
0
0
0
0
0
0
0
0
0
0
1
1
2
1
1
2
0
1
0
1
2
2
1
1
2
3
2
4
4
2
14
36
49
46
34
22
30
36
29
35
36
26
21
16
20
25
20
22
19
15
19
21
22
18
14
16
20
15
13
15
13
21
19
33
40
35
37
24
16
13
9
17
27
24
29
7
28
37
28
31
39
32
25
20
29
28
30
19
8
7
5
20
19
19
30
36
28
32
25
22
17
23
10
21
29
27
30
29
21
17
9
8
16
18
14
10
17
36
40
48
57
46
45
39
34
44
42
42
44
28
30
40
44
48
54
52
52
53
55
50
57
54
56
59
58
54
55
57
63
57
65
57
20
42
64
39
57
62
29
3
5
4
3
2
0
0
0
0
1
0
0
0
0
0
0
0
0
0
0
0
0
0
0
0
0
0
0
0
0
0
0
0
0
0
0
0
0
0
0
0
0
0
0
0
0
0
0
0
0
0
0
0
0
0
0
0
0
0
0
0

0
0
0
0
0
0
0
0
0
0
0
0
0
0
0
0
0
0
0
0
0
0
0
0
0
0
0
0
0
0
0
0
0
0
0
0
0
0
0
0
0
0
0
1
1
0
0
1
1
2
1
0
1
1
1
0
2
0
1
1
0
0
1
0
2
2
2
10
30
41
42
41
34
26
24
27
24
25
28
27
25
25
26
28
23
19
20
22
20
17
16
17
21
16
8
16
18
14
16
30
42
35
41
29
14
14
20
5
14
21
10
18
35
32
26
32
31
26
22
16
28
27
18
19
8
3
14
15
17
20
27
34
25
31
27
21
14
21
19
16
23
33
28
22
23
26
8
10
11
16
15
12
25
32
43
45
45
42
42
37
37
39
30
37
38
36
33
30
40
45
50
49
51
50
53
49
51
49
53
53
56
50
52
54
58
53
63
49
24
48
62
41
45
56
27
2
6
2
1
2
2
1
0
1
0
0
0
0
0
0
0
0
0
0
0
0
0
0
0
0
0
0
0
0
0
0
0
0
0
0
0
0
0
0
0
0
0
0
0
0
0
0
0
0
0
0
0
0
0
0
0
0
0
0
0
0

0
0
0
0
0
0
0
0
0
0
0
0
0
0
0
0
0
0
0
0
0
0
0
0
0
0
0
0
0
0
0
0
0
0
0
0
0
0
0
0
0
0
0
1
1
1
0
1
1
1
3
0
1
0
0
1
2
0
0
0
1
0
0
1
2
2
4
0
5
14
28
39
42
32
29
30
24
28
29
28
29
27
24
18
16
15
14
13
14
11
9
9
15
11
10
17
13
8
14
27
25
13
21
21
11
8
14
10
12
18
2
33
34
26
27
33
30
26
17
14
24
27
20
0
3
1
10
15
19
22
25
30
24
29
29
25
12
13
19
18
21
17
12
13
25
27
15
15
13
14
9
10
28
30
42
40
38
39
33
31
38
34
32
36
28
32
33
30
37
48
48
46
47
47
46
46
47
45
49
47
46
45
47
45
50
51
52
46
40
49
56
35
43
57
27
4
5
2
1
1
2
1
0
1
0
0
0
0
0
0
0
0
0
0
0
0
0
0
0
0
0
0
0
0
0
0
0
0
0
0
0
0
0
0
0
0
0
0
0
0
0
0
0
0
0
0
0
0
0
0
0
0
0
0
0
0

0
0
0
0
0
0
0
0
0
0
0
0
0
0
0
0
0
0
0
0
0
0
0
0
0
0
0
0
0
0
0
0
0
0
0
0
0
0
0
0
0
0
0
0
0
1
2
1
2
1
1
2
1
0
2
1
0
2
1
1
1
0
1
1
0
2
3
2
1
1
6
16
25
30
33
31
27
29
26
22
20
23
26
25
22
19
17
21
20
15
19
18
13
10
17
14
9
17
22
19
13
5
13
4
12
3
14
13
7
10
16
36
30
24
28
29
29
23
12
12
18
21
11
8
4
4
14
19
20
22
24
27
23
25
27
25
16
9
11
12
11
3
9
18
19
10
10
11
10
8
8
12
24
27
36
32
33
32
20
29
32
28
37
32
25
35
32
32
33
37
40
44
41
42
39
40
43
40
42
42
41
43
44
41
49
45
43
48
31
39
52
35
43
51
23
1
5
3
4
0
2
0
1
2
0
0
1
0
0
0
0
0
0
0
0
0
0
0
0
0
0
0
0
0
0
0
0
0
0
0
0
0
0
0
0
0
0
0
0
0
0
0
0
0
0
0
0
0
0
0
0
0
0
0
0
0

0
0
0
0
0
0
0
0
0
0
0
0
0
0
0
0
0
0
0
0
0
0
0
0
0
0
0
0
0
0
0
0
0
0
0
0
0
0
0
0
0
0
0
0
0
0
0
0
0
0
0
0
0
1
1
0
0
2
0
1
1
0
0
1
1
2
2
2
2
2
1
2
2
7
11
17
21
23
25
24
22
23
27
29
26
23
25
23
22
22
25
24
21
21
25
22
22
27
29
18
10
7
14
19
16
4
13
15
6
7
23
29
25
23
27
25
22
19
13
13
15
6
7
14
4
11
26
28
28
25
23
23
19
20
24
24
18
11
9
7
12
12
14
10
14
3
8
12
10
9
9
8
18
24
30
27
28
22
17
26
25
30
34
24
30
33
27
29
31
31
33
36
35
37
38
37
40
36
36
37
39
41
38
35
45
41
41
44
27
37
52
33
36
43
20
0
3
2
3
3
0
1
0
2
0
0
0
0
0
0
0
0
0
0
0
0
0
0
0
0
0
0
0
0
0
0
0
0
0
0
0
0
0
0
0
0
0
0
0
0
0
0
0
0
0
0
0
0
0
0
0
0
0
0
0
0

0
0
0
0
0
0
0
0
0
0
0
0
0
0
0
0
0
0
0
0
0
0
0
0
0
0
0
0
0
0
0
0
0
0
0
0
0
0
0
0
0
0
0
0
0
0
0
0
0
0
1
1
2
0
0
0
0
1
0
0
0
1
0
2
1
0
1
0
1
1
3
2
4
3
1
2
2
3
8
8
11
11
14
16
17
17
17
17
17
19
18
17
16
19
24
23
23
22
18
7
7
9
14
17
12
8
14
10
4
15
24
24
22
21
24
23
24
22
21
21
19
14
15
13
7
16
30
35
32
25
21
20
18
18
21
23
17
13
11
7
12
4
1
11
15
13
16
7
13
11
8
4
10
22
23
27
29
20
19
20
19
29
28
19
25
27
27
28
28
30
31
30
30
33
34
35
33
32
35
32
33
36
32
29
37
35
33
41
30
27
45
30
35
36
17
0
1
0
0
1
0
0
0
0
0
0
0
0
0
0
0
0
0
0
0
0
0
0
0
0
0
0
0
0
0
0
0
0
0
0
0
0
0
0
0
0
0
0
0
0
0
0
0
0
0
0
0
0
0
0
0
0
0
0
0
0

0
0
0
0
0
0
0
0
0
0
0
0
0
0
0
0
0
0
0
0
0
0
0
0
0
0
0
0
0
0
0
0
0
0
0
0
0
0
0
0
0
0
0
0
0
0
0
0
0
1
0
0
0
1
1
1
0
1
0
0
0
0
0
0
0
1
0
0
1
1
1
1
2
2
2
2
2
3
4
2
3
3
3
4
4
7
5
5
7
8
7
7
6
7
11
10
11
9
7
1
0
4
8
14
13
11
9
5
9
14
19
19
18
17
21
22
25
24
24
23
20
20
15
11
7
18
29
31
27
24
19
17
16
15
15
20
19
11
12
8
8
1
8
16
16
21
23
18
11
12
8
7
2
18
21
24
23
18
19
18
20
24
19
17
19
25
25
24
25
25
27
27
27
28
28
30
28
28
30
28
28
30
28
28
32
30
30
41
31
21
36
30
27
34
19
1
2
0
1
1
0
0
1
0
0
0
0
0
0
0
0
0
0
0
0
0
0
0
0
0
0
0
0
0
0
0
0
0
0
0
0
0
0
0
0
0
0
0
0
0
0
0
0
0
0
0
0
0
0
0
0
0
0
0
0
0

0
0
0
0
0
0
0
0
0
0
0
0
0
0
0
0
0
0
0
0
0
0
0
0
0
0
0
0
0
0
0
0
0
0
0
0
0
0
0
0
0
0
0
0
0
0
0
0
0
0
0
0
1
0
0
0
0
1
0
0
0
0
0
1
0
0
0
0
0
0
2
1
1
0
0
0
1
2
1
1
2
2
2
1
0
1
1
2
4
3
2
5
3
1
3
4
3
2
2
0
0
1
6
12
13
12
7
8
9
14
17
16
16
15
16
19
19
19
19
18
18
16
13
12
8
18
28
25
24
22
17
16
12
12
12
18
20
10
8
8
7
6
13
13
16
14
11
23
18
8
8
7
0
16
21
18
14
15
16
18
21
18
13
17
20
22
21
22
22
22
22
22
25
24
24
24
25
25
24
24
25
23
23
27
30
25
27
36
30
23
30
29
20
29
16
1
3
0
1
1
0
0
0
0
0
0
0
0
0
0
0
0
0
0
0
0
0
0
0
0
0
0
0
0
0
0
0
0
0
0
0
0
0
0
0
0
0
0
0
0
0
0
0
0
0
0
0
0
0
0
0
0
0
0
0
0

0
0
0
0
0
0
0
0
0
0
0
0
0
0
0
0
0
0
0
0
0
0
0
0
0
0
0
0
0
0
0
0
0
0
0
0
0
0
0
0
0
0
0
0
0
0
0
0
0
0
0
0
0
0
0
0
0
0
0
0
1
1
0
0
0
0
0
1
1
0
1
1
0
0
0
0
0
0
1
0
0
0
0
1
1
0
1
0
0
1
0
1
0
0
1
1
1
1
0
0
0
0
4
8
12
10
8
9
9
12
14
14
13
13
13
16
16
15
14
14
14
13
14
13
13
16
19
18
19
19
16
14
9
9
10
13
16
12
6
6
11
9
10
12
16
7
4
10
18
15
8
6
2
12
14
10
9
13
15
17
17
12
10
12
16
17
18
20
19
20
20
18
21
21
21
20
21
21
21
22
22
19
20
22
25
23
21
30
22
18
27
24
17
23
15
3
1
0
1
0
0
1
0
0
0
0
0
0
0
0
0
0
0
0
0
0
0
0
0
0
0
0
0
0
0
0
0
0
0
0
0
0
0
0
0
0
0
0
0
0
0
0
0
0
0
0
0
0
0
0
0
0
0
0
0
0

