P2
256 256 255
  0 
  0   0   0   0   0   0   0   0   0   0   0   0   0   0   0   0   0 
  0   0   0   0   0   0   0   0   0   0   0   0   0   0   0   0   0   0 
  0   0   0   0   0   0   0   0   0   0   0   0   0   0   0   0   0 
  0   0   8   8   0   0   0   0   0   0   0   0   0   0   0   0   8   0 
  0   0   0   8   0   0   0   8   8   0   0   0   8   0   0   0   0 
  0   0   0   0   0   0   0   8   8   0   0   0   0   0   8   8   0   0 
  0   0   0   0   0   0   0   0   0   0   8   0   0   0   0   0   0 
  0   0   8   0   0   0   0   0   8   0   0   0   8   0   8   8   0   0 
  8   8   8   0   0   0   0   0   0   0   0   0   0   8   0   0   0 
  0   0   0   0   8   0   0   0   0   0   0   8   0   0   0   0   0   0 
  0   0   0   0   0   0   0   0   0   0   0   0   0   0   0   0   0 
  0   0   0   0   0   0   0   0   0   0   0   0   0   0   0   0   0   0 
  0   0   0   0   0   0   0   0   0   0   0   8   0   0   8   0   0 
  0   0   0   0   0   0   0   0   0   0   0   0   0   0   0   0   0   0 
  0   0   0   0   0   0   0   0   0   0
  0 
  0   0   0   0   0   0   0   0   0   0   0   0   0   0   0   0   0 
  0   0   0   0   0   0   0   0   0   0   0   0   0   0   0   0   0   0 
  0   0   0   0   0   0   0   0   0   7   0   0   0   0   0   0   0 
  0   0   0   0   0   0   8   8   0   8   0   0   0   8   0   0   0   8 
  0   0   0   0   0   0   0   8   0   0   8   0   0   0   0   0   0 
  0   8   0   0   0   8   0   0   0   0   0   0   0   0   0   0   0   0 
  0   0   0   0   0   0   8   0   8   0   0   0   0   0   0   0   0 
  0   0   0   0   8   0   0   0   8   0   0   0   0   0   8   8   0   0 
  0   0   0   0   0   0   0   8   0   0   0   0   0   0   0   0   0 
  0   0   0   0   0   0   0   0   0   0   0   0   0   0   0   0   0   0 
  0   0   0   0   8   0   0   8   0   8   0   0   0   0   0   0   0 
  0   0   0   0   0   0   0   0   0   8   0   0   0   0   8   0   0   0 
  0   0   0   0   8   0   0   0   8   8   8   0   0   0   0   0   0 
  0   0   0   0   0   0   0   0   0   0   0   0   0   0   0   0   0   0 
  0   0   0   0   0   0   0   0   0   0
  0 
  0   0   0   0   0   0   0   0   0   0   0   0   0   0   0   0   0 
  0   0   0   0   0   0   0   0   0   0   0   0   0   0   0   0   0   0 
  0   0   0   0   0   0   0   0   0   0   0   0   0   0   0   0   0 
  0   8   0   0   0   0   0   0   0   8   8   0   0   0   0   0   0   0 
  0   0   0   0   0   0   0   0   0   8   0   0   0   0   0   0   0 
  0   0   0   0   0   0   0   0   0   0   0   0   0   0   0   0   0   0 
  0   0   0   0   8   0   0   0   0   0   0   0   0   0   8   0   0 
  0   8   0   0   0   8   0   0   0   0   0   0   0   8   0   0   0   0 
  0   0   0   0   0   0   0   0   8   8   0   0   0   0   0   8   8 
  0   0   0   0   0   0   0   0   0   0   0   0   0   0   8   0   0   0 
  0   0   8   0   0   0   0   0   0   0   0   8   0   0   0   8   0 
  8   0   8   0   0   0   0   0   0   0   0   0   0   0   0   0   0   0 
  0   0   0   0   0   0   0   0   0   0   8   0   0   8   8   0   0 
  0   0   0   0   0   0   0   0   0   0   0   0   0   0   0   0   0   0 
  0   0   0   0   0   0   0   0   0   0
  0 
  0   0   0   0   0   0   0   0   0   0   0   0   0   0   0   0   0 
  0   0   0   0   0   0   0   0   0   0   0   0   0   0   0   0   0   0 
  0   0   0   0   0   0   0   0   0   0   0   0   0   0   0   0   0 
  0   0   0   0   0   0   0   0   0   0   0   0   0   0   0   8   0   0 
  0   0   0   0   0   0   0   0   0   0   0   0   0   0   0   8   8 
  0   0   0   0   0   0   0   8   0   8   8   0   8   8   0   0   8   8 
  0   0   0   0   8   0   0   0   0   0   0   0   0   0   0   0   8 
  8   0   0   0   8   0   0   0   0   0   0   0   0   0   0   0   0   0 
  0   0   0   0   0   0   8   8   0   0   0   0   0   0   0   0   0 
  0   0   0   0   0   0   0   8   0   0   0   0   0   0   0   0   0   0 
  8   0   0   8   0   0   0   0   0   0   0   0   0   8   0   0   8 
  8   0   0   0   0   0   0   0   0   0   8   0   0   0   0   0   0   0 
  0   0   8   0   0   0   0   0   0   0   8   0   0   0   8   0   0 
  0   0   0   0   0   0   0   0   0   0   0   0   0   0   0   0   0   0 
  0   0   0   0   0   0   0   0   0   0
  0 
  0   0   0   0   0   0   0   0   0   0   0   0   0   0   0   0   0 
  0   0   0   0   0   0   0   0   0   0   0   0   0   0   0   0   0   0 
  0   0   0   0   0   0   0   0   0   0   0   1   0   0   0   0   0 
  0   8   0   0   0   0   0   0   0   0   0   0   0   0   0   0   0   0 
  8   8   0   0   0   0   0   0   0   0   0   0   0   0   0   0   0 
  0   0   0   8   8   0   0   0   0   0   0   0   0   0   0   0   0   0 
  0   8   8   0   0   0   0   0   8   0   0   0   0   0   8   8   0 
  0   0   8   8   8   0   0   0   0   0   0   0   0   0   0   0   0   0 
  0   8   0   0   0   0   0   0   8   0   0   0   0   0   0   0   0 
  0   8   0   0   0   0   0   0   0   0   0   0   0   0   0   0   0   8 
  8   8   0   8   8   0   0   0   0   0   0   0   0   0   0   0   0 
  8   0   0   8   0   0   0   0   0   0   0   0   8   0   0   0   0   0 
  0   0   0   0   0   0   0   8   0   0   0   0   0   0   0   0   0 
  0   0   0   0   0   0   0   0   0   0   0   0   0   0   0   0   0   0 
  0   0   0   0   0   0   0   0   0   0
  0 
  0   0   0   0   0   0   0   0   0   0   0   0   0   0   0   0   0 
  0   0   0   0   0   0   0   0   0   0   0   0   0   0   0   0   0   0 
  0   0   0   0   0   0   0   0   0   0   0   0   0   0   0   0   0 
  0   0   0   0   0   0   0   0   0   0   0   0   0   8   8   0   0   0 
  0   0   0   0   0   0   0   0   0   8   0   0   0   0   0   8   0 
  0   0   0   0   0   0   0   0   0   0   0   0   0   0   0   0   0   0 
  0   0   0   0   0   0   0   0   0   0   0   0   0   0   8   8   0 
  0   0   0   0   0   0   0   0   0   0   0   0   0   0   0   0   0   0 
  8   8   0   0   0   0   0   0   0   8   8   0   0   0   0   8   8 
  0   0   0   0   0   0   0   0   0   8   0   0   0   0   0   0   0   0 
  0   0   0   8   0   0   8   0   0   0   0   0   0   0   0   8   0 
  0   0   0   0   0   0   0   0   0   0   8   0   0   0   0   0   8   0 
  0   0   0   0   0   0   0   0   0   0   0   0   8   8   0   0   0 
  0   8   0   0   0   0   0   0   0   0   0   0   0   0   0   0   0   0 
  0   0   0   0   0   0   0   0   0   0
  0 
  0   0   0   0   0   0   0   0   0   0   0   0   0   0   0   0   0 
  0   0   0   0   0   0   0   0   0   0   0   0   0   0   0   0   0   0 
  0   0   0   0   0   0   0   0   0   0   0   0   0   0   0   0   0 
  0   8   0   0   0   0   0   0   0   8   0   0   0   0   0   0   0   0 
  0   0   8   0   0   0   0   0   0   8   0   0   0   8   0   0   8 
  0   8   0   0   0   0   0   0   0   0   0   0   0   0   8   0   0   8 
  8   0   0   0   0   0   8   8   0   0   0   0   0   0   0   0   0 
  0   0   0   0   0   0   0   0   0   0   0   0   0   0   8   0   0   0 
  0   0   0   0   0   0   0   0   0   0   0   0   0   0   0   0   0 
  0   0   0   0   0   0   0   0   0   0   0   0   0   0   0   0   0   0 
  0   0   0   0   0   8   0   0   0   8   8   0   0   0   0   0   0 
  0   0   0   0   0   0   0   0   0   0   8   8   8   8   0   0   8   0 
  0   0   0   0   0   0   8   0   0   0   0   0   0   0   0   0   0 
  0   0   0   0   0   0   0   0   0   0   0   0   0   0   0   0   0   0 
  0   0   0   0   0   0   0   0   0   0
  0 
  0   0   0   0   0   0   0   0   0   0   0   0   0   0   0   0   0 
  0   0   0   0   0   0   0   0   0   0   0   0   0   0   0   0   0   0 
  0   0   0   0   0   0   0   0   0   0   0   0   0   0   0   0   8 
  0   0   0   0   8   0   0   0   0   0   0   0   0   0   0   0   0   0 
  0   0   8   8   0   0   0   0   0   0   0   0   0   0   8   0   8 
  0   0   0   8   8   0   0   0   0   0   8   0   0   8   0   0   0   0 
  8   8   8   0   0   0   0   0   0   0   0   0   0   0   0   0   0 
  0   0   0   0   0   0   0   0   0   0   0   0   8   0   0   0   0   0 
  0   0   0   0   0   0   8   0   0   0   0   0   0   0   0   0   0 
  0   0   0   0   0   0   0   0   0   0   0   0   0   0   0   0   0   8 
  0   0   0   0   0   0   0   0   0   0   0   0   0   0   8   0   0 
  0   0   0   0   0   0   0   0   0   0   0   0   0   0   8   8   0   0 
  0   8   0   0   0   0   0   0   0   8   0   0   0   0   0   0   0 
  0   0   0   0   0   0   0   0   0   0   0   0   0   0   0   0   0   0 
  0   0   0   0   0   0   0   0   0   0
  0 
  0   0   0   0   0   0   0   0   0   0   0   0   0   0   0   0   0 
  0   0   0   0   0   0   0   0   0   0   0   0   0   0   0   0   0   0 
  0   0   0   0   0   0   0   0   0   0   0   0   0   0   0   0   0 
  0   0   0   0   0   0   0   0   0   0   0   0   0   0   0   0   0   0 
  0   0   8   0   0   0   0   0   0   0   0   0   0   0   0   0   0 
  0   0   0   0   0   0   0   0   0   0   0   0   8   0   0   0   0   8 
  0   0   0   0   0   0   0   0   0   0   0   0   0   0   0   0   0 
  0   0   0   0   0   0   0   0   0   0   0   0   0   0   0   0   0   0 
  0   0   8   0   8   0   0   0   0   0   0   8   0   0   0   0   0 
  0   0   0   8   0   0   0   0   0   0   0   0   0   0   0   0   0   0 
  0   0   8   0   8   8   0   0   0   0   0   0   0   0   8   0   0 
  0   0   0   0   0   0   0   0   0   0   0   0   0   0   8   0   0   0 
  0   8   8   0   8   8   8   0   0   0   0   0   0   8   0   0   0 
  0   0   0   0   0   0   0   0   0   0   0   0   0   0   0   0   0   0 
  0   0   0   0   0   0   0   0   0   0
  0 
  0   0   0   0   0   0   0   0   0   0   0   0   0   0   0   0   0 
  0   0   0   0   0   0   0   0   0   0   0   0   0   0   0   0   0   0 
  0   0   0   0   0   0   0   0   0   0   0   0   0   0   0   0   0 
  0   0   0   0   0   0   0   0   0   0   0   0   0   0   0   0   0   0 
  0   8   8   0   0   0   0   0   0   8   0   0   0   8   0   0   0 
  0   0   0   0   0   0   0   0   0   0   0   0   0   0   0   0   0   0 
  8   0   0   0   0   0   0   0   0   0   0   0   0   0   0   0   0 
  0   0   0   8   0   0   8   0   0   0   0   8   0   0   0   8   8   0 
  0   0   0   0   0   0   0   0   0   0   0   0   0   0   0   0   8 
  0   0   0   0   0   0   0   8   8   0   0   0   0   8   0   0   0   0 
  0   0   0   0   0   0   0   0   0   0   0   0   0   8   0   8   0 
  0   8   0   0   0   0   0   0   0   0   0   0   0   0   0   0   0   0 
  8   8   8   8   0   0   0   0   0   0   0   0   0   0   0   0   0 
  0   0   0   0   0   0   0   0   0   0   0   0   0   0   0   0   0   0 
  0   0   0   0   0   0   0   0   0   0
  0 
  0   0   0   0   0   0   0   0   0   0   0   0   0   0   0   0   0 
  0   0   0   0   0   0   0   0   0   0   0   0   0   0   0   0   0   0 
  0   0   0   0   0   0   0   0   0   0   0   0   0   0   0   0   0 
  0   0   0   0   0   0   0   0   0   0   0   0   0   0   0   8   0   0 
  0   0   0   0   0   0   0   0   0   8   0   0   0   0   8   0   8 
  8   0   0   8   0   0   0   0   0   0   0   0   0   0   8   0   0   0 
  0   0   0   8   8   0   0   0   0   0   0   0   0   0   0   0   0 
  0   0   0   0   0   0   0   0   0   0   0   0   0   0   0   0   0   8 
  0   0   0   8   0   0   0   0   0   0   0   0   8   0   0   0   8 
  8   0   8   0   0   0   0   0   0   0   8   0   0   0   8   0   8   0 
  0   0   8   0   8   0   8   0   0   0   0   0   0   0   0   0   0 
  0   0   0   0   0   0   0   0   0   0   0   0   0   0   0   0   0   0 
  0   0   8   0   0   0   0   8   0   0   0   0   0   0   0   8   0 
  0   0   0   0   0   0   0   0   0   0   0   0   0   0   0   0   0   0 
  0   0   0   0   0   0   0   0   0   0
  0 
  0   0   0   0   0   0   0   0   0   0   0   0   0   0   0   0   0 
  0   0   0   0   0   0   0   0   0   0   0   0   0   0   0   0   0   0 
  0   0   0   0   0   0   0   0   0   0   0   0   0   0   0   0   0 
  0   0   0   0   0   0   0   0   0   0   0   0   0   0   0   0   0   0 
  0   0   0   0   0   0   0   0   0   8   0   0   0   0   0   0   0 
  0   0   0   8   8   0   0   0   0   0   0   0   0   0   0   0   0   0 
  0   0   0   0   0   0   0   0   0   0   0   0   0   0   0   8   8 
  0   8   0   0   0   0   0   0   0   0   0   0   0   0   0   0   0   0 
  8   8   8   8   0   0   0   0   0   0   0   0   0   0   0   0   0 
  0   0   0   0   0   0   0   0   0   0   8   0   0   0   8   0   0   0 
  0   0   8   8   0   8   0   8   0   0   8   0   8   0   0   0   0 
  0   0   0   0   0   0   0   0   0   0   0   0   0   0   8   0   0   0 
  0   0   0   0   0   0   0   8   0   0   0   0   0   0   0   0   0 
  0   0   0   0   0   0   0   0   0   0   0   0   0   0   0   0   0   0 
  0   0   0   0   0   0   0   0   0   0
  0 
  0   0   0   0   0   0   0   0   0   0   0   0   0   0   0   0   0 
  0   0   0   0   0   0   0   0   0   0   0   0   0   0   0   0   0   0 
  0   0   0   0   0   0   0   0   0   0   0   0   0   0   0   0   0 
  0   0   0   0   8   0   8   0   0   0   0   0   8   0   0   0   0   0 
  0   0   0   0   8   0   0   0   0   0   0   0   0   0   0   8   0 
  0   0   0   0   0   0   0   0   8   8   0   0   0   0   0   0   8   0 
  0   0   0   0   0   0   0   0   0   0   0   0   0   0   0   0   0 
  0   0   0   0   0   0   0   0   0   0   0   0   0   0   0   0   0   0 
  0   0   0   0   0   0   0   0   0   0   0   0   0   0   0   0   0 
  0   8   8   8   8   0   0   8   0   0   0   0   0   0   0   0   0   0 
  0   0   0   0   0   0   0   0   0   0   0   0   0   0   0   0   0 
  0   0   8   0   0   8   0   0   0   0   0   0   0   0   0   0   0   0 
  0   0   0   0   8   0   0   0   0   0   0   0   8   0   0   0   0 
  0   0   0   0   0   0   0   0   0   0   0   0   0   0   0   0   0   0 
  0   0   0   0   0   0   0   0   0   0
  0 
  0   0   0   0   0   0   0   0   0   0   0   0   0   0   0   0   0 
  0   0   0   0   0   0   0   0   0   0   0   0   0   0   0   0   0   0 
  0   0   0   0   0   0   0   0   0   0   0   0   0   0   0   0   0 
  0   0   8   0   0   0   0   8   0   0   0   0   0   0   0   8   0   0 
  0   8   0   0   0   0   0   0   0   0   0   0   0   0   0   0   0 
  0   0   8   0   0   0   0   8   0   0   0   0   0   0   0   0   8   8 
  8   0   0   0   0   0   0   0   0   0   8   0   0   0   0   0   0 
  8   0   0   0   0   0   0   0   0   0   0   0   0   0   0   0   0   0 
  0   0   0   0   8   8   0   0   0   0   0   0   0   8   0   0   8 
  0   8   0   0   0   0   0   0   0   0   0   0   0   0   0   8   8   0 
  8   0   8   0   0   0   0   0   0   0   0   0   0   0   0   0   0 
  8   0   0   0   0   0   0   0   0   0   0   0   0   0   0   0   0   0 
  0   0   0   0   8   0   8   0   0   0   0   8   0   0   0   0   0 
  0   8   0   0   0   0   0   0   0   0   0   0   0   0   0   0   0   0 
  0   0   0   0   0   0   0   0   0   0
  0 
  0   0   0   0   0   0   0   0   0   0   0   0   0   0   0   0   0 
  0   0   0   0   0   0   0   0   0   0   0   0   0   0   0   0   0   0 
  0   0   0   0   0   0   0   0   0   0   0   0   0   0   0   0   0 
  0   0   0   0   0   0   0   0   0   0   0   0   0   0   0   0   8   0 
  0   8   8   0   0   0   0   0   0   0   0   0   0   0   8   8   0 
  0   0   8   0   0   0   0   0   0   0   0   0   0   0   0   0   0   0 
  0   0   8   8   0   0   8   8   8   0   0   8   8   0   0   0   0 
  8   8   8   0   0   0   0   0   0   0   0   0   0   0   0   8   0   0 
  0   0   0   0   8   0   0   0   0   0   0   0   0   0   8   8   8 
  0   0   0   0   0   8   0   0   0   0   0   0   0   0   0   0   0   0 
  0   0   0   0   0   0   0   8   0   0   0   0   0   0   0   0   0 
  0   0   0   0   0   0   0   0   0   0   0   8   0   0   0   0   0   0 
  0   0   0   0   0   0   0   0   0   0   0   0   8   0   0   0   0 
  0   0   0   0   0   0   0   0   0   0   0   0   0   0   0   0   0   0 
  0   0   0   0   0   0   0   0   0   0
  0 
  0   0   0   0   0   0   0   0   0   0   0   0   0   0   0   0   0 
  0   0   0   0   0   0   0   0   0   0   0   0   0   0   0   0   0   0 
  0   0   0   0   0   0   0   0   0   0   0   0   0   0   2   7   0 
  0   0   8   0   0   0   0   0   0   0   0   0   0   0   0   8   8   0 
  0   8   0   0   0   0   0   0   0   0   0   0   8   8   8   8   0 
  0   0   8   0   0   8   0   0   0   0   0   0   0   0   0   0   0   8 
  0   8   8   0   8   0   8   0   0   0   0   0   0   0   0   0   0 
  0   0   0   0   0   0   0   0   0   0   0   0   8   8   0   0   0   0 
  8   8   0   0   0   0   0   0   8   0   8   0   0   8   0   0   0 
  0   0   0   8   0   0   0   0   0   0   0   0   0   8   0   0   0   0 
  0   0   0   0   0   8   8   0   0   0   8   8   0   0   0   0   0 
  0   0   0   0   8   8   0   0   0   0   0   0   0   0   0   0   0   0 
  0   0   0   0   0   0   0   0   0   0   0   0   0   0   0   0   0 
  0   0   0   0   0   0   0   0   0   0   0   0   0   0   0   0   0   0 
  0   0   0   0   0   0   0   0   0   0
  0 
  0   0   0   0   0   0   0   0   0   0   0   0   0   0   0   0   0 
  0   0   0   0   0   0   0   0   0   0   0   0   0   0   0   0   0   0 
  0   0   0   0   0   0   0   0   0   0   0   0   0   0   0   0   0 
  0   0   0   0   0   0   0   8   0   0   0   0   0   0   0   0   0   0 
  0   0   0   8   0   0   8   0   8   8   8   0   0   0   0   0   0 
  0   0   0   8   8   8   0   0   0   0   0   0   0   0   0   0   0   0 
  0   0   0   0   0   0   0   0   0   8   8   0   0   0   0   0   8 
  0   0   0   0   0   0   0   0   0   0   0   0   0   0   0   0   0   0 
  0   0   0   8   0   0   0   0   0   0   8   0   8   8   0   8   8 
  8   0   0   0   0   0   0   0   8   0   0   0   0   0   8   8   0   0 
  8   0   0   0   0   0   0   0   0   0   0   0   0   0   0   0   8 
  0   0   0   0   0   0   0   0   8   0   0   0   0   0   0   0   0   0 
  0   0   0   0   0   0   0   0   0   0   0   0   8   0   0   0   0 
  0   0   0   0   0   0   0   0   0   0   0   0   0   0   0   0   0   0 
  0   0   0   0   0   0   0   0   0   0
  0 
  0   0   0   0   0   0   0   0   0   0   0   0   0   0   0   0   0 
  0   0   0   0   0   0   0   0   0   0   0   0   0   0   0   0   0   0 
  0   0   0   0   0   0   0   0   0   0   0   0   0   0   0   8   8 
  0   8   0   0   0   0   0   0   0   0   0   0   0   0   0   0   0   0 
  0   0   8   0   0   0   0   0   0   0   0   0   0   0   0   8   8 
  0   0   0   0   0   0   0   0   0   0   0   0   0   0   0   0   0   0 
  0   8   8   0   0   0   0   8   8   0   8   0   0   0   0   0   0 
  0   0   8   0   0   0   0   0   0   0   0   0   0   0   0   0   8   0 
  0   0   8   0   8   0   0   0   0   0   0   0   0   0   0   0   0 
  0   0   0   0   0   0   0   0   8   8   0   0   0   0   0   0   8   8 
  8   0   0   0   0   0   0   0   0   8   8   0   0   0   0   0   8 
  0   0   0   0   0   0   0   0   0   0   0   0   0   8   0   0   8   8 
  0   0   0   8   0   0   0   0   0   0   0   0   0   0   0   0   0 
  0   0   0   0   0   0   0   0   0   0   0   0   0   0   0   0   0   0 
  0   0   0   0   0   0   0   0   0   0
  0 
  0   0   0   0   0   0   0   0   0   0   0   0   0   0   0   0   0 
  0   0   0   0   0   0   0   0   0   0   0   0   0   0   0   0   0   0 
  0   0   0   0   0   0   0   0   0   0   0   0   0   0   0   0   0 
  0   0   0   0   0   0   0   0   0   0   0   0   0   0   0   8   0   0 
  0   0   0   0   0   0   0   0   0   0   8   0   0   0   0   0   8 
  0   0   0   0   0   0   0   8   0   0   0   0   0   0   0   0   0   0 
  0   0   0   0   0   0   0   0   8   0   0   0   8   8   8   0   8 
  0   0   0   0   0   8   0   0   0   0   0   0   0   0   0   0   0   0 
  0   0   0   0   8   0   0   8   8   0   8   8   0   0   8   8   0 
  0   0   8   0   0   0   0   0   0   0   0   0   0   0   0   0   0   0 
  0   8   0   8   8   8   8   0   0   0   0   0   0   0   0   0   0 
  0   0   0   0   0   0   8   0   0   0   0   0   0   0   0   0   0   0 
  0   0   8   0   0   0   0   0   0   0   0   0   0   8   8   0   0 
  0   0   0   0   0   0   0   0   0   0   0   0   0   0   0   0   0   0 
  0   0   0   0   0   0   0   0   0   0
  0 
  0   0   0   0   0   0   0   0   0   0   0   0   0   0   0   0   0 
  0   0   0   0   0   0   0   0   0   0   0   0   0   0   0   0   0   0 
  0   0   0   0   0   0   0   0   0   0   0   0   4   0   0   0   0 
  0   0   8   0   0   0   0   0   8   0   0   0   0   8   8   8   0   0 
  0   0   8   0   0   0   0   0   0   0   8   8   0   0   0   0   0 
  0   0   8   0   0   0   0   0   0   0   0   0   0   0   8   0   0   0 
  8   0   0   0   0   0   0   0   0   0   0   0   0   0   8   8   8 
  0   0   0   0   0   0   0   0   0   0   0   0   0   0   0   0   0   0 
  0   0   0   0   0   0   0   0   0   0   0   0   8   8   8   8   0 
  0   0   0   0   0   0   0   0   0   0   0   0   8   0   0   0   0   8 
  0   0   0   0   0   0   0   0   0   0   0   8   0   0   0   0   0 
  8   0   0   0   0   0   0   8   8   0   0   0   0   0   0   0   0   0 
  0   0   0   0   0   0   0   0   8   8   0   0   0   0   0   0   0 
  0   0   0   0   0   0   0   0   0   0   0   0   0   0   0   0   0   0 
  0   0   0   0   0   0   0   0   0   0
  0 
  0   0   0   0   0   0   0   0   0   0   0   0   0   0   0   0   0 
  0   0   0   0   0   0   0   0   0   0   0   0   0   0   0   0   0   0 
  0   0   0   0   0   0   0   0   0   0   1   0   0   0   0   0   0 
  0   0   0   0   0   0   0   0   0   0   0   0   0   0   0   0   0   0 
  0   0   0   8   8   0   0   0   0   0   0   0   0   0   0   0   0 
  0   0   8   8   8   8   0   0   0   0   0   0   0   0   0   0   0   0 
  0   0   0   0   0   0   0   0   0   0   0   0   0   0   0   0   0 
  0   0   0   0   0   8   0   0   0   0   0   0   0   0   0   0   0   0 
  0   0   0   8   0   0   0   0   0   0   0   0   0   0   8   8   0 
  0   8   8   8   0   0   0   0   0   0   0   0   8   0   0   8   8   0 
  0   0   0   0   0   8   8   0   0   0   0   0   0   0   0   0   0 
  0   0   8   8   8   8   0   0   0   0   0   0   0   0   0   0   0   0 
  8   0   0   0   0   0   0   0   0   8   8   0   0   0   0   0   0 
  0   0   0   0   0   0   0   0   0   0   0   0   0   0   0   0   0   0 
  0   0   0   0   0   0   0   0   0   0
  0 
  0   0   0   0   0   0   0   0   0   0   0   0   0   0   0   0   0 
  0   0   0   0   0   0   0   0   0   0   0   0   0   0   0   0   0   0 
  0   0   0   0   0   0   0   0   0   0   0   0   8   8   0   0   0 
  0   8   8   0   0   0   0   0   0   0   0   0   0   0   0   0   0   0 
  0   0   8   0   0   0   8   8   0   0   8   0   8   0   0   0   0 
  0   0   0   0   0   0   0   0   0   0   0   0   0   8   8   0   0   0 
  0   0   0   0   0   0   0   0   8   0   0   0   0   8   8   0   8 
  0   0   0   0   0   0   0   0   0   0   8   0   0   0   0   0   0   0 
  0   0   0   0   0   8   0   8   8   8   0   0   0   0   0   0   0 
  0   0   0   0   0   0   0   0   0   0   0   0   0   0   0   0   0   0 
  0   0   0   0   0   0   0   0   0   0   8   0   0   0   0   0   0 
  0   0   0   0   0   0   0   0   0   0   0   0   0   0   0   8   8   0 
  0   0   0   0   0   0   0   0   0   0   0   0   0   8   0   0   0 
  8   0   0   0   0   0   0   0   0   0   0   0   0   0   0   0   0   0 
  0   0   0   0   0   0   0   0   0   0
  0 
  0   0   0   0   0   0   0   0   0   0   0   0   0   0   0   0   0 
  0   0   0   0   0   0   0   0   0   0   0   0   0   0   0   0   0   0 
  0   0   0   0   0   0   0   0   0   0   0   0   8   0   0   0   0 
  0   0   0   0   8   0   0   0   8   8   0   0   8   0   0   0   0   0 
  8   0   0   0   0   0   0   0   0   0   0   0   0   0   0   0   0 
  0   0   0   8   0   0   0   0   8   0   0   0   0   0   0   0   0   0 
  0   0   0   0   0   0   0   0   0   0   0   0   0   0   0   0   0 
  8   0   0   0   0   0   8   0   0   0   0   0   0   0   0   0   0   8 
  0   0   8   8   0   0   0   0   0   0   0   0   0   0   8   0   0 
  0   0   0   0   0   0   0   0   0   0   0   0   0   8   0   8   0   0 
  8   0   0   0   0   0   0   0   8   8   0   0   0   0   0   8   0 
  0   0   0   0   0   0   0   0   0   0   0   0   0   0   0   0   8   0 
  0   0   0   0   0   8   0   0   8   0   0   8   0   0   0   0   0 
  0   8   0   0   0   0   0   0   0   0   0   0   0   0   0   0   0   0 
  0   0   0   0   0   0   0   0   0   0
  0 
  0   0   0   0   0   0   0   0   0   0   0   0   0   0   0   0   0 
  0   0   0   0   0   0   0   0   0   0   0   0   0   0   0   0   0   0 
  0   0   0   0   0   0   0   0   0   0   8   0   8   8   0   0   0 
  0   0   0   0   0   0   0   8   0   0   0   0   0   0   0   0   0   8 
  0   0   0   0   0   0   0   0   0   0   0   0   0   0   0   0   0 
  0   0   0   0   0   0   0   0   8   0   0   0   0   8   8   0   0   0 
  0   0   0   0   8   0   8   8   0   8   0   0   8   0   0   8   0 
  0   8   0   0   0   0   0   0   0   0   0   8   0   0   0   0   0   0 
  0   0   0   0   0   0   0   0   0   8   0   0   0   0   0   8   8 
  0   0   0   0   0   8   8   0   0   0   0   0   8   0   0   0   0   8 
  8   8   0   0   8   8   0   0   0   0   0   0   8   8   0   8   0 
  0   0   0   0   0   0   0   8   0   0   0   8   0   0   0   0   0   0 
  8   8   0   0   0   8   0   8   0   0   0   0   0   0   8   8   0 
  0   0   0   0   0   0   0   0   0   0   0   0   0   0   0   0   0   0 
  0   0   0   0   0   0   0   0   0   0
  0 
  0   0   0   0   0   0   0   0   0   0   0   0   0   0   0   0   0 
  0   0   0   0   0   0   0   0   0   0   0   0   0   0   0   0   0   0 
  0   0   0   0   0   0   0   0   8   0   0   0   0   0   0   0   0 
  0   0   0   0   0   0   0   0   0   8   0   0   0   0   0   0   0   0 
  0   0   0   8   0   0   0   0   0   0   0   0   0   0   8   8   8 
  0   0   0   0   0   0   0   0   0   0   0   0   0   0   0   0   0   0 
  0   8   8   0   0   0   0   0   0   0   0   0   0   0   0   0   0 
  0   0   0   0   0   8   0   0   0   0   0   0   8   8   0   8   0   0 
  0   0   0   0   0   0   0   0   0   0   0   0   0   0   0   0   0 
  8   0   0   0   0   0   0   0   0   0   0   0   0   0   0   8   0   0 
  0   0   8   0   0   0   0   0   0   0   8   0   8   0   0   0   0 
  0   0   0   0   0   8   0   8   8   8   0   0   0   0   0   0   0   0 
  0   0   0   0   8   0   0   0   0   0   0   0   0   0   8   0   0 
  0   0   0   0   0   0   0   0   0   0   0   0   0   0   0   0   0   0 
  0   0   0   0   0   0   0   0   0   0
  0 
  0   0   0   0   0   0   0   0   0   0   0   0   0   0   0   0   0 
  0   0   0   0   0   0   0   0   0   0   0   0   0   0   0   0   0   0 
  0   1   0   6   0   0   0   0   0   0   0   8   8   8   0   0   0 
  0   0   0   0   0   0   0   0   0   0   0   0   0   0   0   0   8   8 
  0   0   8   0   0   0   0   0   0   0   0   0   0   0   0   0   0 
  0   0   8   8   0   0   0   0   0   0   0   0   0   0   0   0   0   0 
  0   0   0   0   8   0   0   0   0   0   0   0   0   0   0   0   0 
  0   0   0   0   0   8   0   0   0   0   0   8   8   0   0   0   8   0 
  0   0   0   0   0   0   0   0   0   0   0   0   0   0   0   0   0 
  0   0   8   8   8   0   0   0   0   0   0   8   0   0   8   0   8   0 
  0   0   0   0   0   0   0   0   8   0   0   8   0   0   0   0   0 
  0   0   0   0   0   0   8   0   0   0   0   0   0   0   0   0   0   0 
  0   0   0   8   0   0   8   0   0   0   0   0   0   8   8   0   8 
  0   0   0   0   0   0   0   0   0   0   0   0   0   0   0   0   0   0 
  0   0   0   0   0   0   0   0   0   0
  0 
  0   0   0   0   0   0   0   0   0   0   0   0   0   0   0   0   0 
  0   0   0   0   0   0   0   0   0   0   0   0   0   0   0   0   0   0 
  0   0   0   0   0   0   0   0   0   0   8   0   0   0   0   0   0 
  8   0   0   0   0   0   0   8   8   0   0   0   0   0   8   8   0   0 
  0   0   0   0   0   0   0   0   0   0   8   0   0   0   0   0   0 
  0   0   0   0   0   0   8   0   0   0   0   0   8   0   0   0   0   8 
  0   0   0   0   0   0   0   0   0   0   0   0   0   0   0   0   0 
  0   8   8   8   8   8   0   0   0   0   0   0   0   0   0   0   0   0 
  0   0   0   0   0   0   0   0   0   0   0   0   0   0   0   0   0 
  0   0   0   0   0   0   0   0   8   0   0   0   0   0   8   8   0   8 
  8   0   8   0   0   0   0   0   0   8   0   0   0   0   0   0   0 
  0   0   0   8   0   0   0   0   0   0   0   0   0   8   0   0   0   0 
  0   8   0   0   0   8   0   0   0   0   0   0   0   0   8   0   0 
  0   0   0   0   0   0   0   0   0   0   0   0   0   0   0   0   0   0 
  0   0   0   0   0   0   0   0   0   0
  0 
  0   0   0   0   0   0   0   0   0   0   0   0   0   0   0   0   0 
  0   0   0   0   0   0   0   0   0   0   0   0   0   0   0   0   0   5 
  0   0   0   0   0   0   0   8   0   0   0   0   0   0   0   0   0 
  0   0   0   0   0   0   0   0   0   0   0   0   0   0   0   0   0   0 
  0   0   0   0   0   0   8   0   0   8   0   0   0   0   0   0   8 
  0   0   0   0   0   8   0   0   0   0   0   0   0   0   0   0   0   0 
  0   0   0   0   8   8   0   0   0   0   0   0   0   8   8   8   8 
  8   0   0   0   0   0   0   0   0   0   0   0   0   0   8   0   0   0 
  0   0   0   0   0   8   0   0   0   0   8   0   0   8  16   8   8 
  0   8   8   8   0   0   0   0   0   0   0   0   0   8   8   8   0   8 
  0   0   0   8   0   0   0   0   0   0   0   0   0   0   0   0   8 
  0   0   0   0   0   0   0   8   8   0   0   0   0   0   0   8   8   0 
  8   0   0   8   0   0   8   8   0   0   0   0   0   0   0   0   0 
  0   0   0   0   0   0   0   0   0   0   0   0   0   0   0   0   0   0 
  0   0   0   0   0   0   0   0   0   0
  0 
  0   0   0   0   0   0   0   0   0   0   0   0   0   0   0   0   0 
  0   0   0   0   0   0   0   0   0   0   0   0   0   0   0   0   0   0 
  0   8   0   0   0   0   0   0   0   0   0   0   0   0   0   0   0 
  8   0   0   0   0   0   0   0   0   0   0   0   0   0   0   0   8   0 
  0   8   8   8   0   0   0   8   0   0   0   8   0   0   0   0   0 
  0   0   0   0   0   0   0   8   0   0   8   8   0   0   0   8   0   0 
  0   8   0   0   0   0   0   0   0   0   0   0   0   0   8   0   0 
  0   0   0   0   0   0   0   0   0   0   0   0   0   0   0   0   0   0 
  0   0   0   0   0   0   0   0   0   0   0   8   0   0   0   0   8 
  8   8   8   8   0   0   0   0   0   0   0   0   0   0   0   0   0   0 
  0   0   0   0   0   0   0   0   0   0   0   0   0   0   8   0   0 
  0   0   0   0   0   0   0   0   0   0   8   8   0   0   0   8   0   0 
  0   0   0   8   0   0   0   0   0   0   0   0   0   0   0   0   0 
  8   0   0   0   0   0   0   0   0   0   0   0   0   0   0   0   0   0 
  0   0   0   0   0   0   0   0   0   0
  0 
  0   0   0   0   0   0   0   0   0   0   0   0   0   0   0   0   0 
  0   0   0   0   0   0   0   0   0   0   0   0   0   0   0   0   0   0 
  0   0   0   0   0   0   0   0   0   0   0   0   0   0   8   8   0 
  0   0   0   0   0   0   0   0   0   0   0   0   0   0   0   0   0   0 
  0   0   0   0   0   0   0   0   0   0   8   8   0   0   0   0   0 
  8   8   0   0   0   0   0   8   0   0   0   0   0   0   8   0   0   0 
  8   0   0   0   0   0   0   0   0   8   0   0   8   0   0   0   0 
  0   0   0   8   0   0   0   0   0   0   0   8   8   0   0   8   0   0 
  8   8   0   8   8   0   0   0   0   0   8   0   0   8   8   0   0 
  0   0   0   0   8   0   8   0   0   0   0   0   0   0   0   0   0   0 
  0   0   0   0   0   0   0   0   0   0   0   0   0   0   0   0   0 
  8   0   8   0   0   8   0   0   0   0   8   8   0   0   0   0   0   8 
  8   8   8   0   0   0   8   0   0   0   0   0   0   0   0   0   0 
  0   0   0   0   0   0   0   0   0   0   0   0   0   0   0   0   0   0 
  0   0   0   0   0   0   0   0   0   0
  0 
  0   0   0   0   0   0   0   0   0   0   0   0   0   0   0   0   0 
  0   0   0   0   0   0   0   0   0   0   0   0   0   0   0   0   0   0 
  0   0   0   0   0   0   0   0   0   8   8   0   0   0   8   0   0 
  0   8   0   0   0   0   0   0   0   0   0   0   0   0   0   0   8   0 
  0   0   0   0   0   0   0   0   0   0   8   8   0   0   0   0   0 
  0   0   8   8   0   0   8   8   8   0   0   0   0   8   0   0   0   0 
  0   0   0   0   0   0   0   0   0   0   0   8   8   8   0   0   0 
  0   0   0   0   0   0   8   8   0   0   0   0   0   0   0   0   0   0 
  0   0   0   0   0   0   0   0   0   0   0   8   0   0   0   0   0 
  0   0   0   0   0   0   0   0   0   0   0   0   0   0   0   0   0   0 
  0   0   8   0   0   0   0   0   0   0   0   0   8   0   8   8   8 
  8   0   0   0   0   0   0   0   0   0   0   0   0   0   0   0   0   8 
  0   0   0   0   0   0   0   0   0   0   0   0   0   0   0   0   0 
  0   0   0   0   0   0   0   0   0   0   0   0   0   0   0   0   0   0 
  0   0   0   0   0   0   0   0   0   0
  0 
  0   0   0   0   0   0   0   0   0   0   0   0   0   0   0   0   0 
  0   0   0   0   0   0   0   0   0   0   2   0   8   8   0   0   0   0 
  0   0   0   0   0   0   0   8   0   0   8   0   0   0   0   0   0 
  0   0   0   0   8   0   0   0   0   0   0   0   0   0   0   0   0   0 
  0   0   0   8   0   0   0   0   0   0   0   0   0   0   0   0   0 
  0   8   0   0   0   0   0   0   0   0   8   0   8   0   0   8   0   0 
  0   0   0   0   0   0   0   0   0   0   0   8   0   8   0   0   0 
  8   8   0   0   0   0   8   0   0   0   0   0   0   0   0   0   0   0 
  0   0   0   0   0   0   0   0   8   8   8   0   8   0   0   0   0 
  0   0   0   0   0   0   0   0   8   8   8   0   0   0   0   0   0   0 
  0   0   0   0   0   0   0   0   0   0   0   0   8   0   0   0   0 
  0   0   0   0   0   0   0   0   0   0   0   0   0   0   0   0   0   0 
  0   0   8   8   0   0   0   0   0   0   0   0   0   0   0   0   0 
  8   0   0   0   0   0   0   0   0   0   0   0   0   0   0   0   0   0 
  0   0   0   0   0   0   0   0   0   0
  0 
  0   0   0   0   0   0   0   0   0   0   0   0   0   0   0   0   0 
  0   0   0   0   0   0   0   0   0   0   0   0   0   0   0   0   0   0 
  0   0   0   0   0   0   0   0   8   8   8   0   0   0   0   0   0 
  0   0   0   0   0   0   0   8   0   0   0   0   0   0   0   0   0   0 
  0   0   0   0   0   0   0   0   0   0   0   0   0   0   0   0   0 
  0   0   0   0   0   0   0   0   0   0   8  16   0   0   0   0   0   0 
  0   0   0   0   0   0   0   0   0   0   0   0   0   0   0   0   0 
  8   8   8   0   8   8   0   0   8   8   8   8   0   0   0   0   0   0 
  0   0   8   8   0   0   0   8   8   0   8   0   0   0   0   0   0 
  0   0   0   0   0   0   8   8   0   0   0   0   8   0   0   0   0   0 
  0   0   0   0   0   0   0   0   0   0   8   0   0   0   8   0   0 
  0   0   0   0   0   0   0   0   0   0   8   8   0   0   0   0   0   0 
  8   0   0   0   0   0   0   0   0   0   0   0   0   0   0   0   0 
  0   0   0   0   0   0   0   0   0   0   0   0   0   0   0   0   0   0 
  0   0   0   0   0   0   0   0   0   0
  0 
  0   0   0   0   0   0   0   0   0   0   0   0   0   0   0   0   0 
  0   0   0   0   0   0   0   0   0   0   0   0   0   8   0   0   0   0 
  0   0   0   0   0   0   0   0   8   0   0   0   0   0   0   0   0 
  0   0   0   0   0   0   0   0   0   0   8   0   0   0   0   0   0   8 
  0   0   0   0   0   8   0   0   8   8   0   0   0   0   0   0   8 
  0   0   0   0   0   0   0   0   0   0   0   0   8   0   0   8   8   0 
  0   0   0   8   0   0   0   0   8   0   0   8   0   0   8   8   0 
  0   0   0   0   0   0   0   0   0   0   8   0   0   8   8   0   0   0 
  0   0   0   0   0   0   0   0   0   8   0   0   0   0   0   8   8 
  8   0   0   0   0   0   0   0   0   0   0   0   0   0   0   0   0   0 
  0   0   0   0   0   0   0   8   8   0   8   0   0   0   0   0   0 
  0   0   0   0   0   0   0   8   0   0   0   0   0   0   0   0   8   0 
  0   0   0   0   0   8   0   0   0   0   8   8   0   0   0   8   0 
  0   8   0   0   0   0   0   0   0   0   0   0   0   0   0   0   0   0 
  0   0   0   0   0   0   0   0   0   0
  0 
  0   0   0   0   0   0   0   0   0   0   0   0   0   0   0   0   0 
  0   0   0   0   0   0   0   0   0   0   0   0   0   0   0   0   0   0 
  8   0   0   0   0   0   0   0   0   0   0   0   8   8   0   8   8 
  0   8   0   0   0   0   0   0   0   0   8   0   0   0   0   0   0   0 
  0   0   8   0   0   0   0   0   0   0   8   0   0   8   8   0   0 
  0   0   8   0   8   8   0   0   0   0   0   8   8   0   0   0   8   0 
  0   0   8   0   0   8   0   8   8   8   8   8   0   0   0   0   8 
  8   8   8  16  16   8   8  16   8   8   0   0   8   0   8   8  16   8 
  0   8   0   0   0   0   8   0   8   8   0   8   0   8   8   0   0 
  8   0   8   0   0   0   0   0   0   0   0   0   8   8   0   0   0   0 
  0   0   0   0   0   8   8   0   8   0   8   8   0   8   8   0   0 
  0   0   0   0   0   0   0   0   0   0   8   0   0   8   0   0   8   0 
  8   8   8   0   0   0   8   8   0   0   0   0   0   0   0   0   0 
  8   0   0   0   0   0   0   0   0   0   0   0   0   0   0   0   0   0 
  0   0   0   0   0   0   0   0   0   0
  0 
  0   0   0   0   0   0   0   0   0   0   0   0   0   0   0   0   0 
  0   0   0   0   0   0   0   0   0   1   0   0   0   0   0   0   0   0 
  0   0   0   0   0   0   0   0   8   8   0   0   0   0   0   0   0 
  8   0   0   0   0   0   0   0   0   0   0   8   0   0   8   8   0   0 
  0   0   0   0   8   0   0   0   0   0   0   0   0   0   8   8   0 
  0   0   0   0   8  16   8   0   0   8  16   8   8   0   0   8   0   8 
  0   0   0   0   0   0   0   8   8   8   0   8   8  16  24  24  33 
 49  66  66  74  66  66  57  49  33  24  24  24  16  16   8   8   8   8 
  0   0   0   0   0   0   0   0   0   0   0   0   0   0   0   8   8 
  0   8   8   0   0   0   0   0   0   0   0   0   0   0   0   0   0   8 
  0   0   0   0   0   0   0   0   0   0   0   0   0   0   0   8   0 
  8   0   0   0   0   0   0   0   8   0   0   0   0   0   0   0   0   0 
  0   0   0   0   0   0   0   0   8   0   0   8   0   0   0   0   0 
  0   0   0   0   0   0   0   0   0   0   0   0   0   0   0   0   0   0 
  0   0   0   0   0   0   0   0   0   0
  0 
  0   0   0   0   0   0   0   0   0   0   0   0   0   0   0   0   0 
  0   0   0   0   0   0   0   0   0   0   0   0   0   0   8   0   0   0 
  0   0   8   0   0   0   0   0   0   0   0   0   0   8   8   8   0 
  0   0   0   0   0   0   0   0   0   0   0   0   0   0   0   8   0   0 
  0   0   0   0   0   0   0   0   0   0   0   0   0   8   0   0   0 
  0   8   8   8   0   0   0   0   8   0   8   8   0   8   0   0   8   0 
  8   8   8   8   8   8   0   0   0   0  16  33  57  74  82  99 115 
115 123 132 132 115 107 115 115 115 107  99  99  82  66  66  41  33  41 
 33  16   8   0   0   0   0   8   8   8   0   0   8   0   8  16   8 
  0   0  16   8   0   8   0   8   8   0   0   8   8   0   0   0   0   0 
  0   8   8   0   0   0   8   0   0   0   0   0   0   0   0   0   0 
  0   0   8   0   0   0   0   0   0   8   0   0   0   0   0   0   0   0 
  0   0   0   8   8   8   8   0   0   8   8   0   8   0   8   0   8 
  8   0   0   0   0   0   0   0   0   0   0   0   0   0   0   0   0   0 
  0   0   0   0   0   0   0   0   0   0
  0 
  0   0   0   0   0   0   0   0   0   0   0   0   0   0   0   0   0 
  0   0   0   0   0   0   0   0   0   0   0   0   0   0   0   0   0   0 
  0   0   0   0   8   8   0   0   0   0   0   0   0   0   0   0   8 
  8   0   0   0   0   0   0   0   0   0   0   0   0   0   0   0   0   0 
  0   0   0   0   0   0   0   0   8   0   0   8   8   8   0   8   8 
  8   0  16  16   8  16  16   8  16  16   8   0   0   0   0   8  16   8 
  8   8   8   0   0   8  16  41  49  74  99 107 115 123 115 115 107 
 82  74  57  41  33  33  41  49  74  99  90  99 107 107 107 107  99  82 
 74  66  49  41  33  33  24  16  16   8  16  16  24  16  24  24  24 
 33  24   8  16   8   8  16   8   8   0   8   0   0   0   0   8   8   0 
  0   0   0   0   0   0   0   0   0   8   0   0   0   0   0   0   0 
  0   0   8   8   8   0   8   0   0   8   0   0   0   0   0   0   0   0 
  0   0   0   0   0   0   0   0   0   0   0   0   0   0   0   0   0 
  0   0   0   0   0   0   0   0   0   0   0   0   0   0   0   0   0   0 
  0   0   0   0   0   0   0   0   0   0
  0 
  0   0   0   0   0   0   0   0   0   0   0   0   0   0   0   0   0 
  0   0   0   0   0   0   0   0   0   0   8   8   8   0   0   0   0   0 
  0   0   0   0   0   0   0   0   0   0   0   0   0   0   0   8   8 
  8   0   0   0   8   0   0   0   0   8   0   0   0   0   0   0   0   0 
  0   0   0   0   0   0   0   0   0   0   8   0   0   0   0   8  16 
 16  33  49  49  57  57  66  66  57  49  41  33  33  24  24  33  33  33 
 49  57  57  74  82  82 107 115 107 123 123 107  82  57  41  41  49 
 82 107  99  82  90 107  99  90  82  49  49  41  49  74  82  90  99  90 
 90  90  82  82  82  66  66  74  74  57  49  49  57  66  74  90  99 
 99  99  90  82  82  66  49  33  16  16  16   8   0   0   0   0   0   0 
  0   8   0   0   0   0   0   0   0   0   0   8   0   0   0   0   0 
  0   0   0   0   0   8   0   0   0   0   0   0   0   0   0   0   0   8 
  0   0   8   8   0   0   0   0   0   0   0   0   0   8   0   0   0 
  0   0   0   0   0   0   0   0   0   0   0   0   0   0   0   0   0   0 
  0   0   0   0   0   0   0   0   0   0
  0 
  0   0   0   0   0   0   0   0   0   0   0   0   0   0   0   0   0 
  0   0   0   0   0   0   0   0   0   0   0   0   8   0   0   0   0   0 
  0   0   0   0   0   0   0   0   8   0   8   8   8   8   8   0   0 
  0   0   0   0   0   0   8   0   0   8   0   0   8   8   0   0   0   0 
  0   0   0   0   0   0   0   0   8   0   0   0  16  16  24  57  74 
 99 132 140 148 165 165 165 173 173 173 173 156 132 115  99  99  82  90 
 90  90 107  99  90 107 115 115 107  90  90  90  90  99 115 140 123 
115 140 107 115 140 156 181 189 181 148 123 115 107 132 115 107 123 107 
 90 107  90  82  90  74  82  90  99 115 123 140 148 148 156 165 156 
148 156 148 148 148 148 132 123 107  90  57  33  16   8   0   0   0   0 
  0   0   8   0   0   0   0   0   0   0   8   0   8   0   0   0   0 
  0   0   0   0   8   0   0   0   0   0   0   0   0   8   0   0   0   8 
  0   0   0   8   0   8   8   0   0   0   0   0   0   0   0   0   0 
  0   0   0   0   0   0   0   0   0   0   0   0   0   0   0   0   0   0 
  0   0   0   0   0   0   0   0   0   0
  0 
  0   0   0   0   0   0   0   0   0   0   0   0   0   0   0   0   0 
  0   0   0   0   0   0   0   0   0   0   0   0   8   0   0   0   0   0 
  0   0   0   0   0   0   0   0   0   0   0   0   0   8   0   0   8 
  0   0   0   0   0   0   8   8   0   8   0   0   0   0   0   0   0   8 
  0   8   8   0   8   8   0  16   8   8  41  57  66  99 132 148 156 
165 165 165 156 148 148 132 123 132 132 123 132 140 140 140 132 115  99 
 90  90  82  82  90  99 107 107  99 115 115 123 140 123 132 156  99 
115 156 140 148 140 115 123 123 123 148 132  99 115 148 140 140 148 140 
123 123  99  90  90  99 107 115 115 115 132 140 132 140 148 148 156 
165 165 165 165 148 132 132 115 123 148 148 123  74  24  24  16   0   8 
  0   0   0   0   0   8   0   0   8   8   0   8   8   0   0   8   8 
  0   0   8   8   0   0   0   0   8   0   0   0   8   8   0   8   8   0 
  0   0   0   0   0   8   8   0   0   0   0   0   0   0   0   0   0 
  8   0   0   0   0   0   0   0   0   0   0   0   0   0   0   0   0   0 
  0   0   0   0   0   0   0   0   0   0
  0 
  0   0   0   0   0   0   0   0   0   0   0   0   0   0   0   0   0 
  0   0   0   0   0   0   0   0   0   0   0   0   0   0   0   0   0   8 
  8   0   0   0   0   0   0   0   0   0   0   0   8   0   8   0   0 
  0   0   8   8   0   0   0   0   0   0   8   0   0   0   8   0   8   8 
  0   0   0   0   8  16   0   0  16  41  82 132 165 165 156 156 156 
156 165 156 165 156 148 173 198 198 189 181 165 148 132 123 132 132 132 
123 123 123 123 115 123 140 148 148 148 156 148 140 140 132 123 148 
156 123 115 107  90  90 107 123 140 132 123 140 156 148 140 156 165 165 
165 165 156 132 123 140 140 132 140 140 140 156 165 165 165 156 140 
148 140 132 123 123 132 132 123 132 123 107 123 132 123  99  49  24   8 
  8   0   8   0   0   8   8   8   0   8   0   0   0   0   0   8   8 
  0   0   0   0   8   0   0   0   0   8   0   0   0   0   0   0   0   0 
  8   0   0   0   8   0   0   0   0   0   0   0   8   0   0   0   0 
  0   0   0   0   0   0   0   0   0   0   0   0   0   0   0   0   0   0 
  0   0   0   0   0   0   0   0   0   0
  0 
  0   0   0   0   0   0   0   0   0   0   0   0   0   0   0   0   0 
  0   0   0   0   0   0   0   0   0   8   8   0   0   0   0   0   8   0 
  0   0   0   0   0   0   0   0   0   0   0   0   0   0   0   8   0 
  0   0   0   0   0   0   0   0   8   8   8   0   0   0   0   8   0   0 
  0   0   0   8   8   0   0  24  57 115 148 148 140 132 165 181 165 
148 123 107  99  99 107 123 148 189 206 222 231 206 214 222 206 181 156 
156 156 140 140 140 140 140 156 173 173 165 165 181 173 156 156 148 
132 107  99 107  90  82  99 123 148 165 148 156 181 165 148 156 165 148 
132 132 140 156 148 148 165 173 165 165 156 165 173 165 132  99  90 
 74  66  66  74  66  66  82  99 132 156 156 132 115 123 132 140 107  33 
  8   0   0   0   0   8   8   0   0   0   0   0   0   0   0   0   0 
  0   8   0   0   0   8   0   0   8   8   0   0   0   8   8   8   0   0 
  0   0   0   0   0   8   0   0   0   0   0   0   0   0   8   8   0 
  0   0   0   0   0   0   0   0   0   0   0   0   0   0   0   0   0   0 
  0   0   0   0   0   0   0   0   0   0
  0 
  0   0   0   0   0   0   0   0   0   0   0   0   0   0   0   0   0 
  0   0   0   0   0   0   0   0   8   0   0   0   8   8   0   0   0   0 
  0   0   0   0   0   0   0   8   8   0   0   0   0   0   0   8   8 
  0   0   8   0   0   0   0   8  16   8   8   0   0   0   0   0   8   8 
  0   8   0   8   0   8  41  90 140 156 148 140 165 181 165 115  82 
 66  66  66  74  66  57  66  57  66  90  99 123 181 222 231 222 214 206 
198 189 181 132 123 132 140 156 165 173 173 189 189 181 165 140 132 
132 123 107  99  99 107  99 107 123 132 140 165 189 181 148 156 173 148 
148 156 148 123 123 165 173 156 165 181 189 156 132  82  57  66  57 
 57  74  90  82  90  99  82  74  57  49  90 140 148 132 107 115 156 148 
 74  24   8   0   0   0   0   0   0   0   0   0   0   0   8   0   0 
  0   0   0   0   0   0   8   0   0   0   0   0   0   0   0   8   8   8 
  0   0   0   0   0   0   0   0   0   0   0   0   0   0   0   0   0 
  0   0   0   0   0   0   0   0   0   0   0   0   0   0   0   0   0   0 
  0   0   0   0   0   0   0   0   0   0
  0 
  0   0   0   0   0   0   0   0   0   0   0   0   0   0   0   0   0 
  0   0   0   0   0   0   0   0   8   8   0   8   0   0   0   0   8   8 
  0   0   0   0   0   0   8   0   8   0   0   0   0   0   0   0   0 
  0   0   0   0   0   0   0   0   0   0   0   0   8   0   0   8   0   8 
  0   0   0   0  16  41 123 173 165 132 132 156 156 123  57  74  90 
115 115  99 107 115  90  82  82  66  49  57  66 107 165 198 214 239 239 
222 189 181 165 156 148 107 123 165 165 181 173 156 140 107  90  74 
 57  66  57  66  66  49  49  66  74  82  82 115 148 156 156 165 165 156 
140 140 123 115 140 148 173 231 255 239 198  99  41  57  74  74  82 
 82  99 107 107 140 132 123 140 123 107  82  82 107 140 140 123  99 123 
156 115  33  24   8   0   0   8   0   8   0   8   8   0   0   0   0 
  0   0   0   0   8   0   0   0   0   0   8   0   0   0   0   0   0   0 
  0   0   0   0   0   0   0   0   0   0   0   0   0   0   8   0   0 
  0   8   0   0   0   0   0   0   0   0   0   0   0   0   0   0   0   0 
  0   0   0   0   0   0   0   0   0   0
  0 
  0   0   0   0   0   0   0   0   0   0   0   0   0   0   0   0   0 
  0   0   0   0   0   0   0   0   0   0   0   0   0   0   0   0   0   0 
  0   8   0   0   8   0   8   8   0   0   0   0   0   8   0   0   0 
  0   8   0   0   0   8   0   0   0   8   8   8   0   0   8   0   0   0 
  0   0   0  16  57 148 181 148 132 140 165 156 107  74  82  90 107 
123 140 123 115 132 132 132 140 132 107  90  82  41  49 132 255 255 255 
255 231 165 132 123 107  90 132 165 140 107 107  99  90  66  49  41 
 24  24  24  16  16  16  33  49  49  57  74  90 115 123 132 156 165 132 
 99  74  99 140 148 181 239 255 255 255 181  57  57  74  99 115 115 
107 107 115 115 107 107 123 132 132 123 107  90  74 123 156 148 132 115 
107 140 148  57  16   8   0  16   8   8   0   0   0   0   0   0   0 
  0   0   8   0   0   0   0   0   0   0   8   8   0   0   0   0   0   8 
  8   0   0   0   8   0   0   0   8   0   0   8   0   0   0   0   0 
  8   0   0   0   0   0   0   0   0   0   0   0   0   0   0   0   0   0 
  0   0   0   0   0   0   0   0   0   0
  0 
  0   0   0   0   0   0   0   0   0   0   0   0   0   0   0   0   0 
  0   0   0   0   0   0   0   0   0   0   0   0   0   0   0   0   0   0 
  8   8   0   0   0   0   8   0   0   0   0   0   8   0   0   0   0 
  0   0   0   8   0   8   0   0   8   0   8   8   0   0   8   8   0   0 
  0   8  24  74 148 165 123 123 148 189 189 107  57  82  90 115 132 
123 123 123 107 107 115 115 115 115 115 107  90  82  66 132 255 255 255 
255 239 206 148 148 148 115  99 107 107  90  74  74  66  57  49  24 
 16  41  41  41  33  16  24  24  16  41  49  66  99 115 115 123 115 115 
 90  74 132 165 181 231 239 255 255 222 107  49  82 107 123  99 107 
107  99  99  82  74  90  99 115 115 123 132 132 107  74 107 148 148 115 
123 107 132 165  74  16   8   0   0   0   8   0   0   0   0   8   8 
  8   0   0   8   8   0   0   0   0   0   0   0   0   0   0   0   0   8 
  0   8   8   0   0   0   0   0   8   0   0   0   0   0   0   0   0 
  0   0   0   0   0   0   0   0   0   0   0   0   0   0   0   0   0   0 
  0   0   0   0   0   0   0   0   0   0
  0 
  0   0   0   0   0   0   0   0   0   0   0   0   0   0   0   0   0 
  0   0   0   0   0   0   0   0   0   0   0   0   0   0   0   0   8   0 
  0   0   0   0   0   8   0   8   8   0   8   0   0   0   0   0   0 
  0   0   0   0   0   0   0   8   8   0   0   0   0   0   0   0   8   8 
  8  16  90 165 165 132 140 165 189 156  99  57  82 123 140 132 132 
123 115 107  99 107 107 107 115 107 107 132 123  99  90  99 181 255 255 
255 255 189 115 123 132 132 115  74  74  82  57  41  33  49  57  49 
 49  41  41  33  24  33  33  16   8   0  33  33  49  99 115  99  90 107 
 99 107 123 140 198 239 255 255 214 156  66  90 107  99  90  82  82 
 82  82  82  74  74  90  99  99  99 107 123 123 115 107  82  66 140 156 
132 132 107 123 165  82  24   8   8   0   8   0   0   8   0   0   0 
  0   0   0   0   0   8   0   8   8   8   0   8   0   0   0   0   8   8 
  0   8   8   0   0   0   0   0   0   0   0   8   8   0   0   0   0 
  0   0   0   0   0   0   0   0   0   0   0   0   0   0   0   0   0   0 
  0   0   0   0   0   0   0   0   0   0
  0 
  0   0   0   0   0   0   0   0   0   0   0   0   0   0   0   0   0 
  0   0   0   0   0   0   0   0   0   0   0   0   0   8   0   0   0   0 
  0   0   0   8   0   0   8   8   0   0   8   0   0   0   0   8   0 
  0   0   0   0   8   0   0   8   8   0   0   0   0   0   0   8   8  16 
 24  90 165 148 123 132 156 173 140  74  57  99 132 148 148 123 107 
107  99  90  90  82  90  90  82  90  90 107 123  99  82  90 132 206 255 
231 181 132  99  82  99 132 107  82  90  66  33  33  24  24  41  41 
 33  24  49  41  33  41  24   8   0   0   8  16  16  57  82  82  82  82 
 99  99  82 107 181 231 239 231 181  82  74 115 115  99  82  74  74 
 74  66  57  57  74  74  66  82  90  90  99 115 123 123 132  99  41  99 
123 115 132 107 123 156  74  16   8   8   0   0   0   0   0   0   0 
  0   0   8   0   0   0   0   0   8   8   0   0   0   8   8   8   0   8 
  8   0   0   0   0   8   8   0   0   0   8   8   0   0   0   0   8 
  0   0   0   0   0   0   0   0   0   0   0   0   0   0   0   0   0   0 
  0   0   0   0   0   0   0   0   0   0
  0 
  0   0   0   0   0   0   0   0   0   0   0   0   0   0   0   0   0 
  0   0   0   0   0   0   0   0   0   0   8   8   0   0   0   0   0   8 
  0   0   0   0   0   0   0   0   0   0   0   0   0   8   0   0   0 
  0   0   0   0   0   0   0   0   0   0   8   8   8   0   0   0   8  24 
 82 165 156 132 132 148 156 115  66  66 132 140 132 123 107  90  90 
 99  90  82  82  74  74  82  82  74  90  90 107 123 115 132 123 156 206 
198 173 140  90  99 123 107  90  74  66  49  16  24  33  33  41  41 
 24  24  33  24  16  16  24  16  16   8   0   8  16  33  49  57  74  90 
 90  74  66 107 132 173 231 189 115  82  99  99  90  66  74  66  57 
 66  49  49  57  49  57  66  74  90  82  99 115 115 132 115 107 123  74 
 74  90 115 132 123 123 148  66  16  16   8   0   0   0   8   0   8 
  8   0   8   8   8   8   0   0   0   0   0   8   0   0   8   8   8   8 
  8   0   0   0   0   0   0   0   8   0   0   0   8   0   0   0   0 
  0   8   0   0   0   0   0   0   0   0   0   0   0   0   0   0   0   0 
  0   0   0   0   0   0   0   0   0   0
  0 
  0   0   0   0   0   0   0   0   0   0   0   0   0   0   0   0   0 
  0   0   0   0   0   0   0   0   0   0   0   0   0   8   8   0   0   0 
  0   0   0   8   0   0   8   0   0   0   0   0   0   0   0   0   0 
  0   0   0   0   0   0   8   8   0   0   0   0   0   8   8   8  24  74 
156 156 132 123 165 173  66  33  66  99 107 123 123 123 115 107  99 
 90  82  82  74  74  74  74  74  74  82  74  99 115 107 123 123 123 165 
165 148 148 132 156 148  82  66  66  49  33  24   8  16  41  33  33 
 24  33  24  33  41  33  24  16  16   8   8   8   8  16  16  33  57  82 
 74  74 115 156 148 181 189 165 107  90 123 107  82  74  74  74  66 
 57  49  49  57  57  57  74  74  66  74  90 115 107 107  99 115 140 107 
 66  74  82 132 123 132 123 123  49   8  16   0   8   0   0   0   8 
  0   0   0   0   0   0   0   8   0   0   0   0   8   8   8   0   0   0 
  0   8   0   0   0   0   0   0   0   8   8   8   0   0   8   0   0 
  8   0   0   0   0   0   0   0   0   0   0   0   0   0   0   0   0   0 
  0   0   0   0   0   0   0   0   0   0
  0 
  0   0   0   0   0   0   0   0   0   0   0   0   0   0   0   0   0 
  0   0   0   0   0   0   0   0   0   0   0   0   0   0   0   0   8   0 
  0   0   8   0   0   0   0   8   0   0   0   0   0   0   0   0   0 
  0   0   0   0   8   8   8   0   8   8   0   8   0   8   8  24  57 140 
132 123 132 148 156  82  33  74 115 123 132 132 132 140 115 107 107 
 90  82  82  74  74  74  74  66  74  90  90  99 115 107 107 107 115 181 
206 206 181 198 181 140  82  66  66  33  16  16  16  24  41  33  41 
 16  33  24  24  24   8   8  16   0   0   8   0   8   8   8  24  41  66 
 74 107 148 148 181 206 198 156  99  99 107  82  74  66  57  49  49 
 49  49  41  49  41  49  57  66  74  99 107 107 115 115 115 115 107  99 
 74  57  49 107 140 132 123 123 107  33   8   8   8   8   0  16   0 
  0   0   0   8   0   0   0   0   0   0   8   0   0   0   8   0   0   0 
  0   8   0   8   8   8   0   0   0   0   0   0   0   0   8   0   0 
  0   0   0   0   0   0   0   0   0   0   0   0   0   0   0   0   0   0 
  0   0   0   0   0   0   0   0   0   0
  0 
  0   0   0   0   0   0   0   0   0   0   0   0   0   0   0   0   0 
  0   0   0   0   0   0   0   0   0   0   0   0   0   8   0   0   0   0 
  0   8   0   0   0   0   0   0   0   0   0   0   0   0   0   8   8 
  0   0   0   0   0   0   0   8   8   0   0   8   8  16  24  49 140 123 
115 123 148 156 107  90  82 132 132 132 115 115 115 107 123 115  90 
 90  82  74  66  74  82  74  74  74  82  82  82 107 107 107 115 132 214 
231 189 181 198 189 156  99  57  49  24  16  16  33  33  41  41  24 
 24  33   8   8  16   8   8   0   0   0   8   0   0   0   8  16  33  66 
 66  99 140 148 148 165 189 148  90  82  99  90  74  66  57  49  49 
 57  57  49  49  49  49  66  66  74  74  99 107 115 140 156 156 156  99 
 90  66  57  49 115 132 123 107 115  99  24   8   8   8   8   0   0 
  0   0   8   8   0   0   0   0   0   0   0   0   0   0   0   0   8   0 
  0   0   0   0   0   0   0   8   0   0   0   0   0   0   0   0   0 
  0   0   0   0   0   0   0   0   0   0   0   0   0   0   0   0   0   0 
  0   0   0   0   0   0   0   0   0   0
  0 
  0   0   0   0   0   0   0   0   0   0   0   0   0   0   0   0   0 
  0   0   0   0   0   0   0   0   0   0   0   8   0   0   8   0   0   8 
  0   0   8   8   0   8   0   0   8   8   0   8   8   8   8   8   0 
  0   0   0   0   0   0   0   8   0   0   0   0   8   8  49 115 107 115 
115 140 165  90  82  99 132  99  82  74  99  99 107 132 115  90  90 
 82  74  74  74  74  66  74  66  66  82  82  82 107  99  90  82 140 222 
239 247 231 189 206 189  82  41  24  16   0   8  33  24  33  33  41 
 66  33   8   8  16   8   0   0   0   0   8   8   0   0   8  24  41  66 
 74 148 181 156 148 181 198 132  74  66  90  74  66  66  49  57  57 
 41  41  41  57  49  49  57  49  66  82  90  99 107 115 132 123 132 115 
115 115  82  49  90 181 123 140 115 115  74  24  16   0   0   0   8 
  0   0   0   8   8   8   8   8   0   8   0   8  16   0   0   0   8   0 
  0   0   0   0   8   0   0   0   0   0   0   0   0   0   8   8   0 
  0   0   0   0   0   0   0   0   0   0   0   0   0   0   0   0   0   0 
  0   0   0   0   0   0   0   0   0   0
  0 
  0   0   0   0   0   0   0   0   0   0   0   0   0   0   0   0   0 
  0   0   0   0   0   0   0   0   0   0   0   0   8   8   0   0   8   8 
  0   0   0   0   0   0   0   0   0   0   0   0   0   8   8   0   0 
  0   0   0   8   0   0   8   8   8   8   0   8  16  49  99 107 107  99 
123 181  99  74 107 115  49  41  49  66  99 107 123 115  99  90  74 
 74  82  82  74  66  74  74  74  74  74  90  90 107  99  66  74 148 231 
255 255 239 206 189 132  57  33  24  24   8  16  16  24  33  24  41 
 99  57  33   8   0   8   8  24  24  16   8   8   8   8   8  16  24  41 
 49 123 189 206 206 189 198 156  74  49  66  74  82  74  66  57  49 
 57  49  57  66  57  66  74  66  66  74  90  99 107 132 140 132  99  82 
 74  82 115 115  99 132 156 115 115  82  99  49  16  16   8  16   8 
  0   0   0   0   8   8   0   0   0   0   0   0   0   0   0   0   0   0 
  0   0   0   0   0   0   0   0   0   0   0   0   0   0   0   0   8 
  0   0   0   0   0   0   0   0   0   0   0   0   0   0   0   0   0   0 
  0   0   0   0   0   0   0   0   0   0
  0 
  0   0   0   0   0   0   0   0   0   0   0   0   0   0   0   0   0 
  0   0   0   0   0   0   0   0   0   0   0   0   0   0   0   0   0   0 
  0   0   0   0   0   8   0   0   0   8   8   0   8   0   0   0   0 
  0   0   0   0   0   8   0   0   8   8   8   8  49  82  99  90 107  99 
156 115  57  99  82  24   0   0  24  74 107 123 123 115 107  82  74 
 66  74  82  74  66  74  66  74  74  74  90  90  90  82  57  82 156 231 
255 255 247 222 173 140 115  82  74  66  24   8  16   8  33  41  49 
 99  90  57  24  16  24  24  49  41  41  41  33   8   8   8  16  16  41 
 49  90 173 206 222 239 214 140  90  57  66  57  66  82  74  66  57 
 49  49  49  66  66  66  74  66  74  66  66  82  99 148 148 132 123  57 
 24  33  41 115 107  99 140 140 132 115  74  82  41  16   8   8   8 
  8  16   0   0   8   0   8   0   0   0   8   8   0   0   0   0   0   0 
  8   0   8   0   0   0   8   8   0   8   8   8   0   0   0   8   0 
  0   8   0   0   0   0   0   0   0   0   0   0   0   0   0   0   0   0 
  0   0   0   0   0   0   0   0   0   0
  0 
  0   0   0   0   0   0   0   0   0   0   0   0   0   0   0   0   0 
  0   0   0   0   0   0   0   0   0   0   0   8   8   0   0   0   0   8 
  0   0   0   0   0   0   0   0   0   0   0   0   0   0   0   0   0 
  0   0   0   0   0   0   0   0   0   0   8  49 107 107 115 156 115 132 
140  74 107  66  16   8  41  41  41  74 115 132 123 115  90  74  74 
 66  82  82  66  74  74  66  82  82  82  90  82  90  90  57  82 165 255 
255 255 247 214 156 132  90  57  49  57  33  33  24  16  33  33  33 
 74  90  57  74  90  82  49  41  49  49  57  49  41  16  24  33   8  24 
 41  82 165 206 239 255 222 165  99  57  74  57  66  82  57  66  57 
 57  57  49  57  49  41  66  57  57  57  66  82  99 148 123  99 123  66 
 16   0   8  41 107  90  99 140 115 123  82  74  66  33   8   8   0 
  8   8   8   8   0   8   0   0   0   0   0   8   8   8   0   0   8   0 
  8   0   0   0   0   0   0   0   0   0   0   8   8   0   8   8   8 
  0   0   0   0   0   0   0   0   0   0   0   0   0   0   0   0   0   0 
  0   0   0   0   0   0   0   0   0   0
  0 
  0   0   0   0   0   0   0   0   0   0   0   0   0   0   0   0   0 
  0   0   0   0   0   0   0   0   0   8   8   0   0   0   0   0   8   0 
  0   0   0   8   8   8   0   0   0   0   0   0   0   0   0   0   0 
  0   8   0   0   8   8   0   0   8   8  41 107 107 107 156 132 107 165 
107  82  90  16  24  41  82  49  33  74 132 132 115 107 107  82  66 
 66  66  74  82  74  66  66  82  74  57  66  74  74  66  90 123 181 255 
255 255 231 214 156 140  90  90  66  33  33  82  74  33  33  41  41 
 74 115  66  57  66  49  33  57  49  49  57  41  49  33  16   8  16  33 
 49  82 156 198 255 255 247 198 132  66  66  41  49  66  66  74  57 
 57  57  57  66  66  57  57  57  49  41  66  82  99 140 148 132 107  66 
 41  41  49   8  33  82  82 148 123  99 115  90  82  57  33   8   8 
  0   8   0   8   8   8   8   8   8   0   8   0   0   8   0   0   0   8 
  0   0   0   0   0   8   0   0   0   0  16   0   0   8   0   8   0 
  0   0   0   0   0   0   0   0   0   0   0   0   0   0   0   0   0   0 
  0   0   0   0   0   0   0   0   0   0
  0 
  0   0   0   0   0   0   0   0   0   0   0   0   0   0   0   0   0 
  0   0   0   0   0   0   0   0   0   8   0   0   8   0   0   0   0   0 
  0   8   0   0   0   0   0   8   0   0   8   8   8   8   0   0   0 
  0   0   0   0   0   8   8   8   8  41 107 115  90 156 156 107 132 115 
 66  66  41  16  16  49  90  66  57  90 132 148 132 140 123  82  66 
 57  66  82  82  74  66  66  66  57  74  82  82  90 107 107 132 231 255 
255 255 255 231 156 132  99  99  90  66  49  90 107  49  41  66  66 
 74  99  90  66  49  74  90  66  82  66  57  49  74  74  33  33  33  33 
 57  99 148 181 247 255 255 189 156 107  57  57  57  49  41  57  66 
 57  57  57  66  57  41  49  57  57  49  66  99 123 140 148 140 132  90 
 41  49  66  33   8  49  74  99 156 107 123 123  74  66  66  33  16 
  8   8   0   0   8   8   0   8   0   0   0   8   8   0   0   0   0   0 
  0   8   0   8   0   0   0   8   8   0   8   0   0  16   8   8   0 
  0   0   0   0   0   0   0   0   0   0   0   0   0   0   0   0   0   0 
  0   0   0   0   0   0   0   0   0   0
  0 
  0   0   0   0   0   0   0   0   0   0   0   0   0   0   0   0   0 
  0   0   0   0   0   0   0   0   0   0   0   0   0   0   0   0   0   8 
  0   0   0   0   8   0   0   0   8   0   0   0   0   0   0   0   8 
  8   0   0   0   0   0   8   8  24  99 115  74 148 165 107 123 123 115 
 82  41  16  16  33  66  90  66  49 115 148 148 132 115 115  99  74 
 57  49  74  74  57  57  66  74  66  74  74  74  99 115 132 181 255 255 
255 255 255 222 156 132  90  74  74  66  82  99 107  74  74  99  82 
 99 107  74  41  33  74 132 140  82  16  49  57  74  90  33  16  33  33 
 57 115 181 206 255 255 255 222 173 156 115  66  49  66  57  57  49 
 41  66  57  49  49  49  49  41  33  33  57  99 123 132 140 148 156  82 
 24  57 107  74  16  24  74  74 132 132  90 132 115  82  90  57  24 
  0   0   0   0   0   0   0   0   0   0   0   8   8   0   8   0   0   0 
  0   0   0   0   0   0   0   8   0   0   0   0   0   0   0   0   0 
  0   0   0   0   0   0   0   0   0   0   0   0   0   0   0   0   0   0 
  0   0   0   0   0   0   0   0   0   0
  0 
  0   0   0   0   0   0   0   0   0   0   0   0   0   0   0   0   0 
  0   0   0   0   0   0   0   0   0   0   0   0   0   0   0   0   0   0 
  0   0   0   0   0   0   0   0   0   0   0   0   0   0   0   0   0 
  0   0   0   8   0   0   0  24  99 115  82 123 165 123 107 115 123 165 
107  41  41  24  16  57  82  41  41  99 123 123 123 107  74  66  66 
 57  49  66  74  66  66  66  66  66  82 107 123 132 140 140 189 255 255 
255 255 255 222 165 107  66  66  41  41  33  49  74  99 107  99  99 
 99  82  57  49  33  41  82 123 132  82  99 123  99  99  49   8  41  57 
 57 123 181 222 255 255 255 255 148 173 181  99  57  57  66  57  49 
 49  49  49  57  57  57  57  49  41  41  66  66  99 156 123 123 148 107 
 41  57  90  66  24  24  57  90 107 123 107 132 132  99  74  90  49 
 16   8   0   8   0   8   0   0   0   8   0   0   0   0   8   0   0   0 
  0   0   0   8   8   0   0   0   0   0   0   0   0   0   0   0   0 
  0   0   0   0   0   0   0   0   0   0   0   0   0   0   0   0   0   0 
  0   0   0   0   0   0   0   0   0   0
  0 
  0   0   0   0   0   0   0   0   0   0   0   0   0   0   0   0   0 
  0   0   0   0   0   0   0   0   8   0   0   0   0   0   0   0   8   0 
  0   0   0   0   0   0   8   8   0   0   8   0   8   0   8   8   0 
 16   0   8   0   0   8  33  99 115  82 132 165 123 115  99 107 165 198 
 90  74  33   8  24  74  74  41  41 115 165 123 107 132  90  49  66 
 66  57  74  74  66  82  74  74  90  99 123 132 140 181 189 222 255 255 
255 255 255 231 156 107  57  41  33  16  41  90 115 123 115 107  99 
107 107  74  33  24  33  57  90 132 107 107 165 165 115  82  57  41  24 
 41 107 148 132 247 255 255 255 148 115 189 198 140  99  66  74  57 
 66  57  49  57  57  57  49  49  41  41  49  74 115 156 148 140 123  90 
 41  57  66  16   8   8  24  82 156 132 123  82 132 140  66  66  90 
 41   8   8   0   0   0   0   8   0   8   0   8   0   0   0   0   8   0 
  0   0   0   8   8   8   0   0   0   8   0   8   0   0   0   0   0 
  0   8   0   0   0   0   0   0   0   0   0   0   0   0   0   0   0   0 
  0   0   0   0   0   0   0   0   0   0
  0 
  0   0   0   0   0   0   0   0   0   0   0   0   0   0   0   0   0 
  0   0   0   0   0   0   0   0   0   8   0   0   0   0   0   0   8   0 
  0   0   0   0   8  16   8   8   0   0   0   8   8   0   8   0   0 
  0   8   8   8   0  16  82 132  90 123 165 123 107 132 115 140 214 189 
 99  99  57  49  24  41  57  49  41  99 140 132 107 132 123  74  57 
 74 115 132 107  99 115  99 107 132 140 156 165 189 189 189 247 255 255 
255 255 222 181 148 115  66  49  33  49  57  90 123 123 123 107  90 
132 148 115  74  49  74 107 107 140 132  82 115 123  99  74  41   8  33 
 49 115 206 189 231 247 255 255 247 173 198 231 231 198 148  99  74 
 74  66  74  82  74  74  74  74  90  90  82  82  90 140 132 115 123  66 
 24  24  41  24   8  16  33  57 165 173 132 115 107 148 115  74  90 
 82  16   8   8   0   0   8   0   8   8   0   0   0   0   0   0   8   0 
  8   0   0   8   0   0   0   8   8   0   0   0   0   0   0   0   0 
  8   0   0   0   0   0   0   0   0   0   0   0   0   0   0   0   0   0 
  0   0   0   0   0   0   0   0   0   0
  0 
  0   0   0   0   0   0   0   0   0   0   0   0   0   0   0   0   0 
  0   0   0   0   0   0   0   0   8   8   0   0   0   0   0   0   0   0 
  0   0   0   0   0   0   0   0   0   0   0   0   0   0   0   0   0 
  0   0   8   8  24  82 140 115 123 148 156 132 132  99 132 173 255 156 
115 132  66  74  41  16  41  49  33 107 156 148 132 140  99  90 140 
189 206 148 115 115 132 156 173 198 214 214 222 214 181 198 255 255 255 
255 222 173 156 148  99  57  41  41  57  74 107 115 132 123  99  90 
123 148 132 107  82  82 123 140 123 115 115  90  90 132 115  57  16  49 
 41  90 181 198 247 222 239 255 255 206 206 239 255 247 231 181 123 
132 132 115  99  99 123 156 189 222 255 198 132 148 173 156 132 132  49 
  0   8  33  16  33  24  57  74 173 198 132 123 107 132 148  99  57 
 82  66  16   8   8   8   8   8   8   0   8   8   0   0   8   0   0   0 
  8   0   8   0   0   0   0   0   8   0   0   0   0   8   8   0   8 
  0   8   0   0   0   0   0   0   0   0   0   0   0   0   0   0   0   0 
  0   0   0   0   0   0   0   0   0   0
  0 
  0   0   0   0   0   0   0   0   0   0   0   0   0   0   0   0   0 
  0   0   0   0   0   0   0   0   0   8   8   8   0   0   0   0   0   0 
  8   0   0   0   0   0   0   0   0   0   8   0   0   0   0   0   0 
  0   0   0   8  41 123 123 115 123 165 165 165 115 123 181 214 181 115 
148 140 107  90  49  33  16  16  24  74 156 165 132 132 132 181 247 
255 255 222 189 181 214 222 231 255 255 247 231 214 222 255 255 255 255 
239 222 255 214 156 107  49  33  49  57  82 107  99 115 132  99  82 
107 148 140  82  74 115 140 132 115  90  82  99  90  90  99  82  41  49 
 49  99 173 189 255 255 206 255 255 222 198 231 247 247 247 255 255 
247 231 206 198 198 222 255 255 255 255 231 206 231 156 140 115 132  74 
 24  16   8  24  41  49  90  99 148 255 206  99 107  99 140 132  82 
 57  99  33   8   0   8   8   8   0  16   8  16   8   8   0   0   0   8 
  8   8   8   0   0   0   8   0   0   0   8   0   8   0   0   8   0 
  0   0   0   0   0   0   0   0   0   0   0   0   0   0   0   0   0   0 
  0   0   0   0   0   0   0   0   0   0
  0 
  0   0   0   0   0   0   0   0   0   0   0   0   0   0   0   0   0 
  0   0   0   0   0   0   0   0   0   0   0   8   0   0   0   0   0   0 
  0   0   8   0   0   0   0   0   0   8   8   0   0   0   0   0   8 
  0   8   8  33 107 140 115  99 156 173 148  99  82 173 231 222 148 132 
189 165 140 132  90  57  24  16  16  49 123 148 140 132 173 214 247 
255 255 255 255 255 255 255 255 247 231 239 214 198 206 247 255 255 255 
231 255 255 198 148  90  41  57  74  82  82  99  90  74  90  99  82 
107 123 140  82  49  90 140 148 132 107  82  57  41  57  82  82  82  74 
 57 107 165 198 255 255 255 231 255 247 189 206 222 222 222 222 255 
255 255 255 255 255 255 255 255 255 255 247 231 222 123  90  99 115  49 
 24  33  33  24  57  90 123  90 107 239 255 156  99 115 123 148 132 
 90  90  99  24   8   0   8   8   8   0   8   0   0   0   0   0   8   0 
  0   8   8   0   0   0   0   0   0   0   0   0   8   8   0   0   0 
  0   0   0   0   0   0   0   0   0   0   0   0   0   0   0   0   0   0 
  0   0   0   0   0   0   0   0   0   0
  0 
  0   0   0   0   0   0   0   0   0   0   0   0   0   0   0   0   0 
  0   0   0   0   0   0   0   0   0   0   0   0   0   8   8   8   0   0 
  0   0   0   8   8   8   8   0   0   0   0   0   0   0   0   0   0 
  0   8  16  74 148 115  99 132 173 156 123  74 132 255 255 206  99 148 
173 165 148 132 115  99  57  16   8  41 107 165 148 132 231 231 247 
255 255 255 255 255 255 255 255 255 231 222 206 214 231 255 255 255 255 
222 255 255 189 132  99  66  49  74 115 132 115  99  82  82  74  74 
115 140 148  90  57  99 165 156 156  90  33  49  49  57  74  82  99  90 
 66 115 156 181 255 255 255 239 255 255 222 189 198 214 231 231 239 
255 255 255 255 255 255 255 255 255 255 255 247 222 132  74  90  82  41 
 16  41  41  66  90 123 140  66  74 181 255 255 132  99 115 148 132 
 90  66 115  74  24   8   0   0   0   0   8   0   0   8   0   0   8   0 
  8   8   0   0   0   0   0   0   0   0   0   0   0   0   0   0   0 
  0   8   0   0   0   0   0   0   0   0   0   0   0   0   0   0   0   0 
  0   0   0   0   0   0   0   0   0   0
  0 
  0   0   0   0   0   0   0   0   0   0   0   0   0   0   0   0   0 
  0   0   0   0   0   0   0   0   0   8   0   0   8   0   0   0   0   0 
  0   0   0   0   0   0   0   0   0   8   8   0   0   0   0   0   0 
  0   8  41 132 140 107 107 140 165 140  90  82 206 255 255 132 140 173 
173 181 173 148 132 115  82  24   8  33  90 107  99 181 255 255 255 
255 255 255 255 255 255 255 255 255 247 239 214 222 239 255 255 255 255 
231 255 255 165 140 107  74  49  66 107 123  99  82  82  74  57  66 
115 132 132  99  57  90 156 148 132  74  33  66  82  74  82  74  90  99 
 74 115 165 173 255 255 255 247 255 255 247 198 198 214 239 239 239 
255 255 255 255 255 255 255 255 255 255 247 255 239 156 115  74  33  24 
 16  41  66  99 115 148 156 107  82 123 247 255 231 123  99  99 156 
132  99  74 115  41   8   0   0   8   0   0   0   8   8   0   0   8   0 
  0   8   0   0   0   0   8   8   0   0   0   0   0   0   0   0   8 
  0   0   0   0   0   0   0   0   0   0   0   0   0   0   0   0   0   0 
  0   0   0   0   0   0   0   0   0   0
  0 
  0   0   0   0   0   0   0   0   0   0   0   0   0   0   0   0   0 
  0   0   0   0   0   0   0   0   8  16   8   8   0   0   8   8   0   0 
  0   0   0   0   0   0   0   0   0   0   0   8   8   0   0   0   0 
  0  33  99 156 132 115  99 123 107  99  49 115 255 255 206 115 173 189 
189 189 189 173 156 140 115  49  16   8  74 123 165 206 255 255 255 
255 255 255 255 255 255 255 255 255 255 239 222 239 239 247 255 255 255 
222 247 247 140 156 123  82  49  49  66  57  41  49  74  57  41  66 
132 140 140 115  82 107 148 140 148  74  41  82  90  82  99  82  90 115 
107 115 140 165 255 255 255 255 239 255 255 198 189 231 255 255 247 
255 255 255 255 255 255 255 255 255 255 255 255 231 173 156  74  33  33 
 49  99 123 140 140 148 165 140 115  66 148 255 255 189  99  82  82 
107  99 115 123 107  16   0   0   0   0   0   0   0   0   0   0   0   0 
  0   0   0   0   0   0   0   0   0   0   8   0   0   0   8   0   0 
  0   0   0   0   0   0   0   0   0   0   0   0   0   0   0   0   0   0 
  0   0   0   0   0   0   0   0   0   0
  0 
  0   0   0   0   0   0   0   0   0   0   0   0   0   0   0   0   0 
  0   0   0   0   0   0   0   0   0   0   0   8   0   0   0   8   0   8 
  0   0   0   0   0   0   0   0   0   0   8   8   0   0   8   8   0 
 16  74 148 148 140 115 107 132 107 123 140 247 255 231 123 123 173 173 
173 181 189 189 189 156 140  99  33   0  66 148 198 206 255 255 255 
255 255 255 255 255 255 255 255 255 255 247 239 247 247 255 255 255 239 
222 255 239 140 156 156 115  57  41  74  82  82  74  90  74  41  82 
148 156 156 123  90 123 156 132 140  99  66  99 107 115 123  82  82 115 
107 140 165 156 222 255 255 255 247 255 255 214 198 222 255 255 255 
255 255 255 255 255 255 255 255 255 255 255 255 231 231 165  49  33  33 
 74 115 165 156 156 165 165 173 132  99  57 198 255 247 140  99  99 
123  82 148 123 140  66   0   0   8   8   0   0   0   0   0   8   0   0 
  0   0   8   0   0   0   8   8   0   0   0   0   0   8   8   0   0 
  0   0   0   0   0   0   0   0   0   0   0   0   0   0   0   0   0   0 
  0   0   0   0   0   0   0   0   0   0
  0 
  0   0   0   0   0   0   0   0   0   0   0   0   0   0   0   0   0 
  0   0   0   0   0   0   0   0   0   0   0   8   8   0   0   0   0   0 
  0   8   0   0   0   0   0   8   0   0   0   0  16   8   8   8   0 
 33 123 148 132 156  90 107 132 132 140 231 255 255 148 123 181 173 173 
181 189 173 165 189 173 140 123  41  16  33  82 173 214 222 255 255 
255 255 255 255 255 255 255 255 255 255 247 239 247 255 255 255 255 247 
214 231 198 123 156 140  99  57  74  82  82  66  57  66  74  82 107 
165 156 148 140 107 132 165 132 132  99  74 123 140 140 156 123 115 123 
115 140 165 140 206 255 255 255 231 255 255 206 198 214 255 255 255 
239 255 255 255 255 255 255 255 255 255 239 206 222 181  66  24  16  49 
107 156 189 165 181 165 148 165 148 123  74 107 165 255 255 123  99 
115 132  90 165 132 123  24   0   0   0   8   8   0   0   0   8   8   0 
  0   0   8   0   0   0   0   8   0   0   0   0   0   0   0   8   8 
  0   0   0   0   0   0   0   0   0   0   0   0   0   0   0   0   0   0 
  0   0   0   0   0   0   0   0   0   0
  0 
  0   0   0   0   0   0   0   0   0   0   0   0   0   0   0   0   0 
  0   0   0   0   0   0   0   0   0   8   0   8   0   0   0   0   8   8 
  0   0   0   0   0   0   0   0   0   8   0   0   0   8   0   0   8 
 82 140 115 156 140  33 115 181 173 239 255 255 165  99 140 181 165 173 
189 181 107 140 173 123 132 123  57  33  33  66 140 214 198 206 255 
255 255 255 255 255 255 255 255 255 255 239 231 255 255 247 255 255 239 
214 231 189 123 156 132  82  57  82  66  90  82  66  66  74  90 107 
156 165 148 132 123 140 156 148 165 132  90 123 173 189 189 173 165 123 
115 165 181 140 181 255 255 239 198 239 239 214 198 198 255 255 255 
255 255 255 255 255 255 255 255 255 239 189 189 189  82  16  24  16  57 
115 148 148 173 181 181 181 165 156 148  90  90 132 206 255 189  49 
 57 140 115 148 156 140  90  24   0   8   8   8   8   0   0   8   8   0 
  0   8   0   0   0   0   0   8   8   8   0   0   0   0   8   0   0 
  0   0   0   0   0   0   0   0   0   0   0   0   0   0   0   0   0   0 
  0   0   0   0   0   0   0   0   0   0
  0 
  0   0   0   0   0   0   0   0   0   0   0   0   0   0   0   0   0 
  0   0   0   0   0   0   0   0   0   0   8   0   0   0   0   0   0   8 
  0   0   0   8   8   0   0   0   0   0   0   0   0   0   0   0  41 
140 132 132 189  90  49 140 198 222 255 255 198 115 115 181 173 173 173 
173 148  90 140 140  49  82  90  24  33  49  49  82 165 214 173 181 
247 255 255 255 255 255 255 255 239 214 214 231 255 255 231 222 239 214 
173 198 165 123 148 107  57  49  66  57  90  90  90  82  82 107 115 
148 165 156 140 140 140 156 165 173 148 123 132 156 181 189 173 173 132 
115 156 181 132 140 255 255 214 214 255 255 222 214 214 247 255 255 
255 255 255 255 255 255 255 255 255 206 189 198 123  57  24  33   8  49 
107 115 107 148 165 148 156 173 156 165 148  74 123 165 239 255 132 
 74 123 107  82 165 132 132  57  16   0   8   8   0   8   0   8   0   8 
  8   0   0   0   0   0   0   8   0   8   8   0   0   8   8   8   0 
  0   0   0   0   0   0   0   0   0   0   0   0   0   0   0   0   0   0 
  0   0   0   0   0   0   0   0   0   0
  0 
  0   0   0   0   0   0   0   0   0   0   0   0   0   0   0   0   0 
  0   0   0   0   0   0   0   0   0   0   0   0   0   0   0   0   0   8 
  0   0   0   8   0   0   8   0   0   0   0   0   0   0  16  16  82 
148 123 189 156  66 148 181 206 255 255 198 140  99 173 189 165 165 132 
115 115 115 140 115  74  74  49  16  41  66  74  66  82 156 189 173 
198 247 255 255 255 255 255 255 239 231 222 239 255 255 247 231 231 198 
123 156 165 123 140  82  57  49  82  74  99  82  74  74  90 115 132 
165 165 156 140 132 140 165 165 165 173 132 140 156 165 173 165 148 115 
107 148 173 165 156 239 222 165 206 231 214 206 206 206 231 255 255 
255 255 255 255 255 255 255 255 206 198 181 115  66  24  41  33  16  41 
 82 107  66  66 115 123 140 181 165 173 173  90 107 140 181 255 214 
132  99  74  66 140 123 132 115  33   8   8   8   8   8   8   8  16   0 
  0   0   0   0   0   0   0   8   0   0   0   0   0   0   0   0   0 
  8   8   0   0   0   0   0   0   0   0   0   0   0   0   0   0   0   0 
  0   0   0   0   0   0   0   0   0   0
  0 
  0   0   0   0   0   0   0   0   0   0   0   0   0   0   0   0   0 
  0   0   0   0   0   0   0   0   0   0   8   0   0   0   8   0   0   0 
  0   0   0   0   8   0   0   0   8   0   0   0   0   8   0  41 140 
132 156 173 115 148 156 181 255 255 206 181 107  82 189 165 115  66  57 
107 115 148 189 123  90  99  57  33  49  41  41  57  74  90 140 165 
198 255 255 255 255 255 255 255 255 239 222 231 255 231 206 198 198 140 
 57  99 156 123 132  90  49  57  90  82  82  82  57  57  74 115 148 
165 165 156 148 140 148 165 173 173 165 156 156 173 181 181 165 140  90 
107 148 165 156 148 231 255 198 189 222 214 214 206 198 198 239 255 
255 255 255 255 255 255 255 206 189 165  99  74  41  33  33   8  16  33 
 82 123  99  74 107 123 115 156 156 165 173  90  90 140 173 222 255 
206 132  90  66 156 198 115 132  74  16   8  16   8   0   0   0   8   0 
  0   0   0   0   0   0   0   0   0   0   0   0   0   0   0   0   0 
  0   0   0   0   0   0   0   0   0   0   0   0   0   0   0   0   0   0 
  0   0   0   0   0   0   0   0   0   0
  0 
  0   0   0   0   0   0   0   0   0   0   0   0   0   0   0   0   0 
  0   0   0   0   0   0   0   0   8   8   0   8   0   0   0   0   8   0 
  0   8   0   0   0   8   8   0   0   0   0   0   0   0   8  66 148 
115 206 181 156 148 132 247 255 198 198 156  82  99 189 132  49  90 123 
132 132 173 165 123 107 115  57  33  49  33  49  82  82  90  99 132 
181 206 231 255 255 255 255 255 231 206 206 222 231 222 222 206 140 132 
165 189 156 123 132 132  82  99 107  99  82  90  82  57  99 156 173 
181 181 156 148 132 132 165 181 189 173 148 156 181 189 181 173 165 115 
 99 132 165 148 140 231 255 198 173 189 206 214 206 198 189 247 247 
255 255 255 255 255 255 214 198 165  99  90  66  57  41  24  24  24  33 
 90 123 123 132 156 148 115 107 132 165 173 123  74  99 189 198 255 
255 181 140  99 132 231 148 132 123  33  16  16  16   0  16   8   8   0 
  8   8   0   8   0   0   0   0   8   8   0   0   0   8   0   8   8 
  0   0   0   0   0   0   0   0   0   0   0   0   0   0   0   0   0   0 
  0   0   0   0   0   0   0   0   0   0
  0 
  0   0   0   0   0   0   0   0   0   0   0   0   0   0   0   0   0 
  0   0   0   0   0   0   0   0   8   8   0   0   0   0   0   8   8   8 
  0   8   8   8   8   0   0   0   0   0   8   0   8   8  33 123 140 
165 198 123 115 123 214 255 231 189 165 107 115 140 132  82  82 115 115 
165 165 132 132 140 107  66  33  33  57  66  66  66  74 115 115 115 
132 181 198 206 222 255 247 231 239 222 214 198 239 247 222 173 107 148 
206 189 156 148 140 140 115 107 115 115 115 107  90  74 123 189 189 
181 181 173 148 132 148 173 173 181 173 156 165 173 198 206 189 189 132 
 90 115 148 140 140 198 206 156 140 165 198 206 198 189 173 222 231 
239 255 255 255 255 206 189 140  99  90  90  82  49  41  41  24  16  24 
 57 115 156 181 165 148 140  99  99 123 173 165  99  57 140 198 206 
255 255 156 173 173 222 206 132 140  74   8   8  16   0   8   8   8   8 
  8   8   8   8   0   0   0   8   0   0   0   8   8   0   0   0   0 
  0   0   0   0   0   0   0   0   0   0   0   0   0   0   0   0   0   0 
  0   0   0   0   0   0   0   0   0   0
  0 
  0   0   0   0   0   0   0   0   0   0   0   0   0   0   0   0   0 
  0   0   0   0   0   0   0   0   0   0   0   0   0   0   0   0   0   0 
  0   8   8   0   8   0   0   0   8   8   0   0   0   8  66 140  99 
165 165  90  90 148 255 255 189 198 115 132 148 140  82  49  82 132 156 
189 173 132 148 165 148 107  49  49  99 107  82  74  82 107  99  99 
 99 115 181 222 222 239 255 255 247 222 222 206 206 222 181 132 156 189 
181 181 189 165 156 140 132 132 132 132 107 107  99  82 140 181 181 
189 181 165 148 132 148 173 181 189 181 165 173 189 206 214 189 173 140 
107 123 132 123 132 173 181 173 165 181 189 189 189 181 181 214 231 
255 255 255 247 214 181 132  99  90  82  90  66  49  57  41  41  41  57 
 82  99 148 165 156 181 173 107  74  74 148 181 115  74  90 189 231 
255 255 173 123 156 222 231 156 132 107  24   8   8   0   0   0   0   0 
  0   0   0   0   0   0   0   0   8   8   8   8   0   0   0   0   0 
  0   0   0   0   0   0   0   0   0   0   0   0   0   0   0   0   0   0 
  0   0   0   0   0   0   0   0   0   0
  0 
  0   0   0   0   0   0   0   0   0   0   0   0   0   0   0   0   0 
  0   0   0   0   0   0   0   0   8   0   8   8   8   0   0   0   8   0 
  8   0   0   0   0   0   0   8   0   0   0   0   0  24 107 132 140 
181 115  82 107 231 255 222 239 173  99 165 165 123  82  82 107 148 165 
173 181 165 181 181 140  90  49  57  90 115 107  90  82  99 107 107 
 90  90 123 181 214 214 222 239 247 214 206 214 181 198 165 148 206 206 
198 189 181 156 148 140 148 140 148 132 123 115  74  90 156 181 189 
198 181 156 140 132 132 165 173 173 173 156 165 189 206 214 189 181 156 
123 123 123 115 107 132 165 148 132 173 173 148 173 181 181 206 222 
255 255 222 214 181 115  90  99  82  90  82  66  66  66  66  57  49  57 
 66  99 156 165 173 189 173 132  99  82  66 123 123 115  99 156 214 
239 255 222 140 132 165 231 206 140 148  49   8   0   0   8   0   8   8 
  0   0   0   0   0   0   0   0   0   0   0   0   0   0   0   8   8 
  0   0   0   0   0   0   0   0   0   0   0   0   0   0   0   0   0   0 
  0   0   0   0   0   0   0   0   0   0
  0 
  0   0   0   0   0   0   0   0   0   0   0   0   0   0   0   0   0 
  0   0   0   0   0   0   0   0   0   0   0   0   0   0   0   0   0   0 
  0   0   0   8   8   0   8   0   0   0   0   0   0  41 132 115 165 
189 123  99 140 255 255 239 231 123  99 165 156  74  82 107 156 189 173 
181 198 189 181 156 123  74  57  66  90 107  99  90  82  82  99  99 
 90  99  90  90 148 206 222 247 247 189 173 206 181 156 148 173 206 198 
198 198 165 156 165 156 165 173 173 165 123  90 107 148 181 181 189 
189 165 140 132 115 132 165 173 181 181 148 173 206 206 214 206 198 173 
140 140 156 148 132 148 181 132 115 156 156 156 173 173 189 214 214 
222 206 181 165  99  99  82  82  82  66  82  74  57  66  57  41  41  41 
 74 107 165 165 165 173 165 165 123 107  90  57 148 148  82 107 198 
214 231 255 165 107 165 206 231 148 148  90  16   0   0   8   0   0   0 
  0   0   0   0   8   0   0   0   8   8   0   0   0   0   8   0   0 
  0   0   0   0   0   0   0   0   0   0   0   0   0   0   0   0   0   0 
  0   0   0   0   0   0   0   0   0   0
  0 
  0   0   0   0   0   0   0   0   0   0   0   0   0   0   0   0   0 
  0   0   0   0   0   0   0   0   8   0   0   8   0   0   0   0   0   0 
  0   8   8   8   8   0   8   0   0   0   0   8   8  82 140 132 206 
189  99  99 214 255 247 247 156 123 140  99  57  82  99 123 181 189 173 
181 181 189 173 140 123  74  57  82 107  99  90  99  99 107 107  90 
 90  82  74  74  74 132 165 181 206 198 156 173 181 181 173 165 173 206 
189 181 181 165 173 165 165 173 173 173 132 123 148 173 214 206 189 
181 148 148 132 115 140 156 165 189 181 173 173 181 198 206 206 206 198 
173 156 165 173 165 165 173 140 115 123 165 173 165 181 165 198 198 
173 148 132  90  82  82  82  82  74  57  66  74  66  66  57  57  57  49 
 57  99 148 173 181 165 156 173 148  99  90  66  74 140 107  74 165 
247 222 247 214 123 132 189 222 181 140 123  33  16   8   8   8   8   8 
  0   0   0   8   0   0   0   0   8   0   0   8   0   0   0   0   0 
  0   0   0   0   0   0   0   0   0   0   0   0   0   0   0   0   0   0 
  0   0   0   0   0   0   0   0   0   0
  0 
  0   0   0   0   0   0   0   0   0   0   0   0   0   0   0   0   0 
  0   0   0   0   0   0   0   0   0   0   0   0   0   0   8   0   0   0 
  0   0   0   0   0   8   0   0   8   0   0   8  33 123 132 148 198 
123  82 140 255 255 255 222 115 165 148  90  82  99 123 156 181 181 181 
189 189 189 156 115  99  82  74  99 115  90  99 107  99  90  99  90 
 82  82  99  82  82  74 107 140 156 148 132 140 165 173 181 189 189 189 
181 189 173 148 165 173 165 173 181 181 165 156 165 189 206 198 189 
165 148 156 132 107 132 156 165 181 189 181 165 181 206 206 206 198 189 
181 165 165 165 173 181 181 165 132 107 148 165 140 148 148 181 156 
132 115  74  57  66  82  90  90  82  66  49  57  49  49  57  57  66  57 
 57  90 123 165 173 181 181 173 173 123  74 115  82  90 140  82 156 
231 231 231 222 123  82 173 214 198 132 140  49   8   0   8   8   8   8 
  0   0  16   0   0   0   0   0   0   0   0   0   8   0   0   0   8 
  0   0   0   0   0   0   0   0   0   0   0   0   0   0   0   0   0   0 
  0   0   0   0   0   0   0   0   0   0
  0 
  0   0   0   0   0   0   0   0   0   0   0   0   0   0   0   0   0 
  0   0   0   0   0   0   0   0   0   8   0   0   0   0   8   0   8   8 
  8   0   0   0   0   8   8   0   8   8   8   8  66 148 123 181 189 
115 115 206 255 255 247 140 132 165 156  99  74  99 156 181 173 173 189 
181 198 181 140  99  66  66 107 156 156 115  99  90  90  99 107  99 
 90  82  90  99  82  49  74 115 140 148 123  99 148 173 148 173 181 165 
173 173 173 165 156 173 181 189 189 181 165 148 165 206 222 198 181 
181 165 148 123 123 140 148 165 181 189 189 181 173 198 198 198 198 198 
198 173 173 181 173 181 181 181 181 123 107 123 123 140 165 156 140 
132  90  57  49  74  90  82  99  90  74  66  66  74  74  82  90  82  66 
 66  90 107 156 173 173 189 173 181 156  74  66  66  82 165 148 165 
206 231 214 247 198  74 107 206 206 140 148  90  24  16   0   0   0   8 
  0   0   0   8   8   8   8   0   0   0   0   0   8   8   0   0   0 
  8   8   0   0   0   0   0   0   0   0   0   0   0   0   0   0   0   0 
  0   0   0   0   0   0   0   0   0   0
  0 
  0   0   0   0   0   0   0   0   0   0   0   0   0   0   0   0   0 
  0   0   0   0   0   0   0   0   8   8   0   0   0   0   0   0   8   0 
  0   0   0   8   8   0   0   0   0   0   8  24  99 140 123 206 156 
 82 115 247 255 239 189 107 140 132  90  90 107 123 165 189 181 189 189 
181 198 181 123  74  66  74 132 173 165 148 115  99  99  99  99 107 
123  99  90  82  57  33  57  82 107 140 132 123 148 156 140 173 173 156 
173 173 165 165 156 165 165 181 189 173 156 156 165 189 206 181 156 
156 165 165 132 123 156 165 165 173 181 189 173 173 198 198 189 198 198 
198 189 181 173 165 181 189 173 165 140 140 123 115 115 123 123 123 
 74  74  74  41  57  74  82  99  82  74  66  49  41  41  57  74  82  57 
 49  66 107 165 181 173 189 181 181 181 107  66  82  57 115 148 173 
181 231 231 231 239 132  90 173 231 165 140 132  24   8  16   8   8   0 
  0   0   0   0   0   0   0   0   0   0   0   8   8   0   0   0   0 
  0   8   0   0   0   0   0   0   0   0   0   0   0   0   0   0   0   0 
  0   0   0   0   0   0   0   0   0   0
  0 
  0   0   0   0   0   0   0   0   0   0   0   0   0   0   0   0   0 
  0   0   0   0   0   0   0   0   0   0   0   0   0   8   0   0   0   0 
  0   0   0   0   0   0   0   0   8  16   8  41 115 123 148 198 107 
 82 181 222 198 222 173 132 148 107  66  66 115 165 181 181 181 181 181 
189 181 148 115  57  49  90 132 156 156 148 123 115 140 140 140 140 
132 123  99  74  57  66  82  99  90 115 140 140 165 148 123 140 173 165 
165 173 156 156 165 165 173 181 189 189 156 123 148 189 198 173 165 
181 173 156 107 107 148 173 189 156 156 173 165 181 206 198 206 206 206 
206 198 181 173 173 181 189 173 156 156 165 132  99  82 107  99  82 
 66  99  90  66  66  82  90  90  66  66  90  66  33  74  90  82  74  57 
 49  74  99 140 165 165 181 181 181 198 132  74  57  49  90 140 132 
173 231 239 214 247 206 123 148 214 189 140 140  49  16   0   8   8   0 
  0   0   8   0   0   0   0   0   0   0   0   0   0   0   0   0   0 
  0   0   0   0   0   0   0   0   0   0   0   0   0   0   0   0   0   0 
  0   0   0   0   0   0   0   0   0   0
  0 
  0   0   0   0   0   0   0   0   0   0   0   0   0   0   0   0   0 
  0   0   0   0   0   0   0   0   8   0   0   0   0   0   0   0   0   0 
  0   8   0   8   8   0   8   0   8   0   8  57 132 107 189 132  49 
140 231 214 231 231 123 123 123  82  66 107 156 181 198 198 173 189 198 
189 165 115  90  57  66 115 156 173 165 173 165 148 132 132 132 123 
140 140 115  99  74  82  99 107  99  99 123 140 140 140 123 140 173 148 
148 165 148 140 148 148 165 189 181 165 156 140 165 189 189 173 173 
181 173 148  99  99 148 165 173 156 148 148 140 148 173 181 198 206 198 
198 198 181 173 173 173 189 173 148 165 173 132  90  82  99  74  57 
 74  99  99  99  90  90  99 107  90  66  57  57  57  57  66  82  74  66 
 49  49  90 132 156 189 181 189 173 165 181 140  82  66  66 148 140 
148 181 247 222 214 231 123 115 198 222 165 165  90   8   0   0   8   0 
  0   0   0   0   0   0   8   0   0   0   0   0   0   0   0   0   8 
  8   0   0   0   0   0   0   0   0   0   0   0   0   0   0   0   0   0 
  0   0   0   0   0   0   0   0   0   0
  0 
  0   0   0   0   0   0   0   0   0   0   0   0   0   0   0   0   0 
  0   0   0   0   0   0   0   0   0   0   0   0   0   8   8   0   0   0 
  0   0   0   0   0   0   0   0   0   0  24  90 140 123 198  99  82 
198 222 214 247 165 123 148 123  74  16  90 173 165 173 181 181 198 189 
173 140  74  57  90 132 173 198 198 189 189 140  74  49  66  66  57 
 49  66  74  66  74  90  99  99 107 107 107 132 148 140 132 123 148 148 
140 148 140 123 123 140 165 181 173 165 148 132 165 189 189 173 173 
181 165 140 115 115 148 165 173 156 123 132 148 165 181 173 189 198 189 
189 173 165 181 181 181 173 148 140 156 148 107  99  90  74  74  66 
 90 107  90  90  99  82  74  90  90  74  66  57  66  82  82  99  74  33 
 66  66  66 115 148 173 181 181 181 173 181 165 115  74  49  99 132 
140 156 231 255 222 222 148  90 140 206 165 148 115  16   8   8   0   8 
  0   0   0   8   8   0   8   8   0   0   8   0   0   0   8   0   0 
  0   0   0   0   0   0   0   0   0   0   0   0   0   0   0   0   0   0 
  0   0   0   0   0   0   0   0   0   0
  0 
  0   0   0   0   0   0   0   0   0   0   0   0   0   0   0   0   0 
  0   0   0   0   0   0   0   0   8   0   0   0   0   0   0   8   0   0 
  0   0   0   0   8   8   8   8   8   8  33 115 115 181 165  66 115 
206 206 239 239 107 140 148 107  16  41  74 115 140 148 156 189 189 156 
140  82  49  74 132 189 222 198 156 123  57  33  82  99  90  90  90 
115 123  99  82  66  90  99  99  99  99 115 132 148 140 140 140 165 148 
132 132 132 123 123 140 165 173 165 173 156 132 156 181 165 173 173 
173 156 132 115 107 132 156 165 148 132 140 148 148 173 189 198 198 189 
189 165 140 148 173 165 156 132 123 140 123 107  99  90  74  90  90 
 99  99  90  90  99  99  90  82  99  82  66  74  74  90 107  99 107  90 
 49  49  74  82 107 156 173 181 181 173 198 173 115  74  41  66 132 
165 148 189 255 222 222 198 107 115 189 189 140 132  24   8   0   0   8 
  0   8   8   0   0   8   0   8   0   0   0   0   8   8   0   0   0 
  0   0   0   0   0   0   0   0   0   0   0   0   0   0   0   0   0   0 
  0   0   0   0   0   0   0   0   0   0
  0 
  0   0   0   0   0   0   0   0   0   0   0   0   0   0   0   0   0 
  0   0   0   0   0   0   0   0   0   0   0   8   0   0  16   0   8   0 
  8   8   8   8   8   0   0   0   0  16  66 123 107 206 140  90 156 
214 214 231 181  82 148 123  57  41  74  90  99 107 140 165 181 156 107 
 49  57 107 140 173 189 132  66  41  57 107 123 123 132 148 140 132 
140 140 140 148 123 107  90  82 107 115 107 115 123 140 156 140 132 140 
132 140 123 115 140 156 173 181 173 156 140 140 165 173 165 173 173 
173 165 132 107 115 132 148 156 148 140 140 132 140 181 173 181 198 189 
173 173 165 156 156 148 123  99  99 115  99 107  99  90  57  66  90 
107 115 123 107  82  66  74  74  74  74  74  74  49  49  66  74  90 115 
 82  33  24  49  90 148 181 181 181 156 165 181 148  99  49  49 107 
165 165 156 239 231 198 206 132  99 165 214 156 156  57   8   8   0   8 
  8   0   8   0   8   0   0   8   8   8   0   8   0   0   0   0   8 
  0   0   0   0   0   0   0   0   0   0   0   0   0   0   0   0   0   0 
  0   0   0   0   0   0   0   0   0   0
  0 
  0   0   0   0   0   0   0   0   0   0   0   0   0   0   0   0   0 
  0   0   0   0   0   0   0   0   0   0   0   0   0   0   8   0   0   0 
  8   8   0   0   0   0   8   0   0   8  82 132 132 198  74  99 181 
198 206 214 156  99 156 107  33  57 132 189 189 181 173 173 165  90  33 
 41  90 107 123 123  90  49  99 123 123 132 140 165 173 165 156 148 
140 140 132 140 148 148 132 123  99  90  99 123 132 123 148 156 140 148 
140 123 115 107 115 132 165 181 173 165 132 132 156 165 173 181 173 
156 156 148 123 107 123 148 165 165 156 148 148 140 156 173 181 189 189 
181 173 156 156 156 132 123 132 148 140 123 132 123 107  99  90  90 
107  90  82 107 132 132 132 140 132 123 156 148 115 107  90  66  41  49 
 66  66  49  49  41  57 123 181 198 173 156 165 165 123  57  57 107 
140 148 148 206 239 198 214 165  82 107 189 156 165  99   8   8  16   8 
  8   0   8   8   0   0   0   8   0   0   0   0   8   0   0   0   8 
  0   0   0   0   0   0   0   0   0   0   0   0   0   0   0   0   0   0 
  0   0   0   0   0   0   0   0   0   0
  0 
  0   0   0   0   0   0   0   0   0   0   0   0   0   0   0   0   0 
  0   0   0   0   0   0   0   0   0   0   0   0   0   0   0   0   8   0 
  0   0   0   8   8   0   0   0   0  24  90 115 156 156  66 115 189 
198 222 214 140 107  99  57  49 115 181 189 173 189 181 156 123  49  24 
 24  41  33  41  57  82 115 132 107 107 148 165 181 198 189 181 165 
165 165 156 148 132 140 140 140 165 148 123 132 123 123 156 173 148 148 
140 123  99  90 115 140 156 173 165 148 148 140 140 140 156 173 165 
165 148 132 115 115 132 140 140 148 156 156 140 140 156 173 181 198 189 
181 173 165 156 148 132 132 148 156 140 115 115 132 132 132 115 115 
123 123 140 140 123 123 107 107 115 115 115 123 123 132 140 140 115  57 
 49  66  74  74  57  41  66 132 156 148 123 132 140 132  74  41  57 
123 148 115 198 247 206 206 181 107 115 198 181 165 123  16   0   0   0 
  0   8   0   0   0   0   0   8   0   8   0   0   8   8   8   0   0 
  0   0   0   0   0   0   0   0   0   0   0   0   0   0   0   0   0   0 
  0   0   0   0   0   0   0   0   0   0
  0 
  0   0   0   0   0   0   0   0   0   0   0   0   0   0   0   0   0 
  0   0   0   0   0   0   0   0   0   0   0   0   0   0   0   0   8   0 
  0   0   0   0   0   0   8   0   8  41 123 123 198 148  74 140 189 
206 214 165 107 148  99  33  66 123 165 181 173 189 181 123  49  24  33 
 16  24  66  82 107 107 107 115 140 173 173 181 198 189 189 189 181 
173 165 156 156 140 123 115 123 148 173 173 140 123 132 140 140 148 148 
123 115  99  99 132 140 156 165 156 148 132 132 148 165 173 173 156 
156 165 132 107  99 115 123 123 140 165 173 165 148 156 173 173 189 198 
189 181 165 148 123 123 148 132 123 123 123 148 148 140 140 123 123 
148 140 132 123 115 115 115 132 123 132 140 140 140 123  99 107 107 123 
107  66  82  90  66  57  41  66 123 148 173 165 123  99  90  66  66 
107 148 107 140 214 206 198 198 132  99 173 189 156 156  49   8   8   8 
  8   8   8   0   0   8   0   8   8   0   0   0   0   0   0   8   0 
  0   8   0   0   0   0   0   0   0   0   0   0   0   0   0   0   0   0 
  0   0   0   0   0   0   0   0   0   0
  0 
  0   0   0   0   0   0   0   0   0   0   0   0   0   0   0   0   0 
  0   0   0   0   0   0   0   0   0   0   8   0   8   0   0   0   0   0 
  0   0   0   8   0   0   0   0   8  49 132 132 198  82  57 156 189 
189 189 132 115 132  82  41  66 115 173 181 165 181 148  74  33  49  24 
 16  82 156 132 107 107 156 198 198 189 181 181 189 189 198 198 189 
181 173 173 173 165 156 148 140 132 156 165 156 140 132 148 148 140 140 
132 132 123 123 156 165 156 140 156 165 148 132 140 148 140 148 148 
156 140 123 107  99 107 107 107 132 156 156 148 148 148 165 189 189 189 
189 173 165 148 132 123 123 115 107 115 123 140 148 140 132 140 148 
148 156 148 123 123 123 115 140 140 140 156 148 148 165 165 148 123  90 
115 148 148  82  57  57  33  33 107 173 198 189 181 132  90  66  57 
 82 148 132 132 231 222 173 198 173  90 115 198 148 181  82   8   8   0 
  8   8   0   8   8   0   0   0   8  16   0   0   0   0   0   8   8 
  8   8   0   0   0   0   0   0   0   0   0   0   0   0   0   0   0   0 
  0   0   0   0   0   0   0   0   0   0
  0 
  0   0   0   0   0   0   0   0   0   0   0   0   0   0   0   0   0 
  0   0   0   0   0   0   0   0   8   0   0   0   0   8   8   0   0   0 
  0   0   0   0   0   0   0   0  16  90 132 140 165  57  99 173 189 
214 173 115 115  99  66  49  66 132 189 181 173 156  90  33  41  33  16 
 49 123 140 140 148 173 206 198 198 198 181 198 206 214 214 206 198 
173 165 173 173 173 165 156 156 148 140 148 156 156 132 123 132 148 148 
148 132 123 132 165 181 181 165 140 140 132 132 132 123 132 140 148 
132 123 123  99  90  90  99 107 123 148 148 140 156 140 132 165 189 189 
181 181 181 165 123 115 115 107 115 107 123 148 140 140 165 156 156 
156 156 156 156 140 123 123 140 156 156 165 173 165 173 189 189 189 165 
115  99 148 148  57  16  24  24  49 115 173 181 173 165  99  57  49 
 66 132 140  99 181 239 198 173 198 132 107 181 156 165 115  24   8   8 
  0   8   0   0   8   0   0   8   8   0   0   0   0   0   0   0   8 
  8   0   0   0   0   0   0   0   0   0   0   0   0   0   0   0   0   0 
  0   0   0   0   0   0   0   0   0   0
  0 
  0   0   0   0   0   0   0   0   0   0   0   0   0   0   0   0   0 
  0   0   0   0   0   0   0   0   0   0   0   0   0   0   0   0   0   0 
  0   8   8   0   0   0   0   0  16 115 115 140 123  66 140 189 214 
165  90 140 156  90  57  49  99 173 181 173 173 140  57  41  49  16  33 
 90 140 156 173 173 181 181 189 206 198 198 206 206 214 206 206 189 
165 181 181 189 181 165 165 156 156 148 140 140 140 132 123 132 148 148 
148 140 123 140 165 189 189 189 173 140 123 115 123 107 107 123 123 
115 107 115  90  74  82  90  99 115 140 132 132 132 123 140 165 173 181 
198 198 189 165 132 123 107 115 115 107 132 140 132 148 156 165 173 
165 165 156 132 123 115 132 156 156 156 173 173 181 189 189 181 181 206 
181  99  82 132  82  24  24  24  24  66 140 189 173 181 165  90  57 
 66  82 148 107 148 173 156 148 181 165 107 173 206 148 156  41   0   8 
  0   8   0   0   0   0   8   0   0   0   0   0   0   8   8   0   0 
  0   0   0   0   0   0   0   0   0   0   0   0   0   0   0   0   0   0 
  0   0   0   0   0   0   0   0   0   0
  0 
  0   0   0   0   0   0   0   0   0   0   0   0   0   0   0   0   0 
  0   0   0   0   0   0   0   0   0   0   0   0   0   0   0   0   8   8 
  0   0   0   0   8   8   8   8  33 123 115 156 123  74 156 189 148 
 74  82 123 132  82  33  66 132 181 189 181 165  90  24  57  49  41 115 
140 156 165 173 173 181 206 206 214 206 206 206 214 214 206 198 189 
173 173 198 198 189 189 181 165 156 156 148 115 115 115 115 123 123 123 
132 132 123 123 148 189 198 206 198 173 148 123 107  99 107 115 115 
 99  99  90  66  57  74  82  82  99 123 132 123 107 123 148 156 173 198 
206 198 189 148 107  99 115 132 132 132 148 148 148 165 173 173 173 
156 140 132 140 140 148 181 189 181 165 173 198 198 198 198 189 198 181 
189 173  90  90 123  41  16  41  33  41  99 189 181 173 173  90  57 
 57  49 148 140 165 140 115 132 156 173 123 140 189 123 173  74   0   8 
  8   8   0   0   0   0   8   8   8   8   0   8   0   0   0   8   8 
  0   0   0   0   0   0   0   0   0   0   0   0   0   0   0   0   0   0 
  0   0   0   0   0   0   0   0   0   0
  0 
  0   0   0   0   0   0   0   0   0   0   0   0   0   0   0   0   0 
  0   0   0   0   0   0   0   0   8   8   0   0   0   0   0   0   0   0 
  8   8   0   8   8   0   0  16  66 132  90 148  82  49 165 165 123 
 99  99 107  90  49  49  99 148 165 165 173 115  16  57  82  33  66 123 
140 173 189 181 181 198 206 206 198 214 214 206 214 214 206 206 189 
173 173 181 189 189 189 189 173 148 148 173 148  99  90  99 123 132 123 
123 123 115 107 123 173 206 206 198 181 156 140 115 107  99  90  90 
 99  82  74  74  57  66  82  74  90 107 107 107 115 115 148 189 198 206 
206 189 181 140  99 107 132 140 165 165 156 156 156 181 181 173 181 
156 123 132 148 156 156 181 198 181 173 189 198 198 198 198 206 198 198 
198 181 123 107 140 107  33  24  41  24  57 148 181 173 173 115  49 
 41  66 140 140 148 140 115 132 165 181 123 123 198 148 165 107  16   8 
  8   8  16   8   0   0   8   0   0   0   8   0   8   0   0   0   0 
  0   0   0   0   0   0   0   0   0   0   0   0   0   0   0   0   0   0 
  0   0   0   0   0   0   0   0   0   0
  0 
  0   0   0   0   0   0   0   0   0   0   0   0   0   0   0   0   0 
  0   0   0   0   0   0   0   0   8   0   0   0   8   8   0   0   0   0 
  8   8   0   0   0   8   8  16  90 140  90 156  82  74 165 165 115 
 82 107 115  66  33  82 148 165 165 156 123  57  33  57  49  24  82 123 
156 181 173 181 198 198 206 214 206 198 214 222 231 222 206 198 198 
173 148 165 181 181 189 181 181 165 140 148 165 140  99  90 115 140 148 
140 123 115 107 115 140 189 231 214 189 173 148 123 123 107  90  82 
 82  74  66  57  49  49  49  57  82  90  99 107 115 132 165 189 198 214 
214 198 173 132 115 140 156 156 165 173 156 165 173 189 198 198 189 
189 165 148 156 165 165 189 198 181 181 198 206 206 222 222 206 198 198 
189 189 156 123 123  99  57  24  41  57  33  82 148 173 165 140  82 
 16  41 107 115 107 132 132 165 165 206 181 140 181 156 156 132  24  16 
  0   8   0   8   8   0   0   0   0   8   8   8   8   0   0   0   0 
  0   0   0   0   0   0   0   0   0   0   0   0   0   0   0   0   0   0 
  0   0   0   0   0   0   0   0   0   0
  0 
  0   0   0   0   0   0   0   0   0   0   0   0   0   0   0   0   0 
  0   0   0   0   0   0   0   0   0   0   0   0   0   0   0   0   0   8 
  0   0   0   0   0   0   0  16  90 123 115 156  74 107 173 123  99 
 99 115 123  66  49 132 165 156 181 148  82  24  16   8  16  57 115 148 
173 173 181 189 189 198 206 214 206 198 206 206 222 222 206 206 198 
165 132 148 156 165 181 181 173 156 140 140 140 148 123  90  99 123 132 
148 140 132 132 123 140 165 214 231 189 173 181 148 115 115 107  90 
 66  57  49  49  49  49  49  57  74  90 107 123 140 156 181 206 206 198 
189 173 148 123 140 156 165 189 189 165 165 181 198 206 206 206 198 
198 189 173 173 173 181 198 189 165 181 206 206 206 222 231 231 222 206 
189 189 165 132 132 115  66  41  33  49  33  41 132 189 173 165 115 
 41  57 123 148 123 123 173 165 165 206 165 123 181 173 140 148  41   8 
  8   0   0   0   0   8   0   0   0   0   8   0   0   0   0   8   8 
  8   0   0   0   0   0   0   0   0   0   0   0   0   0   0   0   0   0 
  0   0   0   0   0   0   0   0   0   0
  0 
  0   0   0   0   0   0   0   0   0   0   0   0   0   0   0   0   0 
  0   0   0   0   0   0   0   0   8   0   0   0   0   8   8   8   0   0 
  0   0   0   0   0   0   8  16  90 115 148 140  66 107 132 107 115 
123  99  66  33  57 148 165 156 173 107  33  24  33  24  33  99 140 140 
165 181 189 198 198 198 198 206 206 189 206 214 222 231 222 206 181 
181 156 140 148 140 140 148 148 140 148 148 132 123 132 123 115 123 148 
148 140 140 148 156 148 140 148 173 214 189 165 173 148  90  82  90 
 82  57  41  49  41  33  57  66  74 107 123 123 148 198 206 214 206 181 
181 165 132 132 156 173 173 181 181 165 148 173 198 206 214 214 206 
198 206 206 189 173 173 189 181 181 198 206 214 222 231 222 222 214 214 
206 189 173 148 132 115  82  57  49  49  49  41  74 156 181 181 173 
 82  49  90 123 132  99 189 206 181 222 181 107 181 206 140 156  57   0 
  0   0   8   0   0   8   0   0   0   0   0   0   8   8   0   0   0 
  8   0   0   0   0   0   0   0   0   0   0   0   0   0   0   0   0   0 
  0   0   0   0   0   0   0   0   0   0
  0 
  0   0   0   0   0   0   0   0   0   0   0   0   0   0   0   0   0 
  0   0   0   0   0   0   0   0   0   0   0   0   0   0   0   0   0   0 
  8   0   0   0   0   0   8  33 115  99 140 132  82  99 115 123 107 
 99  99  49  33  90 148 173 156 115  66  49  66  49  41  82 115 123 156 
181 189 206 198 198 206 206 198 198 206 206 214 222 222 231 206 181 
181 165 140 123 115 115 107  99 115 140 140 123  99  90 123 140 123 132 
140 148 156 156 165 140 123 140 156 189 214 181 156 156 115  90 107 
 90  66  57  41  33  41  57  74  90 115 123 140 156 189 206 198 189 189 
181 156 140 156 165 173 181 181 165 156 148 181 206 198 206 214 206 
206 198 189 181 156 173 173 165 181 206 214 214 231 231 214 214 214 198 
189 173 173 156 140 132 107  66  49  41  49  49  33 107 181 181 198 
115  33  90 107 107 148 206 206 181 214 189 107 140 198 140 165  66   8 
  0   0   8   8   0   0   0   0   0   0   8   0   8   0   0   0   0 
  8   0   0   0   0   0   0   0   0   0   0   0   0   0   0   0   0   0 
  0   0   0   0   0   0   0   0   0   0
  0 
  0   0   0   0   0   0   0   0   0   0   0   0   0   0   0   0   0 
  0   0   0   0   0   0   0   0   0   0   0   0   0   0   0   0   8   8 
  0   0   8   8   8   0   8  41 115  90 140 107  82 107 123 132 115 
123  99  49  82 156 181 173 140  90  49  74  99  41  49 107  82  99 148 
165 181 198 198 206 206 206 206 198 206 206 214 222 222 222 214 198 
198 181 156 140 115  99  99  82  82  99 107 115 115  90 115 140 148 148 
165 173 156 156 165 156 132 132 148 156 181 173 148 156 132  99  90 
 90  82  49  33  24  33  49  74  90 123 132 165 198 206 189 198 214 189 
173 148 148 173 181 181 181 173 165 140 123 173 198 181 189 206 206 
206 206 198 173 156 156 148 165 189 206 214 231 239 231 222 214 198 181 
181 173 165 156 140 123 107  99  82  49  57  66  24  82 181 189 181 
165 115  66  90 123 123 206 214 206 222 189  99 115 206 140 156  82   8 
  0   8   0   0   8   8   0   8   0   0   8   8   0   0   0   8   0 
  0   0   0   0   0   0   0   0   0   0   0   0   0   0   0   0   0   0 
  0   0   0   0   0   0   0   0   0   0
  0 
  0   0   0   0   0   0   0   0   0   0   0   0   0   0   0   0   0 
  0   0   0   0   0   0   0   0   0   0   8   0   0   0   0   0   8   0 
  0   0   0   0   0   8   0  57 132  90 140 107  99 107 115 140 123 
123  82  74 132 165 165 156 123  49  49 107  99  33  66  90  82  90 132 
173 189 181 189 198 214 214 206 206 206 206 206 206 214 206 198 198 
198 206 189 181 181 148 123  99  82 107 123 132 123 115 115 132 148 156 
156 156 165 165 148 132 140 115 107 148 165 140 123 140 140  99  90 
 82  57  49  24  16  33  33  66  90  99 140 173 189 181 165 165 173 165 
165 156 156 173 181 173 173 173 173 156 132 132 156 173 189 198 198 
189 198 181 140 115 123 148 181 198 214 222 231 231 222 206 206 198 189 
198 198 189 165 156 140 115 107  82  57  49  74  82  57 156 198 181 
181 140  66  57 107 132 181 222 189 206 206 115 115 214 156 148  90   8 
  8   0   0   0  16   8   0   8   0   8   8   0   0   0   0   0   0 
  0   8   0   0   0   0   0   0   0   0   0   0   0   0   0   0   0   0 
  0   0   0   0   0   0   0   0   0   0
  0 
  0   0   0   0   0   0   0   0   0   0   0   0   0   0   0   0   0 
  0   0   0   0   0   0   0   0   0   8   0   0   0   0   8   8   0   0 
  0   0   0   0   0   8  16  74 123  74 132  99  82 107 140 123 107 
115  90 115 156 165 132 115  90  24  74 107  74  49  90  90  90 115 123 
156 189 181 181 198 198 214 206 206 214 206 214 214 206 214 214 231 
239 239 247 231 214 198 181 156 132 115 123 123 123 115 115 123 148 148 
156 165 156 148 148 140 132 107  90 107 123 132 156 156 140 123  90 
 57  33  24  16  24  33  33  49  82 107 148 173 173 156 148 132 132 156 
148 140 156 173 181 181 173 165 181 173 132 107 140 181 181 173 181 
189 173 148 115 115 140 165 181 198 206 214 222 222 214 214 198 189 189 
198 189 181 165 165 165 148 115  99  74  49  66 115  66  90 156 173 
189 165 132  74  74 123 165 214 189 214 231 140 132 239 173 165 123  16 
  8   8   8   8   0   0   0   0   0   8   0   0   0   0   0   8   0 
  0   0   0   0   0   0   0   0   0   0   0   0   0   0   0   0   0   0 
  0   0   0   0   0   0   0   0   0   0
  0 
  0   0   0   0   0   0   0   0   0   0   0   0   0   0   0   0   0 
  0   0   0   0   0   0   0   0   0   0   0   0   0   0   0   8   0   0 
  0   0   8   8   0   8   8  74 115  82 140  90  82 107 123 132 107 
115 107 115 140 140  90  66  49  49  99 123  49  57  99  99 115 148 148 
148 156 173 181 189 198 206 214 222 222 222 214 214 222 214 231 247 
247 222 198 181 173 156 156 156 156 148 140 132 132 132 123 115 115 132 
165 165 165 156 148 156 132  99  99 132 123  90 123 148 156 148 115 
 82  49  33  16  33  41  49  49  66 115 156 165 165 148 115 107 123 148 
140 140 156 156 181 189 173 189 198 165 132 132 115 107 132 132 132 
132 115 115 107 115 156 181 181 198 206 214 231 214 214 206 206 198 198 
198 198 181 173 173 181 189 173 148  99  57  82 123  90  49 115 173 
198 198 156  57  24  99 148 198 173 189 222 132 115 231 173 156 132  24 
  0   0   8   8   0   0   0   8   8   8   8   0   0   0   0   0   0 
  0   0   0   0   0   0   0   0   0   0   0   0   0   0   0   0   0   0 
  0   0   0   0   0   0   0   0   0   0
  0 
  0   0   0   0   0   0   0   0   0   0   0   0   0   0   0   0   0 
  0   0   0   0   0   0   0   0   0   8   8   8   8   8   0   0   8   8 
  0   0   0   8   8   0  24  90 115 107 123  82 115 132 115 115 107 
140 115 123 156 156 173 156  49  49  99  90  33  66 107 123 156 173 165 
165 148 123 148 173 189 206 214 222 231 231 222 214 214 214 222 222 
206 198 198 198 189 189 181 173 165 165 165 156 140 132 148 156 115  99 
140 173 173 165 148 123  99  82  90 132 115  41  16  99 165 140 148 
132  99  82  66  41   0  16  33  66 115 140 148 156 132  99  74 107 156 
148 140 156 173 156 165 189 173 165 140 132 140 107  90  82  57  90 
132 123 115 132 173 222 222 206 214 214 231 239 222 206 214 222 214 206 
206 198 181 156 173 198 198 206 206 165  99  74 123  90  16  82 156 
181 181 115  41  33  90 123 140 148 189 206 156 132 198 173 132 140  49 
  8   8   8  16   8   0   0   8   8   0   8   0   8   8   8   0   0 
  0   0   0   0   0   0   0   0   0   0   0   0   0   0   0   0   0   0 
  0   0   0   0   0   0   0   0   0   0
  0 
  0   0   0   0   0   0   0   0   0   0   0   0   0   0   0   0   0 
  0   0   0   0   0   0   0   0   0   8   8   0   8   8   8   8   0   0 
  0   0   0   8   8   8  24  90  82  90 132 115 148 140  99 107 148 
148 107 123 156 173 173 123  33  74  90  41  49  90 115 148 181 189 198 
189 173 140 148 173 189 198 206 214 231 231 222 222 222 214 214 214 
214 214 198 189 181 181 181 173 165 165 173 173 165 165 173 165 148 132 
123 132 156 156 132 107 107  99  82 107  66  24  57 115 156 156 165 
140 140 140 107  90  82  66  74  99 115 140 156 140 107  66  41  74 132 
156 148 156 173 173 173 173 165 140 115 123 140 123 123 107  99 123 
123 140 156 165 198 231 255 255 255 222 222 222 214 206 214 214 206 206 
206 189 181 173 181 198 206 198 189 189 132  57  90 107  33  66 123 
165 148 107  74  57  90 123 156 156 181 222 173 123 181 198 140 156  57 
 16   8   0   0   0   0   0   8   8   8   0   0   8   8   0   0   8 
  0   0   0   0   0   0   0   0   0   0   0   0   0   0   0   0   0   0 
  0   0   0   0   0   0   0   0   0   0
  0 
  0   0   0   0   0   0   0   0   0   0   0   0   0   0   0   0   0 
  0   0   0   0   0   0   0   0   0   0   0   0   8   0   0   8   8   8 
  0   0   8   0   8   0  24 107  74 107 132 148 181 123 107 123 173 
214 132  74 132 173 148  82  33  90  57  16  49  74 115 173 189 181 189 
189 189 181 165 165 181 198 206 214 222 231 222 222 222 222 222 222 
222 222 214 206 198 189 189 189 181 173 181 198 189 189 173 165 173 173 
165 132 115 140 132  99  90  90  99 132  82  49  90 115 140 181 181 
165 156 140 132 115 107 115 115 132 148 140 140 123  74  24   0  49 115 
123 148 165 156 148 148 140 123 115 115 123 132 123 115 123 107 140 
181 173 165 173 181 181 181 222 255 247 231 231 214 206 214 214 222 214 
198 189 181 173 189 206 206 198 198 206 156  66  66  99  66  49 123 
148  74  74  99  82 140 140 115 123 173 255 165 107 156 189 148 181  66 
 16  16   0   8   8   8  16   8   0   0   0   0   0   0   8   0   8 
  0   0   0   0   0   0   0   0   0   0   0   0   0   0   0   0   0   0 
  0   0   0   0   0   0   0   0   0   0
  0 
  0   0   0   0   0   0   0   0   0   0   0   0   0   0   0   0   0 
  0   0   0   0   0   0   0   0   0   0   0   0   0   0   0   0   0   8 
  0   0   0   8   8   0  41 107  74 132 173 181 206 140  99 156 247 
222  99  82 123 165 123  41  41  66  24  49 107 123 148 165 181 198 198 
198 189 173 173 165 173 198 189 198 214 222 222 214 231 231 222 214 
222 231 222 214 214 206 206 214 214 198 198 206 189 189 198 189 198 189 
181 181 132  99 123 107 107 123 115 123  90  57 107 148 148 173 181 
173 165 140 132 132 132 123 115 115 132 148 140  90  66  33   8  57 115 
 99  90 107 115 115 107 115 115  99 115 132 140 148 132 132 173 206 
181 156 173 189 198 198 206 214 222 222 231 231 214 206 214 214 214 214 
198 198 189 173 181 206 214 222 198 206 189  99  57  66  66  41 123 
181 148  99 132 115 123 140 123 132 165 239 123  82  90 156 123 165  82 
  8   8   8   0   8   8  16   0   8   0   0   0   0   0   0   8   8 
  0   0   0   0   0   0   0   0   0   0   0   0   0   0   0   0   0   0 
  0   0   0   0   0   0   0   0   0   0
  0 
  0   0   0   0   0   0   0   0   0   0   0   0   0   0   0   0   0 
  0   0   0   0   0   0   0   0   0   8   0   0   0   0   0   0   0   0 
  0   8   8   8   0   8  41  99  82 132 107 115 181 107  82 156 165 
123  90  90 123 156 107  41  66  49  33 115 173 181 173 173 173 189 181 
173 189 181 181 189 173 165 189 198 206 214 214 222 239 239 222 214 
222 222 231 231 222 222 214 206 222 214 214 214 189 206 206 189 206 189 
181 181 156 115  74 107 140 123 148 165  99  33  99 107 132 173 156 
148 156 123 115 115 123 115 107 115 123 132 123  82  82  57  16  57 107 
123 115  99  82  90  90  90  99 115 132 148 165 173 156 156 181 173 
173 181 189 198 189 198 222 214 214 231 231 231 214 214 231 214 222 214 
198 198 181 173 198 222 222 222 214 206 189 115  66  66  57  24 107 
181 173 140 132 123 140 115 107 123 165 247 115  74  66 156 123 173  90 
 16  16   8   0   0   0   0   8   8   0   0   0   0   8  16   0   0 
  8   0   0   0   0   0   0   0   0   0   0   0   0   0   0   0   0   0 
  0   0   0   0   0   0   0   0   0   0
  0 
  0   0   0   0   0   0   0   0   0   0   0   0   0   0   0   0   0 
  0   0   0   0   0   0   0   0   0   0   0   0   0   0   8   8   8   8 
  0   0   0   8   8   0  57 123  99 107  49  74 132  82  82 165 132 
132 140 140 140 140  82  41  57  49  74 148 189 181 198 181 173 181 181 
181 181 189 189 181 173 173 181 181 181 206 231 231 231 239 239 222 
214 222 231 239 231 222 222 214 222 214 198 198 214 206 206 206 198 198 
198 189 173 148  90  33  99 173 189 173  90  24  82 123 165 189 173 
140 140 132 123 115 115 107  99  90 115 132 132  99  90  57  16  82 132 
115  66  66  74  66  99 140 165 165 173 189 189 189 198 189 181 198 
206 206 198 206 206 206 222 222 222 222 222 222 214 206 222 231 231 206 
198 181 165 173 206 214 222 239 222 206 206 156  82  57  49  33  90 
165 173 132  99 132 206 214 156 148 231 239  90  66 123 198 148 173  74 
  8   0   0   0   0   8   8  16   0   0   0   0   8   8   8   0   0 
  0   0   0   0   0   0   0   0   0   0   0   0   0   0   0   0   0   0 
  0   0   0   0   0   0   0   0   0   0
  0 
  0   0   0   0   0   0   0   0   0   0   0   0   0   0   0   0   0 
  0   0   0   0   0   0   0   0   0   8   8   8   8   0   0   0   0   0 
  0   0   0   8   0   8  66 123  90 140  74  57  99  82 123 189 115 
123 173 165 148 123  57  49  49  49 132 189 198 181 181 181 189 181 165 
165 189 198 198 198 198 181 173 173 181 198 222 239 247 239 231 222 
231 231 231 239 231 231 222 214 214 206 198 198 198 214 214 206 206 198 
198 206 189 173 107  49 140 222 222 165  57  66 115 115 148 181 165 
140 140 123 107 107 107  90  74  90 115 148 140  90  90  82  49  66 148 
148  74  74  82 107 156 181 173 189 181 198 206 181 198 198 206 214 
206 206 206 214 222 222 222 222 222 222 214 222 214 222 239 231 222 206 
189 181 181 181 198 222 222 222 222 206 206 165  99  74  57  33  57 
140 148 132 107  74 173 255 255 189 255 255 132 123 181 173 132 165  82 
 16  16   8   8   8   8   8   0   0   0   0   0   8   0   0   0   0 
  8   8   0   0   0   0   0   0   0   0   0   0   0   0   0   0   0   0 
  0   0   0   0   0   0   0   0   0   0
  0 
  0   0   0   0   0   0   0   0   0   0   0   0   0   0   0   0   0 
  0   0   0   0   0   0   0   0   8   0   0   0   8   0   0   0   8   8 
  0   0   0   0   8  16  57 115  90 165  99  57  74  33 148 222 148 
 99 148 156 140  99  33  49  49  82 156 198 198 189 189 189 189 173 173 
181 189 198 198 198 206 198 181 189 189 198 214 231 239 239 239 231 
239 247 239 231 222 222 231 222 222 214 206 198 189 198 198 198 206 198 
198 206 181 181 156  74 140 239 181  49  74 115  99  82 107 123 156 
165 132 123 140 189 189  99  74  99 140 140 107  90  82  82  74  57 115 
165 148  74  82 156 165 181 181 189 189 198 206 198 222 231 214 222 
222 214 231 222 222 231 231 239 239 214 222 231 231 239 239 222 206 206 
206 181 189 214 214 222 231 222 214 206 214 181 115  82  82  49  33 
 99 132 140 148 132  82 198 255 206 222 255 173 132 222 181 123 156  90 
  8   8   0   0   0   0   0   0   8   8   0   0   8   8   0   0   8 
  8   0   0   0   0   0   0   0   0   0   0   0   0   0   0   0   0   0 
  0   0   0   0   0   0   0   0   0   0
  0 
  0   0   0   0   0   0   0   0   0   0   0   0   0   0   0   0   0 
  0   0   0   0   0   0   0   0   0   0   0   8   0   8   0   0   8   8 
  8   0   8   8   0   0  57 132  90 173 140  82  49  41 198 255 173 
 99 115 132 123  66  24  66  57  82 173 181 189 206 206 206 181 156 181 
189 189 206 206 198 206 206 198 198 206 214 231 239 239 239 231 239 
239 239 231 222 222 222 214 198 198 206 206 198 198 189 189 189 198 206 
206 189 189 189 181 140  90  82  90  82 115 123  99  82  82  99 132 
148 156 148 148 173 173 115 107 123 115 107  99  90  99  99  99  82  99 
123  99  90 148 173 173 189 189 206 214 198 206 206 214 214 214 222 
214 231 231 231 231 231 231 231 231 222 222 239 247 239 247 231 198 206 
206 206 214 214 214 231 239 239 222 214 214 173 132  99  57  49  24 
 82 156 123 140 156 115 132 239 255 255 255 198 107 181 156 115 148  82 
  0   8   0   0   8   8   8   8   0   0   0   0   0   0   0   0   0 
  0   0   0   0   0   0   0   0   0   0   0   0   0   0   0   0   0   0 
  0   0   0   0   0   0   0   0   0   0
  0 
  0   0   0   0   0   0   0   0   0   0   0   0   0   0   0   0   0 
  0   0   0   0   0   0   0   0   0   0   8   0   0   0   0   0   0   0 
  0   0   8   0   0   8  41 123  82 156 123  49  49 156 255 206  66 
 57 115 115  90  41  41  74  57  99 181 189 189 206 206 206 189 181 181 
181 189 206 206 206 206 206 206 214 214 222 239 247 247 239 231 231 
239 239 222 222 231 222 214 214 206 198 198 198 198 198 198 198 189 189 
189 189 198 189 181 165  99  74  82  82  90 115  99  82  82  99 140 
148 148 189 206 206 198 173 140  90  74  82  82  82  82  90  82  74  90 
 74  66 115 173 189 189 206 206 206 206 206 206 206 206 206 222 222 
214 214 231 231 239 239 239 231 231 231 231 231 247 255 239 231 222 214 
214 214 222 231 239 247 231 222 206 206 206 165 123  99  57  41  16 
 49 156 132 123 148  99 140 222 255 239 255 165 123 206 173 115 156  74 
  8   8   8   0   0   8   8   8   0   8   0   0   8   8   0   0   0 
  8   0   0   0   0   0   0   0   0   0   0   0   0   0   0   0   0   0 
  0   0   0   0   0   0   0   0   0   0
  0 
  0   0   0   0   0   0   0   0   0   0   0   0   0   0   0   0   0 
  0   0   0   0   0   0   0   0   0   0   8   8   0   0   0   0   0   0 
  0   0   0   0   0   0  49 115  82 148 140  49 107 255 222  99  74 
 99 115 132 107  41  49  82  74 123 173 181 189 206 222 222 206 198 206 
214 206 198 206 222 214 214 214 222 231 239 239 231 231 247 247 239 
239 231 231 239 231 231 214 206 206 206 198 189 189 198 206 198 198 198 
189 189 198 189 181 173 132  90  90  99  90 107 107  90  90  90  90 
 99 140 181 214 231 206 173  99  49  82  74  57  90  99  90  74  74  90 
 82  90 156 198 198 206 206 198 198 206 198 206 214 206 206 206 222 
222 231 247 247 239 231 239 247 239 231 239 239 247 247 239 239 222 222 
231 222 231 247 247 239 214 214 214 206 189 156 148 123  74  57  16 
 24 107 140 132 140 107 123 214 239 214 214 156 140 239 206 123 156  74 
  8   0   8  16   0   0   0   0   0   8   8   0   8   0   0   0   8 
  0   0   0   0   0   0   0   0   0   0   0   0   0   0   0   0   0   0 
  0   0   0   0   0   0   0   0   0   0
  0 
  0   0   0   0   0   0   0   0   0   0   0   0   0   0   0   0   0 
  0   0   0   0   0   0   0   0   0   0   8   0   0   0   0   0   0   8 
  8   8   8   0   0   0  57 115  74 173 156  49 140 255 173 115 107 
 99 115 140 107  16  66  82  74 156 181 181 198 222 239 231 222 222 214 
206 206 206 214 214 206 222 239 239 239 247 231 222 239 247 239 231 
231 239 231 222 206 198 198 198 198 198 189 189 189 189 189 189 189 189 
189 198 189 189 189 181 156 123  90  90  99 107 115 123 123 115 115 
 99  99 123 140 148 148 132 115 115 107  99  99 115 107  82  74  90  90 
 66 107 165 189 189 198 214 214 206 198 198 206 206 198 206 214 206 
214 222 231 239 231 231 239 239 239 239 239 239 247 247 247 247 231 239 
247 247 247 247 231 222 222 222 206 189 189 189 189 189 148  99  33 
  8  74 140 156 156 132  99 206 255 206 181 115 107 198 173 140 165  66 
 16  16   0   8   0   8   8   0   0   0   0   8   8   0   0   0   0 
  0   0   0   0   0   0   0   0   0   0   0   0   0   0   0   0   0   0 
  0   0   0   0   0   0   0   0   0   0
  0 
  0   0   0   0   0   0   0   0   0   0   0   0   0   0   0   0   0 
  0   0   0   0   0   0   0   0   8   8   0   8   0   8   0   0   0   0 
  0   0   0   0   0   0  57 115  82 165 132  57 148 239 165 148 148 
115 123 140  66  24  66  74  90 156 189 198 214 214 222 231 239 247 231 
222 222 222 222 231 231 231 239 247 239 239 239 231 247 247 239 231 
239 231 206 181 173 165 165 181 198 198 198 189 189 189 189 189 189 198 
198 198 198 198 189 181 173 148  99  82 107 115 123 140 123 123 123 
115 115 123 132 132 132 140 148 140 123 115 115 115 107  82  66  74  74 
 74 132 181 189 189 189 189 198 198 206 198 206 206 198 206 206 198 
198 214 231 239 239 239 239 255 247 239 247 239 239 247 239 239 239 239 
255 247 231 222 222 214 206 206 198 189 198 198 206 214 189 148  66 
  8  49 132 173 165 132  99 181 255 239 148  90 107 206 165 148 148  49 
 16  33  24  24   8   8   8   0   0   0   0   8   8   8   0   8   0 
  0   0   0   0   0   0   0   0   0   0   0   0   0   0   0   0   0   0 
  0   0   0   0   0   0   0   0   0   0
  0 
  0   0   0   0   0   0   0   0   0   0   0   0   0   0   0   0   0 
  0   0   0   0   0   0   0   0   0   0   0   0   0   8   0   8   0   0 
  0   8   8   8   8  24  82 123  82 173 140  66 156 231 165 181 148 
 99 123 123  41  33  57  74  90 156 206 189 189 198 198 206 222 239 239 
231 239 239 231 239 247 239 231 239 247 239 239 247 247 247 239 231 
239 214 173 165 148 123 115 115 140 181 181 181 189 189 198 198 198 198 
198 189 198 198 198 189 173 156 123  99 107  99 107 140 140 132 123 
123 132 115 115 123 115  99  90 115 123 115 123 107  82  74  90  90  74 
 90 156 189 189 189 189 198 198 198 206 198 206 198 198 214 206 206 
206 222 231 231 239 239 247 247 239 239 247 247 255 255 247 247 255 247 
231 239 239 231 231 222 206 206 206 198 198 206 214 198 189 189 115 
 24  33  99 165 165 107  99 148 214 115  41  90 107 222 165 132 123  41 
 24  49  66  57  33  24  16  16   8   0   0   0   8   8   0   0   0 
  8   0   0   0   0   0   0   0   0   0   0   0   0   0   0   0   0   0 
  0   0   0   0   0   0   0   0   0   0
  0 
  0   0   0   0   0   0   0   0   0   0   0   0   0   0   0   0   0 
  0   0   0   0   0   0   0   0   0   0   0   0   0   0   0   0   8   0 
  0   0   8   0   0  24  90 115 107 181 107  74 140 198 181 148 107 
107 115  90  24  49  66  57  66 107 173 198 198 189 198 198 198 222 239 
239 231 222 231 231 239 247 247 239 247 247 239 231 247 247 239 247 
222 173 140 132 115  99  99 115 148 181 198 206 206 198 198 189 189 198 
189 189 198 206 206 189 189 173 140 107 115 123  99  90  90  99 107 
107  99  82  82  90  90  90  99  82  74  82  82  82  82  90  99  74  74 
123 173 189 198 189 189 198 198 198 206 206 198 198 189 198 206 206 
206 214 231 239 231 239 247 239 247 239 247 255 247 247 247 239 247 247 
239 231 231 231 231 214 222 214 214 214 214 222 214 206 198 206 173 
 66  16  99 156 173 140 107 123 198 165 107 148 115 198 156 132  99  24 
 66  90  90  82  74  49  33   8   8   0   0   0   0   0   0   8   0 
  0   0   0   0   0   0   0   0   0   0   0   0   0   0   0   0   0   0 
  0   0   0   0   0   0   0   0   0   0
  0 
  0   0   0   0   0   0   0   0   0   0   0   0   0   0   0   0   0 
  0   0   0   0   0   0   0   0   0   0   0   0   8   8   0   0   0   8 
  0   0   8   8   0  41  99 132 107 173 115  74 123 181 173 123 107 
115 123  66  24  33  33  57  90 123 148 165 165 165 165 181 189 198 206 
231 239 239 239 231 231 239 231 239 239 239 239 239 239 231 231 231 
206 156 123 115 107 123 156 173 181 189 189 181 181 189 198 198 189 189 
198 198 198 198 198 198 173 165 140  90  99 115  99  99  82  74  90 
 99  82  74  66  66  66  66  74  74  74  74  74  74  99 107  74  66 123 
165 189 189 189 198 198 198 198 198 198 206 198 198 198 198 198 206 
214 222 231 239 239 239 247 239 239 239 239 247 255 255 255 255 247 239 
247 239 239 239 231 231 222 222 231 239 247 239 231 214 198 198 198 
115  16  57 140 165 132 115 156 181 214 123 140 123 173 148 132  66  57 
123 140 115  99  82  57  41  16   8   8   0   0   8   8   0   0   0 
  8   8   0   0   0   0   0   0   0   0   0   0   0   0   0   0   0   0 
  0   0   0   0   0   0   0   0   0   0
  0 
  0   0   0   0   0   0   0   0   0   0   0   0   0   0   0   0   0 
  0   0   0   0   0   0   0   0   0   0   8   0   8   0   0   0   0   0 
  0   0   0   0   0  16  99 115  99 140  82  57 123 206 231 165 107 
123 107  49  16  16  41  90 140 181 181 173 173 165 156 156 165 198 206 
206 214 214 222 239 247 239 231 231 247 239 231 222 222 231 239 231 
198 132 115 132 156 181 173 173 189 189 189 181 181 189 189 189 181 181 
198 198 189 206 198 181 181 165 132  90  82  99  99  74  57  57  66 
 74  66  57  66  66  66  74  66  57  82  82  66  66  99  99  82  90 140 
173 173 181 198 198 206 206 198 189 198 198 198 198 189 181 189 198 
181 165 181 206 239 247 239 239 239 239 247 239 247 255 239 247 247 239 
231 231 239 247 239 222 222 247 247 247 247 231 222 231 214 198 189 
132  16  33 132 165 156 140 173 173 198 132 115 132 148 132 123  49  82 
140 148 140 132  99  74  57  24   8   8   8   8   8   0   0   8   8 
  0   0   0   0   0   0   0   0   0   0   0   0   0   0   0   0   0   0 
  0   0   0   0   0   0   0   0   0   0
  0 
  0   0   0   0   0   0   0   0   0   0   0   0   0   0   0   0   0 
  0   0   0   0   0   0   0   0   0   0   0   0   0   0   0   0   0   8 
  8   8   8   0   0  16  90 115  90  99  74  74 132 239 206 115 123 
132  90  33   0   8  66 140 181 181 189 189 189 189 181 181 181 189 198 
206 214 222 231 231 231 231 231 231 239 231 222 231 231 231 239 231 
173 115 132 181 206 198 198 198 198 198 198 198 198 181 173 189 189 181 
181 181 181 189 198 181 156 148 107  82  82  82  90  90  57  57  66 
 74  74  66  74  74  57  74  74  74  74  66  66  82  90  82  74  90 148 
181 181 189 214 206 214 214 206 206 214 206 198 198 189 181 181 156 
132 123 156 181 206 231 247 239 239 247 247 255 255 255 247 247 255 247 
247 255 247 247 247 239 247 247 239 231 222 214 214 206 206 198 189 
140  33  16  90 165 165 140 206 206 156  90 107 115 140 140 115  49  82 
 99  82  82 115 115  90  66  41  16   8   8   0   8   0   0   0   8 
  8   0   0   0   0   0   0   0   0   0   0   0   0   0   0   0   0   0 
  0   0   0   0   0   0   0   0   0   0
  0 
  0   0   0   0   0   0   0   0   0   0   0   0   0   0   0   0   0 
  0   0   0   0   0   0   0   0   8  16   8   0   0   0   0   0   0   8 
  0   8   8   0   8  16  57  99  57  82 123  99 156 214 148 123 132 
140  90  24   0  24  99 165 198 206 198 189 189 189 181 189 198 189 189 
206 206 214 222 239 247 239 231 231 231 222 222 214 222 239 239 222 
173 132 173 198 189 198 198 189 189 189 198 189 181 189 189 206 206 198 
189 181 181 189 189 173 140 123  90  57  49  66  99 107  90  99 107 
107  90  66  49  49  66  66  57  66  82  74  66  74  82  74  74  90 140 
165 181 189 198 206 214 214 206 198 206 198 181 198 198 206 206 206 
198 148 132 148 165 206 247 239 239 239 231 247 255 247 255 255 247 247 
255 255 247 239 239 239 231 222 214 222 214 206 206 198 206 198 173 
123  33  16  74 140 165 123 173 231 165  66 107 123 132 148  99  49  90 
 99  90  57  99 132 115  66  33  16   8   8   8   0   0   8   0   0 
  0   0   0   0   0   0   0   0   0   0   0   0   0   0   0   0   0   0 
  0   0   0   0   0   0   0   0   0   0
  0 
  0   0   0   0   0   0   0   0   0   0   0   0   0   0   0   0   0 
  0   0   0   0   0   0   0   0   8   0   0   0   0   8   0   0   8   8 
 16   8   0   0   8   8  33  82  49  74 107  99 165 181 115 132 148 
123  74  16   8  49 132 173 173 198 222 222 222 222 222 222 214 206 198 
198 206 214 222 231 231 231 231 239 231 222 222 222 222 231 247 222 
173 189 214 206 206 206 206 214 206 198 206 198 198 189 189 198 206 206 
198 181 173 173 173 165 156 132  90  82  99 115 107  90 140 181 181 
148  99  82 115 115  90 107  99  90 107 115 115 115  82  57  66  99 123 
156 173 189 198 206 214 206 198 198 206 198 189 181 181 189 214 206 
206 206 156 140 156 181 231 247 239 247 255 255 255 255 255 255 255 247 
247 255 247 231 239 239 231 206 206 206 206 206 198 181 181 181 148 
 99  33   8  49 115 173 148 156 214 165  82 107 115 148 123  49  57  82 
115  99  82 115 132  99  66  41  16   8   0   0   8   8   8   8   8 
  0   0   0   0   0   0   0   0   0   0   0   0   0   0   0   0   0   0 
  0   0   0   0   0   0   0   0   0   0
  0 
  0   0   0   0   0   0   0   0   0   0   0   0   0   0   0   0   0 
  0   0   0   0   0   0   0   0   0   0   0   8   0   0   0   0   0   0 
  0   0   0   0   0   8  41  66  33  82 148  99 156 189 123 107 123 
123  74  16  16  74 156 189 181 198 231 231 231 222 214 206 198 206 206 
222 214 198 222 239 247 247 239 239 231 222 222 214 214 206 231 214 
189 206 214 214 206 198 206 206 206 206 198 206 198 181 189 198 206 206 
189 181 181 181 189 173 156  99  74 115 140 107  74  90 140 165 148 
132 132 173 206 132  16  49 115 156 189 206 165  82  66  90  99  99 115 
132 156 181 206 206 206 206 198 198 206 214 206 198 206 198 198 214 
214 214 198 156 132 156 214 239 247 247 247 247 255 255 255 247 247 255 
255 247 239 222 214 206 214 222 214 214 206 198 206 189 173 156 115 
 90  49   0  24  99 156 148 156 222 140  57  99 123 140  99  41  82 115 
123 123 140 148 123  90  66  41   8   8   0   0   8   0   8   0   0 
  8   8   0   0   0   0   0   0   0   0   0   0   0   0   0   0   0   0 
  0   0   0   0   0   0   0   0   0   0
  0 
  0   0   0   0   0   0   0   0   0   0   0   0   0   0   0   0   0 
  0   0   0   0   0   0   0   0   0   8   8   0   0   8   8   8   0   0 
  8   8   0   0   0   8  57  49  16  90 148  82 132 173 123 123 140 
107  49   8  24  99 173 189 181 189 206 214 206 206 214 222 222 214 214 
222 231 231 239 239 247 247 247 239 222 214 198 206 214 222 231 222 
206 206 214 214 214 206 206 214 222 206 198 206 206 206 206 214 206 198 
198 181 181 189 173 173 140  74  82  99  99 132 173 181 189 198 189 
181 181 181 206 189 115  99 173 189 189 206 181 115 107 107  99  90  90 
115 148 156 181 189 189 198 198 198 198 206 206 198 189 189 198 206 
214 214 214 181 140 156 206 239 247 231 239 247 231 239 247 247 255 247 
247 239 214 198 206 214 198 198 198 189 181 173 173 165 140 115  99 
 90  57   0  16  82 148 148 132 206 140  82 107 132 132  90  66  99 115 
115 132 156 140  90  74  49  16   8   0   0   0   0   0   8   8   8 
  8   8   0   0   0   0   0   0   0   0   0   0   0   0   0   0   0   0 
  0   0   0   0   0   0   0   0   0   0
  0 
  0   0   0   0   0   0   0   0   0   0   0   0   0   0   0   0   0 
  0   0   0   0   0   0   0   0   0   0   0   8   8   0   0   0   0   0 
  0   8   0   0   0   8  49  49  24  99 140  74 107 173 123 123 148 
107  41   8  33  99 173 189 181 181 198 206 206 206 214 214 214 214 214 
231 231 231 231 239 239 239 239 239 231 206 206 214 214 231 239 222 
214 214 198 206 222 206 206 214 214 206 189 198 206 198 198 206 206 206 
189 189 189 173 156 148 107  82  99 123 181 214 214 222 214 198 198 
165 140 140 132 140 173 181 156 181 206 214 222 206 181 148  90  74  57 
 90 140 140 165 206 198 198 214 206 198 198 198 198 198 198 214 214 
214 206 214 214 181 148 181 231 247 247 239 231 239 239 239 255 247 239 
231 214 214 222 206 181 189 189 189 189 189 173 156 132 115 115 107 
 90  57  16  16  82 140 140 123 173 123  74 107 115 107  99  90 123 132 
140 156 148 107  66  33   8   0   0   0   0   8   0   0   0   0   0 
  0   0   0   0   0   0   0   0   0   0   0   0   0   0   0   0   0   0 
  0   0   0   0   0   0   0   0   0   0
  0 
  0   0   0   0   0   0   0   0   0   0   0   0   0   0   0   0   0 
  0   0   0   0   0   0   0   0   0   0   0   0   0   8   8   0   0   0 
  0   0   0   0   0  16  57  66  24  90 132  82 107 173 115 123 165 
107  33   8  33  99 156 173 173 173 181 173 181 189 206 214 214 214 214 
231 239 231 231 239 239 231 231 231 222 206 206 214 214 231 239 231 
222 214 198 206 214 206 206 214 214 198 198 206 214 206 206 214 214 206 
189 189 189 156 148 132  90  90 123 156 214 231 222 239 222 214 214 
189 156 148 140 148 189 198 181 189 222 222 231 222 206 189 156  99  49 
 74 115 123 165 206 206 206 214 206 206 189 198 206 198 198 214 214 
206 206 214 214 206 181 181 222 247 247 239 231 239 239 239 255 255 231 
222 214 206 214 206 189 198 206 198 206 198 189 181 165 140 132 115 
 90  66  16   8  74 148 140 115 156 132  74 107 123 115  90  82 107 132 
140 140 115  57  33   8   0   0   0   0   0   0   0   0   0   0   0 
  0   0   0   0   0   0   0   0   0   0   0   0   0   0   0   0   0   0 
  0   0   0   0   0   0   0   0   0   0
  0 
  0   0   0   0   0   0   0   0   0   0   0   0   0   0   0   0   0 
  0   0   0   0   0   0   0   0   0   0   8   0   0   8   8   0   0   0 
  0   0   8   0   8  24  66  90  24  90 115  82 107 181 107 123 165 
 99  24   8  33  90 123 148 156 165 165 148 156 181 198 206 206 214 222 
231 239 239 239 239 239 239 231 231 222 206 198 206 214 231 239 239 
222 206 198 198 198 206 206 214 214 198 214 222 214 214 214 214 214 198 
189 198 173 148 148 123  90  99 148 198 214 214 222 231 222 222 231 
214 189 189 181 181 181 198 206 214 231 231 222 214 214 222 214 148  74 
 74  82 107 156 198 206 206 214 214 214 198 198 206 206 198 214 214 
206 206 206 206 214 206 198 214 247 247 231 231 231 239 239 255 255 231 
231 222 198 198 206 214 214 222 222 214 214 206 206 198 181 156 115 
 82  74  33   8  57 148 148 115 140 140  74 115 123 115  90  74  82 115 
123 107  74  16   8   0   0   0   0   0   0   0   0   0   8   0   0 
  0   8   0   0   0   0   0   0   0   0   0   0   0   0   0   0   0   0 
  0   0   0   0   0   0   0   0   0   0
  0 
  0   0   0   0   0   0   0   0   0   0   0   0   0   0   0   0   0 
  0   0   0   0   0   0   0   0   0   0   0   0   0   0   0   8   8   0 
  0   0   0   8   0  24  82 107  57 107 107  82  99 156 107 115 140 
 90  16   8  41  82  99 132 148 156 165 156 156 181 198 198 198 214 222 
231 239 231 231 239 239 255 239 222 206 189 189 189 206 231 239 231 
222 206 198 198 206 198 198 206 214 206 214 214 206 214 214 222 214 198 
198 181 156 156 148 115  99 123 173 214 214 214 214 214 222 222 231 
206 198 198 198 189 198 214 214 222 231 222 231 231 222 214 206 189 140 
 82  74  99 140 189 198 198 214 214 214 222 214 206 214 206 214 222 
214 214 206 198 206 214 206 214 247 247 222 231 231 231 247 247 247 247 
231 222 222 222 222 222 222 239 239 231 222 206 198 181 173 173 140 
 90  90  49   8  41 140 165 132 156 148  57  99 115  99  99  90  66  57 
 74  66  33   8   0   0   8   0   0   8   0   0   0   0   8   0   8 
  0   0   0   0   0   0   0   0   0   0   0   0   0   0   0   0   0   0 
  0   0   0   0   0   0   0   0   0   0
  0 
  0   0   0   0   0   0   0   0   0   0   0   0   0   0   0   0   0 
  0   0   0   0   0   0   0   0   0   0   0   0   0   0   0   0   0   0 
  8   8   8   0   0  24  66  90  66 107 107  82  99 140 115 148 148 
 74  16  33  57  57  90 148 165 165 173 173 173 181 181 198 206 214 222 
231 239 231 239 239 247 247 231 231 214 181 189 206 206 231 239 231 
222 206 206 206 206 206 214 206 214 222 214 222 222 214 231 231 214 206 
206 173 140 132 115 107  99 132 198 214 214 222 214 231 231 222 231 
222 214 214 206 206 198 206 222 231 222 222 231 231 222 222 214 206 165 
 99  74  90 132 181 198 198 206 214 222 222 214 214 206 206 214 222 
222 214 206 206 214 222 222 214 231 247 222 214 214 231 247 255 247 255 
255 231 222 231 239 247 247 239 231 222 222 214 206 198 189 181 140 
107  90  57   8  41 123 156 132 132 148  66  99 123  82  57  82  49  33 
 33   8   0   8   8   0   8   0   0   0   8   8   8   0   8   8   0 
  0   8   0   0   0   0   0   0   0   0   0   0   0   0   0   0   0   0 
  0   0   0   0   0   0   0   0   0   0
  0 
  0   0   0   0   0   0   0   0   0   0   0   0   0   0   0   0   0 
  0   0   0   0   0   0   0   0   0   0   0   8   0   0   0   8   0   0 
  0   0   0   8   8   8  57 107  90 115 132  82  82 123 132 148 132 
 74  16  49  57  74  99 140 165 173 181 181 181 189 198 198 206 222 222 
231 247 239 247 247 239 247 239 222 214 198 181 189 214 231 239 239 
222 214 198 198 206 206 206 198 198 206 206 214 222 222 231 231 214 206 
173 123  99  90 107  99  90 165 231 222 214 222 214 222 231 231 231 
222 222 214 206 206 206 222 222 222 231 222 231 222 206 214 214 206 198 
132  57  74 132 173 206 206 198 214 231 231 222 222 222 214 214 214 
206 214 206 198 206 214 231 231 247 247 231 214 214 231 231 239 255 255 
247 247 255 239 239 255 247 231 231 231 231 214 214 214 206 189 148 
115  90  66  16  24 115 156 148 115 148  82  82  90  57  57  82  49   0 
  8   8   0   8   8   8   8   0   0   0   0   8   0   0   0   0   8 
  0   0   0   0   0   0   0   0   0   0   0   0   0   0   0   0   0   0 
  0   0   0   0   0   0   0   0   0   0
  0 
  0   0   0   0   0   0   0   0   0   0   0   0   0   0   0   0   0 
  0   0   0   0   0   0   0   0   8   8   0   0   8   0   0   0   0   0 
  0   0   0   8   8   8  33 107 132 115 156  99  49  99 140 165 115 
 66  41  74  57  74  99 140 173 189 198 181 173 173 181 189 198 206 214 
239 247 231 231 231 239 247 231 214 198 189 173 189 214 222 231 239 
231 214 206 198 198 206 206 206 206 214 222 231 231 231 231 222 214 214 
181 132  90 107  99  74 107 198 231 222 231 231 214 214 222 222 222 
231 231 206 206 214 214 222 231 231 231 231 231 231 222 214 214 222 231 
181  82  49 107 140 181 214 214 222 222 222 231 231 222 214 222 222 
214 206 198 206 206 206 231 239 247 247 239 222 206 206 222 239 247 255 
255 255 255 255 255 255 239 239 231 222 214 206 214 222 214 198 156 
115  90  57  24   8  90 148 148 123 132  90  66  82  49  49  74  41   0 
  0   0   0   8   0   0   0   0   0   8   0   8   0   8   0   0   0 
  0   0   0   0   0   0   0   0   0   0   0   0   0   0   0   0   0   0 
  0   0   0   0   0   0   0   0   0   0
  0 
  0   0   0   0   0   0   0   0   0   0   0   0   0   0   0   0   0 
  0   0   0   0   0   0   0   0   8   0   0   0   0   0   0   0   0   0 
  8   8   0   0   0   0  16  74 148  99 165 107  74  82 132 165 107 
 49  49  74  49  74  99 140 173 181 189 181 189 198 198 214 214 214 214 
222 247 239 222 239 247 255 239 222 214 198 173 189 206 214 231 239 
222 214 206 189 189 198 189 189 198 206 214 214 222 214 206 206 206 198 
173 140 115 115  82  57 132 222 239 231 231 231 214 214 222 231 231 
231 222 222 214 214 222 239 239 231 222 231 231 214 206 214 222 214 222 
206 107  41  82 132 165 198 214 231 231 231 222 214 222 222 214 214 
214 214 214 206 206 214 231 247 247 239 222 214 206 214 231 239 255 255 
255 255 255 255 255 255 239 231 222 214 214 222 231 222 214 206 165 
123  99  57  24   8  57 140 156 140 107  90  66  82  66  57  66  33   0 
  0   8   0   0   0   8   0   8   0   0   8   0   8   0   0   8   0 
  0   0   0   0   0   0   0   0   0   0   0   0   0   0   0   0   0   0 
  0   0   0   0   0   0   0   0   0   0
  0 
  0   0   0   0   0   0   0   0   0   0   0   0   0   0   0   0   0 
  0   0   0   0   0   0   0   0   8   0   8   0   0   0   0   0   0   0 
  0   0   8   0   0   0   8  57 115  99 165 115  90  74 140 173 115 
 41  66  74  49  74 107 140 173 173 181 198 198 189 198 198 206 222 222 
231 255 231 231 247 239 231 239 222 206 181 173 181 198 222 231 231 
231 206 198 189 181 189 198 189 198 206 206 214 222 231 222 214 206 181 
148 140 115 107  74  49 140 231 222 214 222 222 222 231 222 222 239 
247 222 214 206 206 222 239 239 239 239 231 222 239 222 206 214 214 239 
231 132  41  74 132 165 198 214 231 239 231 239 239 231 222 214 222 
214 206 198 198 206 214 231 231 231 231 222 206 198 206 222 239 247 247 
255 255 255 255 255 247 231 222 231 222 222 222 214 214 206 206 173 
123  90  74  49  24  33 132 173 165 140  90  74  74  74  57  82  49   0 
  8   8   0   8   8   0   8   8   0   8   8   8   0   0   0   0   0 
  0   8   0   0   0   0   0   0   0   0   0   0   0   0   0   0   0   0 
  0   0   0   0   0   0   0   0   0   0
  0 
  0   0   0   0   0   0   0   0   0   0   0   0   0   0   0   0   0 
  0   0   0   0   0   0   0   0   0   0   8   0   0   0   8   8   0   0 
  8   8   0   0   8   8  16  57 107  82 181 115  74  74 148 173 107 
 33  66  90  57  74 115 132 173 189 206 198 189 198 198 206 231 231 222 
222 222 231 231 239 239 239 239 222 206 198 181 173 189 206 222 239 
239 214 198 198 198 198 189 189 198 189 198 206 214 222 214 206 198 189 
181 165 140  99  49  41 156 231 222 222 231 222 222 222 231 231 231 
239 231 239 231 231 231 231 231 231 231 231 231 231 214 206 222 222 231 
231 140  33  57 123 165 206 222 222 231 231 239 231 231 231 206 206 
206 198 206 206 206 222 239 247 247 239 222 214 206 214 231 239 255 255 
255 255 255 255 255 247 239 231 231 222 214 222 222 222 214 206 181 
123  99  74  41  41   8  90 156 173 165 115  66  82  82  74  99  57  24 
  8   0   0   0   0   8   0   0   8   0   0   8   8   0   8   8   8 
  0   0   0   0   0   0   0   0   0   0   0   0   0   0   0   0   0   0 
  0   0   0   0   0   0   0   0   0   0
  0 
  0   0   0   0   0   0   0   0   0   0   0   0   0   0   0   0   0 
  0   0   0   0   0   0   0   0   0   8   8   0   0   8   0   0   8   8 
  8   0   0   0   0   8  24  74 115  82 181 123  82  82 132 173 107 
 16  66  82  57  82 107 132 181 198 189 198 198 198 206 206 214 214 231 
231 231 231 231 239 247 247 247 231 214 198 173 173 189 206 222 231 
239 222 198 189 189 198 198 198 198 198 189 198 214 214 214 222 206 189 
156 156 148  99  66  74 156 231 231 222 222 222 222 222 222 239 239 
239 231 231 222 231 239 239 231 239 231 231 222 222 222 222 222 222 239 
239 148  49  66 123 165 198 222 222 231 239 231 231 231 222 222 214 
198 189 206 214 214 231 239 247 239 231 222 198 189 214 231 239 255 255 
255 255 255 255 255 255 247 239 239 231 231 231 231 222 206 189 173 
123  99  66  41  33  16  74 140 173 181 132  74  82  74  41  90  57  16 
  8   0   0   0   0   0   8   8   0   0   8   8   8   8   0   0   0 
  0   8   0   0   0   0   0   0   0   0   0   0   0   0   0   0   0   0 
  0   0   0   0   0   0   0   0   0   0
  0 
  0   0   0   0   0   0   0   0   0   0   0   0   0   0   0   0   0 
  0   0   0   0   0   0   0   0   0   0   0   0   0   0   8   8   0   0 
  0   0   0   0   0   0   8  74 123  82 189 123  90  99 140 165  99 
 24  57  82  49  74 107 123 156 181 181 189 198 189 189 198 206 206 206 
214 231 239 239 247 247 239 239 231 206 198 173 173 189 206 222 231 
231 214 198 206 206 214 214 198 198 206 198 206 206 206 222 214 214 206 
181 173 148  99  90  82 123 214 247 222 222 222 214 214 231 222 231 
239 231 231 222 231 231 222 239 239 231 239 231 222 231 231 231 222 231 
206 123  66  66 123 173 181 214 231 231 239 239 222 222 214 206 206 
214 206 198 206 214 231 247 239 239 231 222 206 181 198 231 231 247 255 
255 255 255 255 255 247 231 231 231 222 214 214 214 231 214 181 181 
132  99  82  49  49  24  66 140 173 181 140  90  82  99  66  99  57   8 
  8   0   0   0   0   0   0   0   0   8   0   0   0   0   8   8   8 
  0   0   0   0   0   0   0   0   0   0   0   0   0   0   0   0   0   0 
  0   0   0   0   0   0   0   0   0   0
  0 
  0   0   0   0   0   0   0   0   0   0   0   0   0   0   0   0   0 
  0   0   0   0   0   0   0   0   0   8  16   0   0   0   0   0  16   8 
  8   0   8   0   0   0   8  57 115  90 173 123 107  82 132 156  82 
 24  49  99  41  82 107 115 156 181 198 206 189 189 189 181 198 206 206 
206 231 247 239 247 247 239 239 231 206 181 181 181 198 198 214 231 
222 206 189 198 206 189 198 206 189 198 198 198 198 198 214 214 198 189 
165 173 140  57  66  82 115 214 239 214 222 222 214 222 222 231 231 
231 239 231 231 231 239 231 231 231 231 231 231 231 222 231 247 247 231 
189 115  66  74 123 173 198 222 231 231 231 231 231 222 214 206 189 
181 189 198 206 214 222 231 231 239 239 231 206 189 189 214 231 239 255 
255 255 247 255 255 231 231 231 222 222 222 222 206 214 206 189 181 
132 107  90  49  49  33  66 140 181 189 140  90  82  99  49  82  66   8 
  0   0   8   0   0   8   0   8   0   8   0   0   0   0   0   0   0 
  8   0   0   0   0   0   0   0   0   0   0   0   0   0   0   0   0   0 
  0   0   0   0   0   0   0   0   0   0
  0 
  0   0   0   0   0   0   0   0   0   0   0   0   0   0   0   0   0 
  0   0   0   0   0   0   0   0   8   0   0   0   8   0   0   0   8   8 
  0   0   0   0   0   0   8  49 123  99 165 140 115  99 148 173  82 
 24  57 115  41  57 115 140 148 181 198 198 198 198 189 181 189 198 206 
206 214 239 239 239 247 247 231 214 198 189 181 181 189 206 222 231 
231 206 189 189 189 198 198 189 189 181 189 189 189 206 214 198 198 181 
165 165 115  74  82  90 107 173 222 214 222 231 222 222 231 231 222 
231 222 222 222 222 222 231 239 231 239 231 222 231 231 231 239 231 214 
148  90  90  90 123 173 189 206 214 214 222 222 222 214 189 189 206 
206 198 206 206 206 214 231 239 247 239 222 214 198 181 198 231 231 231 
255 255 255 255 247 231 222 214 214 214 222 231 222 214 198 173 156 
132 123 107  57  99  66  57 140 189 189 156  99  90  99  57  90  90  16 
  8   0   0   0   0   0   8   0   0   0   8   0   8   0   0   0   0 
  0   0   0   0   0   0   0   0   0   0   0   0   0   0   0   0   0   0 
  0   0   0   0   0   0   0   0   0   0
  0 
  0   0   0   0   0   0   0   0   0   0   0   0   0   0   0   0   0 
  0   0   0   0   0   0   0   0   0   0   0   0   0   0   0   0   8   0 
  0   0   0   8   8   0   0  49 123  99 181 148 115  74 132 156  74 
 16  66 107  33  57 115 123 140 181 198 198 189 198 206 198 198 206 206 
206 206 231 239 239 239 247 231 206 198 181 181 189 189 206 231 231 
222 206 189 189 189 189 198 198 198 181 181 189 198 214 206 189 181 181 
165 140 107 132 115  99 115 148 189 239 231 222 231 222 214 214 231 
239 231 222 222 231 239 222 231 222 222 222 222 231 231 222 231 214 165 
115  99 115  99 115 165 181 198 214 214 214 222 214 206 198 206 206 
206 214 214 206 206 214 214 231 255 247 231 214 214 198 189 198 222 239 
255 255 255 247 222 206 206 206 206 206 206 206 198 198 189 165 156 
132 132  99  57 115  74  41 132 189 173 140  99  82  82  57 107  74   8 
  8   0   0   0   8   0   0   0   0   0   8   8   0   0   8   0   0 
  0   0   0   0   0   0   0   0   0   0   0   0   0   0   0   0   0   0 
  0   0   0   0   0   0   0   0   0   0
  0 
  0   0   0   0   0   0   0   0   0   0   0   0   0   0   0   0   0 
  0   0   0   0   0   0   0   0   0   8   8   8   0   8   0   8   0   0 
  0   0   0   0   0   0   8  41 123  90 165 148 123 107 148 165  74 
  8  49  82  24  33 107 123 132 165 181 198 206 189 198 206 206 206 206 
206 214 231 247 247 247 239 222 198 181 173 181 198 206 231 247 231 
214 198 198 189 189 198 189 189 189 181 181 181 181 198 198 198 189 173 
165 140 115 140 140  90  82 123 156 189 222 222 222 222 214 222 222 
222 231 231 231 231 222 231 231 222 222 214 214 222 222 231 214 181 156 
107 107 123  82 115 181 181 198 214 214 222 222 222 214 198 214 214 
206 206 206 206 206 214 214 214 239 255 239 222 206 222 206 181 198 222 
239 255 255 255 222 214 206 173 165 156 148 156 165 156 165 173 156 
140 148 107  49  90  74  24 115 173 189 156 115  90 107  74 107  82   8 
  8   0   8   8   0   8   8   0   0   0   8   0   0   0   8   8   0 
  0   0   0   0   0   0   0   0   0   0   0   0   0   0   0   0   0   0 
  0   0   0   0   0   0   0   0   0   0
  0 
  0   0   0   0   0   0   0   0   0   0   0   0   0   0   0   0   0 
  0   0   0   0   0   0   0   0   0   0   0   0   0   0   0   8  16   8 
  0   0   0   0   0   0   8  33 107 107 156 156 132 107 123 156  82 
  8  33  66  33  33  90 132 148 173 189 198 198 198 206 206 206 198 206 
206 206 231 247 247 231 222 214 198 173 165 189 198 206 222 231 231 
214 198 198 198 198 189 198 189 189 198 189 181 206 206 189 189 181 173 
148 132 140 156 148 115  82  99 132 156 198 222 214 214 222 214 222 
231 222 231 239 239 231 222 222 222 222 222 222 222 222 206 189 156 115 
 99 123 107  90 140 165 165 189 198 214 214 222 239 222 214 222 214 
206 214 214 206 206 198 198 214 231 247 239 231 231 214 206 206 198 206 
231 255 255 247 231 206 198 206 206 206 198 198 189 181 173 173 156 
156 165  90  57 115  74  24 123 189 198 148 115  74 107  90 115  82   8 
  8   0   8   0   8   8   0   0   0   0   0   0   0   0   8   0   8 
  0   0   0   0   0   0   0   0   0   0   0   0   0   0   0   0   0   0 
  0   0   0   0   0   0   0   0   0   0
  0 
  0   0   0   0   0   0   0   0   0   0   0   0   0   0   0   0   0 
  0   0   0   0   0   0   0   0   0   0   8   8   8   0   0   0   0   0 
  0   0   0   8   0   0   0  33  99 115 148 198 140 123 123 148  66 
  8  24  66  41  33  90 123 140 156 173 189 206 198 206 206 198 198 206 
214 222 222 231 247 231 214 206 181 165 165 181 189 206 222 222 222 
214 206 198 189 189 198 198 198 189 198 206 198 198 198 198 181 165 173 
148 140 165 165 173 148  82  82  90 107 181 222 206 206 214 222 222 
222 222 222 222 222 239 239 231 214 214 214 206 214 214 189 156 132 165 
148  99 115 140 148 173 173 181 198 214 214 222 222 222 214 214 214 
214 206 206 198 198 198 206 222 231 247 255 247 239 231 214 214 206 214 
239 255 255 255 239 222 214 214 214 214 222 222 214 198 181 165 165 
173 156  66  74 123  57  33 107 181 173 132 115  99 107  66 123  74   8 
  0   8   8   0   8   0   0   0   8   8   0   0   8   0   0   0   0 
  8   0   0   0   0   0   0   0   0   0   0   0   0   0   0   0   0   0 
  0   0   0   0   0   0   0   0   0   0
  0 
  0   0   0   0   0   0   0   0   0   0   0   0   0   0   0   0   0 
  0   0   0   0   0   0   0   0   0   0   0   0   0   8   0   0   0   8 
  0   0   0   0   8   0   0  16  90 123 115 181 107 123 140 148  66 
  8  41  74  41  24  90 123 132 156 173 181 198 206 206 206 198 206 214 
206 222 231 231 247 231 214 206 181 165 181 189 189 189 214 239 239 
231 214 206 198 198 198 198 198 189 181 181 181 189 189 189 181 156 148 
148 165 181 181 189 181 132 115  99  74 132 214 214 214 222 222 222 
222 231 231 222 222 239 222 222 231 231 222 214 214 214 165 132 156 156 
107 115 156 165 173 189 189 198 206 206 214 222 222 214 222 206 198 
206 206 198 198 198 198 198 214 239 247 255 255 239 231 222 206 214 222 
231 255 255 255 255 231 222 214 206 214 214 222 214 222 222 181 173 
173 123  41  24  74  33  24  99 181 181 148 123  90 132  90 115  66   8 
  8   0   0   0   8   0   0   0   0   0   0   0   0   0   0   8   0 
  0   8   0   0   0   0   0   0   0   0   0   0   0   0   0   0   0   0 
  0   0   0   0   0   0   0   0   0   0
  0 
  0   0   0   0   0   0   0   0   0   0   0   0   0   0   0   0   0 
  0   0   0   0   0   0   0   0   0   8   0   0   0   0   0   0   8   8 
  0   8   0   8   0   0   0  16  90 148 115 173 123 115 115 140  74 
  8  41  74  57  24  49  99 123 156 181 198 206 206 214 206 206 214 222 
214 206 222 239 239 239 222 214 206 189 198 198 198 198 214 239 231 
231 222 214 214 214 198 198 198 189 189 189 189 173 181 181 173 156 132 
140 173 173 181 189 198 189 165 132  82 123 214 231 214 222 231 239 
222 222 231 214 222 231 231 231 222 222 206 214 231 198 140 115  99 115 
165 189 189 181 181 198 189 189 206 206 198 198 198 198 206 206 198 
181 189 198 189 198 206 206 214 239 247 255 247 231 222 222 214 206 214 
239 247 255 255 247 247 239 231 231 231 231 222 214 214 214 198 156 
132 115  57  24  41  33  16  82 173 181 123  99 123 148  74 123  74   8 
  0   0   0   0   8   0   8   0   8   8   8   0   0   0   8   8   0 
  0   0   0   0   0   0   0   0   0   0   0   0   0   0   0   0   0   0 
  0   0   0   0   0   0   0   0   0   0
  0 
  0   0   0   0   0   0   0   0   0   0   0   0   0   0   0   0   0 
  0   0   0   0   0   0   0   0   0   0   8   0   0   8   0   0   8   8 
  0   0   0   0   8   0   8  16  74 132 107 189 115 115 132 148  74 
  8  24  57  66  41  33  74 115 148 165 181 198 206 206 206 206 198 198 
198 189 198 214 231 231 231 214 214 206 181 173 181 181 214 231 222 
231 231 222 214 198 206 206 189 189 156 115 148 189 189 189 173 148 148 
165 189 173 165 198 206 189 198 198 156 140 198 222 206 222 222 231 
247 231 222 222 222 222 231 231 231 214 214 214 222 198 115  66 115 189 
206 198 181 181 181 181 189 189 189 198 198 198 198 189 189 189 189 
189 189 198 189 198 206 214 222 231 247 239 222 214 206 206 206 206 222 
247 255 255 255 255 255 255 247 239 231 222 222 222 231 231 214 173 
132  99  66  24  24   8  16  82 173 156 107  90 123 156  99 140  66   8 
  8   0   8   0   0   0   0   0   0   8   0   0   0   0   0   8   0 
  0   0   0   0   0   0   0   0   0   0   0   0   0   0   0   0   0   0 
  0   0   0   0   0   0   0   0   0   0
  0 
  0   0   0   0   0   0   0   0   0   0   0   0   0   0   0   0   0 
  0   0   0   0   0   0   0   0   0   8   0   0   0   8   8   8   8   0 
  0   0   8   8   8   0   0   8  57 123 107 198 132 123 132 140  82 
  8   8  41  66  41  24  57 107 156 173 181 189 198 206 198 189 181 181 
173 165 181 206 222 239 239 231 214 198 181 181 181 198 214 222 222 
222 214 222 231 222 206 206 198 189 181 132 123 173 206 189 156 165 173 
173 181 173 181 189 189 206 198 198 198 148 165 214 222 206 222 231 
222 239 214 140 165 231 222 239 231 198 214 214 214 148  90 132 189 206 
214 189 198 189 173 181 189 198 206 198 198 189 181 181 181 198 189 
198 198 189 198 206 206 206 214 247 255 239 222 206 206 214 206 214 222 
239 247 247 255 255 255 255 255 247 239 247 239 222 222 231 222 214 
156  74  41  33  24  16   8  82 189 165 107  90 156 173 107 140  49   8 
  8   8   0   8   0   8   8   0   0   0   0   0   0   0   0   8   0 
  0   0   0   0   0   0   0   0   0   0   0   0   0   0   0   0   0   0 
  0   0   0   0   0   0   0   0   0   0
  0 
  0   0   0   0   0   0   0   0   0   0   0   0   0   0   0   0   0 
  0   0   0   0   0   0   0   0   0   0   8   8   0   0   0   0   0   0 
  0   0   0   0   0   0   0   0  49 123  99 181 148 107 123 132  74 
  8  24  49  33  24  16  41  99 156 165 165 165 165 165 156 156 165 148 
148 156 173 198 222 239 231 214 206 173 156 181 198 214 231 231 214 
206 214 214 214 231 222 206 198 189 198 173 165 173 140 140 165 173 181 
173 173 173 173 181 198 198 198 189 198 189 148 156 198 214 214 214 
214 165  99  66  99 189 222 222 214 222 222 206 148 115 173 214 206 206 
214 198 198 189 173 165 173 173 173 181 189 181 181 181 173 181 198 
198 198 189 198 214 206 214 214 231 239 214 206 206 206 222 222 222 239 
247 247 239 239 247 247 247 247 247 239 239 247 239 231 222 214 214 
181  90  33  24  24  24  16  90 173 156  99  90 140 115 115 140  49   8 
  0   8   8   8   0   0   0   0   8   8   0   0   0   0   0   0   0 
  0   0   0   0   0   0   0   0   0   0   0   0   0   0   0   0   0   0 
  0   0   0   0   0   0   0   0   0   0
  0 
  0   0   0   0   0   0   0   0   0   0   0   0   0   0   0   0   0 
  0   0   0   0   0   0   0   0   0   8   0   0   0   0   8   8   8   0 
  0   0   0   0   0   0   0   0  41 115 107 165 156 107 140 132  82 
  8  33  33   8  33  33  24  82 156 156 148 140 132 132 148 156 173 173 
181 189 181 206 231 247 231 206 181 156 165 189 198 198 214 231 231 
214 206 206 206 214 214 214 214 198 189 189 189 173 148 140 156 173 181 
181 165 148 181 189 189 206 222 214 198 206 206 165 165 189 198 214 
173  82  66  74  57  74 156 222 214 206 198 165 140 189 206 206 214 214 
198 198 206 206 189 173 156 148 156 181 198 206 206 198 189 198 198 
198 198 206 214 214 214 231 247 239 239 214 206 198 198 222 222 231 247 
239 231 222 222 231 239 239 239 239 239 231 247 247 239 231 214 222 
198  99  41  16  16  16   8  90 173 148  99  90 156 132 115 140  41  16 
  8   0   0   0   0   0   8   8   0   0   0   8   8   8   0   0   0 
  0   0   0   0   0   0   0   0   0   0   0   0   0   0   0   0   0   0 
  0   0   0   0   0   0   0   0   0   0
  0 
  0   0   0   0   0   0   0   0   0   0   0   0   0   0   0   0   0 
  0   0   0   0   0   0   0   0   0   0   0   0   0   0   0   0   0   0 
  0   8   0   0   0   0   0   8  24  99 115 123 165  99 123 132  82 
  8  24  16   8  16  24  16  41 115 148 140 148 156 173 189 181 189 198 
198 198 198 222 239 239 231 214 198 181 181 189 189 198 206 214 222 
222 222 206 206 214 214 206 206 214 206 189 198 189 165 165 173 181 181 
181 173 156 165 189 198 206 214 206 189 198 206 189 156 165 181 173 
132  90  74  74  82  99 115 165 198 173 148 156 189 214 206 214 222 206 
206 206 206 198 198 181 156 156 181 198 198 198 206 206 206 206 206 
214 214 222 222 214 214 231 231 239 239 222 206 198 206 214 214 239 239 
231 214 206 214 231 231 231 231 222 222 239 247 247 239 231 222 222 
189  99  33  16  24  24   8  90 173 140 107 132 214 115 132 132  49   8 
  0   8   8   0   8   8   8   0   0   8   0   8   0   0   0   0   0 
  8   8   0   0   0   0   0   0   0   0   0   0   0   0   0   0   0   0 
  0   0   0   0   0   0   0   0   0   0
  0 
  0   0   0   0   0   0   0   0   0   0   0   0   0   0   0   0   0 
  0   0   0   0   0   0   0   0   0   8   8   0   0   0   0   0   8   0 
  0   8   8   0   0   0   0   0  16  90 132 107 148  99 107 115  90 
 16  16  33   8  24  41  24  41  82 123 156 181 189 189 189 198 198 198 
206 222 231 239 231 239 231 222 206 189 181 189 189 189 198 198 206 
214 214 206 206 206 206 214 214 214 206 198 189 181 165 173 181 181 181 
189 189 173 148 173 198 206 214 214 198 198 206 189 156 156 173 156 
123 107 132 132 123 123 123 148 181 165 156 181 198 206 206 206 206 206 
206 206 206 206 198 189 165 181 214 206 206 214 206 222 222 214 214 
222 222 214 222 231 239 239 231 239 247 222 214 189 189 206 214 222 231 
222 214 206 214 231 222 222 231 231 239 231 231 239 231 231 222 214 
173  90  33   8  16  41  16  99 165 123 107 123 198 107 140 123  41   8 
  0   8   8   0   0   0   0   0   0   0   8   0   0   0   0   0   0 
  0   0   0   0   0   0   0   0   0   0   0   0   0   0   0   0   0   0 
  0   0   0   0   0   0   0   0   0   0
  0 
  0   0   0   0   0   0   0   0   0   0   0   0   0   0   0   0   0 
  0   0   0   0   0   0   0   0   0   8   0   0   0   0   8   8   0   0 
  0   0   0   0   0   8   0   0   8  74 132  99 132  90  90 115  90 
  8  16  41  24  24  33  24  41  49 115 173 189 189 198 206 214 214 231 
239 231 231 239 239 231 239 231 206 198 181 181 189 189 181 173 198 
222 214 206 198 181 198 189 198 206 198 206 198 173 165 156 173 189 198 
198 181 181 165 156 198 214 206 214 206 198 198 181 156 140 148 148 
140 148 156 165 156 140 123 132 140 165 189 214 214 214 222 214 214 206 
214 214 198 198 189 165 173 198 198 206 214 222 222 222 222 222 214 
222 222 231 239 231 231 231 231 239 247 231 214 198 198 198 206 214 214 
214 206 206 214 231 239 239 231 231 231 231 231 222 214 214 214 198 
140  74  41  16  24  24  16  99 173 140 123 148 198  82 140 115  24   8 
  8   8   0   8   8   8   8   8   0   0   0   0   0   8   8   0   0 
  0   0   0   0   0   0   0   0   0   0   0   0   0   0   0   0   0   0 
  0   0   0   0   0   0   0   0   0   0
  0 
  0   0   0   0   0   0   0   0   0   0   0   0   0   0   0   0   0 
  0   0   0   0   0   0   0   0   0   0   0   0   8   0   0   0   0   8 
  0   0   0   0   0   0   8   0   0  41 132 107 132 107  90 123 115 
 33   8  24  16   8  16  24  41  41 107 181 206 206 206 206 231 231 231 
239 239 222 214 214 214 231 231 222 206 198 189 189 189 181 181 198 
222 231 214 189 206 222 214 206 198 189 189 189 181 173 165 181 198 198 
198 189 189 181 173 173 198 206 214 222 214 206 214 189 165 173 148 
140 181 198 189 198 198 173 148 165 198 206 206 214 214 214 214 222 214 
222 222 189 173 173 165 181 189 198 206 214 214 214 222 231 231 239 
239 239 239 231 239 239 231 239 247 247 239 222 206 198 198 206 214 206 
206 214 214 231 231 231 231 222 222 222 214 206 214 206 214 214 165 
107  49  16   8  24  16  16 115 173 123  82 148 198  99 156 115  24   8 
  0   8   8   8   0   0   8   0   0   8   0  16   8   0   0   0   0 
  0   0   0   0   0   0   0   0   0   0   0   0   0   0   0   0   0   0 
  0   0   0   0   0   0   0   0   0   0
  0 
  0   0   0   0   0   0   0   0   0   0   0   0   0   0   0   0   0 
  0   0   0   0   0   0   0   0   0   8   8   8   8   8   0   0   0   0 
  8   8   8   0   0   0   0   0   0  24 123 123 115 132  90 123 115 
 41   8  16  16   8  16  16  24  41 115 181 206 206 214 231 222 214 222 
214 206 206 189 189 189 198 206 214 214 214 198 189 181 173 173 189 
206 222 222 214 222 214 206 214 206 206 198 189 189 156 165 198 206 198 
189 181 181 189 173 165 198 222 214 222 214 214 214 189 198 214 198 
198 206 206 206 198 198 214 198 165 181 206 206 206 214 214 214 206 214 
222 214 214 189 173 181 173 198 214 198 214 222 214 222 214 222 231 
239 239 239 239 239 231 231 239 247 239 231 231 214 198 181 198 206 198 
198 198 206 231 239 231 239 222 222 214 198 206 206 214 214 165 115 
 74  41   8   8  33  16  24 123 181 115  90 165 173  82 156 107  16   0 
  0   8   8   0   0   8   8   0   0   0   0   0   0   0   0   0   0 
  0   0   0   0   0   0   0   0   0   0   0   0   0   0   0   0   0   0 
  0   0   0   0   0   0   0   0   0   0
  0 
  0   0   0   0   0   0   0   0   0   0   0   0   0   0   0   0   0 
  0   0   0   0   0   0   0   0   0   0   0   0   0   0   8   8   0   0 
  0   8   0   0   0   0   0   0   0   8 107 132 115 173 107 115 123 
 66   8   8  16   8   8   8  33  57  99 165 189 214 214 198 206 206 206 
198 181 173 173 181 189 189 198 198 206 222 206 198 181 173 181 198 
206 206 222 214 206 222 214 214 214 206 206 198 181 173 165 181 206 206 
198 189 189 189 198 181 165 206 214 222 231 206 214 214 189 214 214 
198 206 206 198 198 206 222 214 181 189 214 206 206 222 214 206 214 222 
222 222 198 181 198 198 189 198 189 198 214 206 214 214 214 222 214 
231 239 239 239 231 239 231 214 214 222 222 231 222 214 206 181 181 189 
189 206 231 239 239 231 222 222 206 198 206 214 206 214 189 140  99 
 66  66  33   8  33  16  24 132 165 107  90 181 165 115 165  90  24   8 
  0   8   8   0   8   0   0   0   0   0   0   0   0   8   8   0   0 
  0   0   0   0   0   0   0   0   0   0   0   0   0   0   0   0   0   0 
  0   0   0   0   0   0   0   0   0   0
  0 
  0   0   0   0   0   0   0   0   0   0   0   0   0   0   0   0   0 
  0   0   0   0   0   0   0   0   8   8   8   8   8   0   8   0   0   0 
  0   0   0   0   0   0   0   0   0   8  74 140  99 140 107 107 107 
 82   8  16  33   8   8  24  24  49  90 156 173 189 214 206 198 198 189 
189 181 181 189 189 181 181 181 181 198 198 214 214 181 181 181 189 
198 206 222 222 214 222 214 206 214 214 198 198 198 181 165 181 198 206 
206 206 189 181 206 189 165 198 206 206 222 222 222 214 206 206 214 
214 222 222 222 222 222 214 214 206 198 198 206 222 222 206 206 231 222 
214 206 181 198 214 198 198 198 189 198 206 206 198 198 214 206 206 
214 214 222 214 214 214 198 206 206 214 231 222 214 206 189 189 189 198 
206 206 214 239 239 231 214 198 198 198 206 214 206 198 173 123  90 
 99 115  41  16  24  16  41 148 156 115 115 222 148 148 148  74  24  16 
  8   8   8  16   8   8   8   0   8   0   0   0   0   0   0   0   0 
  0   0   0   0   0   0   0   0   0   0   0   0   0   0   0   0   0   0 
  0   0   0   0   0   0   0   0   0   0
  0 
  0   0   0   0   0   0   0   0   0   0   0   0   0   0   0   0   0 
  0   0   0   0   0   0   0   0   0   8   0   0   8   0   8   0   0   0 
  0   0   0   0   0   0   0   0   8   8  57 140 107 123 123 107 123 
 82  24  24  24  16  24  66  41  49  82 132 173 189 198 198 198 189 189 
198 181 189 206 198 198 189 173 173 181 189 206 214 206 189 181 189 
198 206 222 222 222 214 206 214 222 206 198 189 189 189 181 189 189 198 
198 189 189 189 198 214 181 165 206 214 214 222 206 206 214 214 214 
214 214 222 206 214 222 214 222 214 206 206 206 222 222 222 231 231 214 
214 198 206 214 214 214 206 198 198 198 198 198 189 181 189 206 214 
222 214 214 206 189 198 198 198 214 222 214 214 206 206 206 189 198 222 
222 231 231 239 231 214 206 198 206 214 214 214 198 181 165 115  74 
 82 115  41  24  33  16  49 140 140  90 132 214 115 148 140  49   8   0 
  8   0   0   0   8   8   0   0   0   0   0   0   0   0   8   8   0 
  8   0   0   0   0   0   0   0   0   0   0   0   0   0   0   0   0   0 
  0   0   0   0   0   0   0   0   0   0
  0 
  0   0   0   0   0   0   0   0   0   0   0   0   0   0   0   0   0 
  0   0   0   0   0   0   0   0   0   0   0   0   0   8   0   8   0   8 
  8   0   0   8   0   0   0   0   8   0  16  99 123 115 181  99  99 
 82  33  24  33  24  16  74  66  24  49 107 148 173 181 173 198 214 206 
206 206 198 206 206 198 198 181 173 181 189 198 206 189 181 181 181 
198 214 222 222 222 214 206 206 198 198 198 198 198 181 165 189 198 189 
206 206 198 189 181 198 206 181 189 214 214 231 222 198 198 198 206 
214 198 206 206 214 214 206 206 198 198 206 214 222 206 206 222 222 214 
198 198 214 206 214 206 189 206 206 198 214 198 198 198 173 189 189 
181 189 181 198 198 198 214 222 222 239 222 214 206 189 181 189 198 214 
222 239 247 247 231 214 214 198 206 214 214 222 206 189 165 115  74 
 66 107  49  16  33  16  66 165 148  90 140 189  99 140 132  41  16   0 
  8   0   0   0   0   0   8   0   0   0   0   0   8   8   0   0   0 
  0   0   0   0   0   0   0   0   0   0   0   0   0   0   0   0   0   0 
  0   0   0   0   0   0   0   0   0   0
  0 
  0   0   0   0   0   0   0   0   0   0   0   0   0   0   0   0   0 
  0   0   0   0   0   0   0   0   0   0   8   0   0   0   0   8   8   8 
  0   0   0   0   0   0   0   0   0   0   8  74 140  90 181 140 107 
 82  41  33  41  33  16  90  90  16  33  82 123 148 181 189 181 198 198 
198 206 214 206 214 214 206 198 181 173 189 198 198 189 189 189 198 
198 214 222 214 206 214 189 181 189 189 198 189 189 189 173 189 206 189 
181 189 198 189 189 206 222 198 173 189 222 222 222 214 198 206 206 
206 206 206 214 206 206 214 214 206 206 206 222 222 222 231 222 222 206 
189 206 214 214 231 214 198 198 189 181 173 165 165 173 173 156 148 
165 181 189 198 198 214 222 231 239 239 239 231 214 206 198 198 214 231 
239 239 247 239 214 214 214 214 222 222 222 206 181 173 148 107  74 
 82 115  41  24  24  24  82 156 132  82 148 189 115 156 115  33   8   0 
  0   8   8   0   0   0   0   0   8   0   0   8   8   0   0   0   0 
  0   0   0   0   0   0   0   0   0   0   0   0   0   0   0   0   0   0 
  0   0   0   0   0   0   0   0   0   0
  0 
  0   0   0   0   0   0   0   0   0   0   0   0   0   0   0   0   0 
  0   0   0   0   0   0   0   0   0   0   0   0   0   8   8   8   0   0 
  0   8   8   0   0   8   0   0   0   0   8  57 123 107 148 189 115 
123  41  24  49  33  16  90  99  33  16  49  82 132 165 189 198 198 206 
198 198 214 206 198 214 206 198 189 173 173 181 198 181 132 148 189 
206 206 214 222 222 198 181 189 206 198 189 189 189 181 165 173 198 206 
198 181 189 198 189 198 214 214 198 165 189 222 231 239 222 198 198 
189 189 189 173 173 198 206 198 206 222 222 214 214 222 214 214 206 189 
198 222 222 214 214 214 222 198 181 181 189 189 189 198 189 165 181 
198 198 198 206 214 231 231 231 247 247 239 239 222 206 206 206 214 231 
239 239 247 247 239 231 231 222 222 222 214 198 181 156 107  74  57 
 90 132  41  24  16  33  99 156 115  99 181 173 115 165 115  24   8   0 
  0   0   0   0   0   0   8   8   8   8   0   8   8   0   8  16   8 
  0   0   0   0   0   0   0   0   0   0   0   0   0   0   0   0   0   0 
  0   0   0   0   0   0   0   0   0   0
  0 
  0   0   0   0   0   0   0   0   0   0   0   0   0   0   0   0   0 
  0   0   0   0   0   0   0   0   0   0   8   8   8   0   0   0   0   0 
  0   0   0   0   0   0   0   0   0   0   0  24 115 123 115 214 173 
115  82  33  49  41  33  99 123  82  24  24  49  99 132 165 181 173 173 
198 206 206 214 222 222 214 206 198 189 173 165 165 156 140 148 181 
198 206 214 214 206 206 198 198 206 206 198 206 206 181 148 156 198 206 
189 181 181 198 198 189 206 214 222 198 165 198 214 214 222 214 206 
206 206 206 189 189 198 198 206 206 214 214 206 214 231 222 222 189 181 
214 222 239 231 206 214 189 173 189 181 181 206 214 214 189 181 198 
198 206 214 206 222 231 239 239 231 222 231 239 222 198 198 206 214 231 
247 239 239 247 239 222 214 222 222 214 214 198 173 132  82  66  49 
115 140  41  33  49  41 107 140 115 115 214 148 123 156  90  16   8   8 
  0   0   8   0   0   0   8   0   0   0   0   0   8   0   0   8   0 
  0   0   0   0   0   0   0   0   0   0   0   0   0   0   0   0   0   0 
  0   0   0   0   0   0   0   0   0   0
  0 
  0   0   0   0   0   0   0   0   0   0   0   0   0   0   0   0   0 
  0   0   0   0   0   0   0   0   0   0   0   8   0   8   8   0   8   8 
  0   0   0   8   8   8   8   0   0   0   8  16  82 140  99 173 222 
107 115  57  49  33  16  74 123  74  24  16  24  57  99 156 198 173 173 
198 198 189 189 198 206 206 214 206 189 181 165 173 189 189 181 165 
173 198 206 222 222 206 206 206 206 206 198 198 189 189 156 156 189 206 
198 181 173 181 198 198 198 214 214 214 214 181 198 239 222 214 214 
206 214 214 206 214 222 222 206 222 231 206 222 231 222 214 189 189 206 
214 222 222 206 214 206 181 181 189 189 189 206 206 206 206 214 214 
206 222 239 231 214 222 231 222 214 214 222 231 231 214 214 214 222 247 
239 231 231 239 239 222 214 222 214 206 198 173 132  90  57  49  49 
123 132  24  24  41  66 123 140  99 173 214 123 140 156  57   8   8   0 
  0   0   0   8   8   0   0   0   0   0   0   0   8   8   0   0   0 
  0   0   0   0   0   0   0   0   0   0   0   0   0   0   0   0   0   0 
  0   0   0   0   0   0   0   0   0   0
  0 
  0   0   0   0   0   0   0   0   0   0   0   0   0   0   0   0   0 
  0   0   0   0   0   0   0   0   0   0   0   8   8  16   8   0   0   0 
  0   8   0   0   0   0   8   0   0   8   8   8  49 123 123 132 206 
123 115  99  41  33  16  57  99  66  33  24  24  16  33  82 123 165 181 
173 165 165 181 189 181 214 231 222 206 189 198 198 198 189 189 173 
173 181 198 206 222 222 214 214 206 198 198 198 189 189 165 140 181 206 
206 206 189 189 189 181 214 214 206 214 206 198 181 189 231 231 214 
214 206 206 206 206 206 206 222 222 214 222 231 214 206 198 189 198 214 
214 222 214 214 206 189 189 181 198 206 198 198 206 206 206 214 214 
222 231 239 222 214 214 222 214 198 198 214 231 231 206 214 214 206 222 
231 231 231 231 231 222 214 222 214 206 206 156 107  82  57  33  41 
132 123  33  24  41  90 132 115  90 198 206 115 156 132  49  16   8   0 
 16   8   0   0   0   0   0   8   8   8   0   0   0   0   0   8   0 
  0   0   0   0   0   0   0   0   0   0   0   0   0   0   0   0   0   0 
  0   0   0   0   0   0   0   0   0   0
  0 
  0   0   0   0   0   0   0   0   0   0   0   0   0   0   0   0   0 
  0   0   0   0   0   0   0   0   8   0   8   0   8   8   0   0   0   0 
  0   8   0   0   0   0   0   0   0   0   0   8  16 107 148  99 115 
173 140 115  74  24  16  24  66  66  41  16   8  33  33  66 115 156 156 
156 165 173 173 181 181 189 214 214 206 189 189 198 206 206 198 189 
181 173 198 214 222 214 206 214 214 214 206 189 189 189 181 165 165 181 
198 206 198 189 181 181 198 206 206 214 222 206 189 165 189 231 222 
206 206 198 198 198 198 214 222 222 222 222 222 214 198 189 206 214 231 
231 222 214 198 181 198 198 181 198 214 206 189 198 206 222 231 214 
206 222 231 222 222 222 222 214 206 206 214 239 239 214 214 214 222 222 
214 206 214 214 222 214 206 189 198 214 181 123  99  74  57  49 115 
132  82  16  33  49  90 140 156 123 198 198 132 156 115  24  16   8   8 
  8   8   0   8   8   0   0   0   8   8   0   0   0   0   0   0   0 
  0   0   0   0   0   0   0   0   0   0   0   0   0   0   0   0   0   0 
  0   0   0   0   0   0   0   0   0   0
  0 
  0   0   0   0   0   0   0   0   0   0   0   0   0   0   0   0   0 
  0   0   0   0   0   0   0   0   0   0  16   0   8   8   0   8   8   0 
  0   0   0   8   8   0   0   0   0   0   8   8   0  57 140 115  99 
198 231 132 123  57  16   8  16  49  57  41  33  33  41  66 123 156 165 
189 189 181 181 173 189 206 214 222 214 214 214 222 222 206 198 189 
173 181 206 214 214 214 206 214 206 198 198 198 189 181 173 173 165 173 
198 206 198 181 173 181 198 214 214 206 214 222 222 198 181 206 222 
214 214 206 206 214 206 206 214 222 222 231 214 198 198 206 206 222 231 
222 222 198 173 189 198 189 206 214 206 206 198 198 214 214 198 206 
214 214 222 222 231 214 198 206 198 198 214 231 239 222 214 222 222 222 
206 189 189 206 206 198 206 206 206 181 132 115 107  74  49  99 140 
107  57  16  33  41  90 115 115 156 247 148 132 165  99   8   8   0   0 
  8   8   8   8   0   0   0   0   8   0   0   0   8   8   0   0   0 
  0   0   0   0   0   0   0   0   0   0   0   0   0   0   0   0   0   0 
  0   0   0   0   0   0   0   0   0   0
  0 
  0   0   0   0   0   0   0   0   0   0   0   0   0   0   0   0   0 
  0   0   0   0   0   0   0   0  16   8   8   8   0   0   0   0   0   0 
  0   0   0   0   0   0   0   0   8   0   8   8   8   8 107 148  90 
140 214 156 123 132  33   8  16  24  16  49  66  41  33  74 115 173 181 
189 198 189 198 198 206 222 222 231 222 214 222 214 214 206 198 198 
189 181 189 198 214 214 214 214 198 198 198 198 198 189 173 181 173 165 
173 181 189 189 181 189 189 181 198 222 214 206 214 231 222 206 214 
222 206 206 198 206 214 214 222 231 214 206 189 189 198 206 231 231 222 
222 198 181 206 214 206 198 198 198 206 222 214 206 206 189 189 206 
214 222 222 231 231 222 214 206 198 198 198 222 231 222 214 214 222 214 
206 198 189 189 198 206 206 206 198 165 140 123  82  49  57 148 165 
 99  33  33  49  74 123 123 123 231 255 148 165 156  41   8   0   8   8 
  8   0   0   0   0   0   0   0   0   8   8   8   0   0   0   0   0 
  0   0   0   0   0   0   0   0   0   0   0   0   0   0   0   0   0   0 
  0   0   0   0   0   0   0   0   0   0
  0 
  0   0   0   0   0   0   0   0   0   0   0   0   0   0   0   0   0 
  0   0   0   0   0   0   0   0   8   0   0   0   8   0   0   0   0   0 
  0   0   8   0   0   8   0   8   0   0   8  16   8   8  66 140 115 
 90 148 173  99 173 115  24  16  16  16  41  66  66  24  24  90 173 181 
198 206 198 214 214 222 231 222 222 222 214 214 214 214 206 198 198 
181 173 189 206 206 206 214 214 198 189 189 189 189 189 198 198 181 189 
189 181 181 189 189 189 181 165 173 189 198 214 231 231 214 222 222 
231 231 214 214 222 222 231 222 206 189 198 206 206 222 231 222 222 214 
181 173 198 206 206 214 198 198 206 214 222 214 206 206 206 198 181 
189 206 222 231 231 214 222 222 198 189 206 222 231 231 214 222 222 214 
214 214 206 206 206 214 214 198 189 189 165 115  74  66  90 115 115 
 82  33  16  49  90 132 123 140 239 181 132 165 132  16  16   8   8   8 
  8   0   0   0   0   0   0   0   8   0   0   0   8   0   0   0   0 
  8   8   0   0   0   0   0   0   0   0   0   0   0   0   0   0   0   0 
  0   0   0   0   0   0   0   0   0   0
  0 
  0   0   0   0   0   0   0   0   0   0   0   0   0   0   0   0   0 
  0   0   0   0   0   0   0   0   8   0   8   0   0   0   0   8   8   8 
  0   0   0   0   0   0   0   8   8   8   0   0   0   0  24 115 140 
 99 123 198 148 140 156  66   8   0   8  24  41  57  33  24  57 148 189 
189 198 206 214 222 214 206 206 222 231 214 222 222 214 222 214 206 
181 173 189 206 222 222 198 198 206 198 198 189 181 181 181 198 189 173 
189 189 189 206 206 198 198 198 198 189 173 181 189 206 222 222 222 
222 222 222 231 222 222 214 206 198 198 214 231 231 214 214 222 206 156 
173 206 206 206 214 206 198 198 198 206 198 206 206 198 189 189 181 
181 206 222 214 231 222 206 214 189 181 206 222 222 231 231 222 222 214 
214 214 214 214 214 206 206 222 222 198 148  82  57  66 107 123  82 
 57  24  57  90 132 156 148 181 222 148 148 165  99  16   8   8   8   8 
  0   0   0   0   0   0   8  16   0   0   0   0   0   0   0   0   0 
  0   8   0   0   0   0   0   0   0   0   0   0   0   0   0   0   0   0 
  0   0   0   0   0   0   0   0   0   0
  0 
  0   0   0   0   0   0   0   0   0   0   0   0   0   0   0   0   0 
  0   0   0   0   0   0   0   0   0   0   0   0   0   0   0   0   0   0 
  0   0   0   0   8   8   0   0   0   0   0   0   0   0   8  57 140 
132 107 165 181  82 173 132  49   8   8  16  41  57  41  33  16  82 181 
198 198 206 206 206 198 181 189 198 206 214 222 222 222 222 214 198 
181 173 181 189 206 222 198 198 198 189 189 189 173 165 181 189 181 181 
181 181 189 189 198 206 198 198 198 206 198 189 189 181 189 206 206 
206 206 189 181 189 206 206 206 206 231 231 222 222 222 214 206 165 173 
214 222 214 214 206 198 198 198 181 189 214 206 189 198 214 214 214 
206 198 222 231 222 214 214 206 181 165 198 214 214 231 231 222 222 222 
214 222 222 214 214 214 222 222 206 173 123  74  57  74 115 107  74 
 49  16  57 115 156 148 173 247 189 115 148 148  41  16   0   0   8   0 
  0   0   0   0   0   0   0   0   0   0   0   0   8   0   0   0   0 
  0   0   0   0   0   0   0   0   0   0   0   0   0   0   0   0   0   0 
  0   0   0   0   0   0   0   0   0   0
  0 
  0   0   0   0   0   0   0   0   0   0   0   0   0   0   0   0   0 
  0   0   0   0   0   0   0   0   0   0   0   0   0   0   0   8   0   0 
  0   8   8   8   8   8   0   0   0   0   0   8   8   0   0  24 107 
148  99 115 189 165  99 156  90   8   8   8  16  41  41  41  24  41 115 
181 189 189 189 189 189 181 181 189 206 222 222 222 231 231 222 206 
181 181 189 206 214 214 214 214 206 198 189 198 189 165 173 189 189 189 
181 165 173 173 181 189 206 214 206 198 214 214 198 173 189 214 206 
214 222 214 214 214 214 214 231 231 231 231 222 206 206 189 156 173 214 
222 222 222 206 206 206 198 189 181 173 181 198 206 206 214 231 222 
222 222 222 222 222 222 214 214 189 165 189 214 214 214 214 214 222 214 
214 222 214 206 222 222 206 214 206 156  90  57  57  74  99  74  57 
 24  41  99 140 173 156 247 222 132 115 181 107  16   0   0   0   0   0 
  0   0   0   0   0   0   0   8   0   0   0   0   8   0   0   0   0 
  0   0   0   0   0   0   0   0   0   0   0   0   0   0   0   0   0   0 
  0   0   0   0   0   0   0   0   0   0
  0 
  0   0   0   0   0   0   0   0   0   0   0   0   0   0   0   0   0 
  0   0   0   0   0   0   0   0   0   0   0   0   8   0   0   0   0   8 
  0   0   0  16   8   0   0   8  16   0   0   0   0   0   0   0  57 
140 115  99 156 165  90 181 156  57   8   0   8  24  49  74  57  24  57 
140 189 189 189 189 181 181 181 198 206 198 206 214 222 222 206 206 
206 181 173 198 214 214 214 206 206 206 198 189 165 156 165 181 189 189 
198 198 189 181 181 181 181 198 214 206 189 206 231 222 214 222 214 
222 214 198 198 206 206 206 206 214 214 206 206 214 181 148 173 214 222 
222 214 206 206 206 206 206 206 189 165 173 198 206 214 222 222 222 
214 222 231 222 222 214 206 206 181 173 206 206 206 206 189 198 206 214 
214 206 222 231 214 206 189 165 156 115  57  49  66  82  74  57  24 
 16  49 123 165 148 181 247 165 123 148 148  57  16   8   0   8   0   0 
  0   0   8   0   0   0   0   0   0   0   0   0   0   8   0   0   0 
  0   8   0   0   0   0   0   0   0   0   0   0   0   0   0   0   0   0 
  0   0   0   0   0   0   0   0   0   0
  0 
  0   0   0   0   0   0   0   0   0   0   0   0   0   0   0   0   0 
  0   0   0   0   0   0   0   0   0   0   0   0   0   0   0   0   0   0 
  0   0   0   0   0   0   0   0   0   8   0   0   0   0   0   0  41 
123 132  90 115 189 165 132 181 107  24  16   8  24  57  66  74  66  33 
 74 140 165 173 165 156 181 189 198 198 189 206 206 206 206 198 206 
198 181 189 181 198 214 214 222 214 206 206 198 181 173 173 173 181 189 
181 198 206 181 173 173 181 181 189 206 214 214 206 206 214 206 206 
214 189 189 198 198 206 214 206 198 206 214 222 189 148 173 206 231 231 
214 198 198 198 206 206 198 181 189 181 173 198 214 214 222 231 214 
222 231 231 222 206 206 206 189 189 198 198 198 206 198 181 173 173 173 
198 231 239 214 189 189 165 140 132  74  49  82  99  82  74  49  16 
 24  90 173 165 115 173 222 148 115 165 132  41   8   8   8   8   0   8 
  0   0   8   0   0   0   0   0   0   0   0   0   0   0   0   0   0 
  0   0   0   0   0   0   0   0   0   0   0   0   0   0   0   0   0   0 
  0   0   0   0   0   0   0   0   0   0
  0 
  0   0   0   0   0   0   0   0   0   0   0   0   0   0   0   0   0 
  0   0   0   0   0   0   0   0   0   0   0   0   0   0   0   0   0   0 
  0   0   0   0   0   0   0   8   8   8   0   0   0   0   0   8  16 
 99 148 115 115 231 222 115 165 173  66  16   8   8  33  82  99 107  74 
 49  74 165 156 140 165 198 198 189 198 214 206 206 206 206 222 214 
206 198 173 173 189 198 214 222 206 206 206 206 206 181 165 165 156 173 
189 181 189 206 189 181 165 165 173 181 181 198 206 206 198 198 198 
214 206 189 189 206 206 206 206 214 206 189 156 140 181 214 222 222 206 
206 214 206 206 206 189 189 189 198 206 181 181 206 206 214 222 222 
231 239 239 222 214 198 189 198 222 231 214 206 206 206 206 181 148 173 
214 231 231 206 189 189 181 165 107  57  66 115  99  90  66  16  16 
 49 132 165 132 148 222 181 107 123 173  74   0   8   0   0   0   0   0 
  8   8   0   0   0   0   8   0   0   0   0   0   0   8   0   0   0 
  0   0   0   0   0   0   0   0   0   0   0   0   0   0   0   0   0   0 
  0   0   0   0   0   0   0   0   0   0
  0 
  0   0   0   0   0   0   0   0   0   0   0   0   0   0   0   0   0 
  0   0   0   0   0   0   0   0   0   0   0   0   0   0   0   0   0   8 
  8   0   8   0   0   0   8   0   0   0   0   0   0   0   8  16  16 
 49 132 156  99 132 214 206 115 165 123  41   8  16  41  90 123 156 140 
 74  33  74 123 132 165 198 181 189 206 198 189 198 214 214 222 222 
214 198 189 165 173 198 189 214 222 214 222 214 198 198 181 181 156 140 
156 181 189 189 189 189 173 148 156 173 189 198 206 206 206 206 198 
198 198 189 189 189 181 198 198 198 173 140 165 206 222 231 222 206 206 
198 198 198 189 181 189 198 198 206 214 198 189 206 214 206 222 231 
231 231 231 222 206 189 206 214 222 239 247 222 214 222 214 198 198 189 
189 198 206 198 173 173 181 140  57  41  90  90  90  74  33   0  24 
 90 156 165 156 214 247 165 115 173 165  41   0   8   0   0   0   0   0 
  0   0   0   0   0   0   8   0   8   8   0   0   8   0   8   0   0 
  0   0   0   0   0   0   0   0   0   0   0   0   0   0   0   0   0   0 
  0   0   0   0   0   0   0   0   0   0
  0 
  0   0   0   0   0   0   0   0   0   0   0   0   0   0   0   0   0 
  0   0   0   0   0   0   0   0   0   0   0   0   0   0   0   0   8   0 
  0   0   0   8   8   0   0   8   8   0   0   0   0   0   0   8   0 
 16  99 156 115  90 181 222 123 165 165  82  24   8  24  49  90 140 148 
132  99  41  49  90 148 181 181 198 206 206 214 214 206 214 214 222 
222 198 189 156 132 181 214 214 231 222 222 214 206 206 198 181 165 148 
165 181 189 189 181 181 189 165 148 156 165 173 181 189 198 206 206 
198 181 181 181 181 173 165 148 132 140 189 214 206 231 222 206 214 206 
214 214 173 156 173 189 206 214 214 214 214 189 189 206 206 206 222 
231 231 231 206 189 198 214 222 239 239 239 239 231 231 222 214 222 181 
156 189 198 189 173 173 181  99  33  49  82  82  74  74  33  16  66 
132 181 148 189 255 206 115 107 156  99  16   8   0   0   8   8   0   0 
  0   0   8   8   0   8   0   8   8   0   0   0   8   8   8   0   8 
  8   0   0   0   0   0   0   0   0   0   0   0   0   0   0   0   0   0 
  0   0   0   0   0   0   0   0   0   0
  0 
  0   0   0   0   0   0   0   0   0   0   0   0   0   0   0   0   0 
  0   0   0   0   0   0   0   0   8   8   8   0   0   0   8   8   8   0 
  0   0   8   0   0   8   0   0   0   0   8   0   0   8   8   0   8 
  0  49 132 148  90 140 214 206 115 181 132  41   8   8  33  74 115 148 
173 156  99  33  49 107 173 198 198 198 206 214 222 222 214 214 222 
214 189 189 181 156 181 206 214 222 222 214 214 214 222 214 206 181 148 
156 173 173 189 189 189 189 189 181 173 173 173 173 165 156 165 156 
140 148 165 165 156 140 140 140 165 198 214 231 231 214 222 214 198 206 
189 165 165 189 198 206 206 206 214 214 214 206 198 198 198 222 231 
231 231 231 222 222 222 231 231 239 239 239 239 231 231 239 222 206 189 
181 181 181 173 165 181 148  33  24 107 132  82  74  57  33  33 107 
173 173 140 222 255 148  99 165 165  57   8   8   0   0   0   8   8   8 
  0   0   0   0   0   0   0   8   0   0   0   0   0   8   8   8   0 
  0   0   0   0   0   0   0   0   0   0   0   0   0   0   0   0   0   0 
  0   0   0   0   0   0   0   0   0   0
  0 
  0   0   0   0   0   0   0   0   0   0   0   0   0   0   0   0   0 
  0   0   0   0   0   0   0   0   0   0   0   0   0   0   0   0   0   0 
  0   0   8   8   0   8   8   0   8   0   0   0   0   0   0   0   0 
  0  16  82 156 115  99 189 255 165 140 181 115  33   8  16  66  90 107 
148 181 173  99  33  49 148 189 189 206 214 214 214 214 214 214 214 
222 222 198 198 189 189 206 222 214 214 214 206 206 206 198 206 198 156 
156 173 173 165 156 165 173 173 173 181 189 181 173 173 165 148 156 
148 132 148 165 156 140 148 173 181 198 214 222 214 222 214 206 198 173 
165 173 165 189 214 214 214 198 198 206 198 189 181 189 198 206 222 
222 214 239 239 231 239 239 239 231 222 231 231 231 231 239 222 198 189 
181 165 165 165 173 165  74  16  82 132 115  99  57  24   8  49 148 
181 132 173 231 181 115 132 165 115  16   8   0   0   0   0   0   8   0 
  0   0   0   0   0   8   8   0   0   8   0   8   8   8   0   0   0 
  0   0   0   0   0   0   0   0   0   0   0   0   0   0   0   0   0   0 
  0   0   0   0   0   0   0   0   0   0
  0 
  0   0   0   0   0   0   0   0   0   0   0   0   0   0   0   0   0 
  0   0   0   0   0   0   0   0   0   0   0   0   8   0   0   0   0   0 
  8   0   0   8   8   0   0   8   0   0   0   0   8   8   0   0   8 
  8   0  41 107 140 107 140 231 189 123 189 148  57   8   8  33  66  99 
140 181 156 107  41  16 107 181 198 206 198 198 198 189 198 206 214 
222 222 214 198 189 189 189 198 198 198 198 189 198 214 214 206 189 173 
165 189 198 181 173 148 140 165 189 181 165 165 165 156 148 140 148 
156 156 173 173 165 148 132 148 189 222 206 206 214 206 198 189 148 156 
181 189 198 206 198 206 206 206 206 206 198 198 198 181 173 198 222 
231 231 247 247 239 247 247 231 222 214 214 222 222 222 231 222 214 214 
189 165 165 173 165 115  33  49 123 132  99  57  24   8  16  99 165 
148 123 173 206 181 107 148 156  57   8   8   8   0   0   8   0   0   8 
  0   0   0   0   0   0   0   0   8   0   0   0   8   0   0   0   0 
  0   0   0   0   0   0   0   0   0   0   0   0   0   0   0   0   0   0 
  0   0   0   0   0   0   0   0   0   0
  0 
  0   0   0   0   0   0   0   0   0   0   0   0   0   0   0   0   0 
  0   0   0   0   0   0   0   0   8   8   0   0   0   8   0   8   0   0 
  0   0   0   8   0   0   0   0   0   0   0   0   0   0   0   0   8 
  0   8  16  74 156 132  99 140 239 173 148 181  99  24   8   8  41  66 
 74 132 123  74  57  16  49 132 181 181 198 189 181 206 198 198 206 
222 239 214 198 198 181 181 198 198 181 173 165 181 198 206 206 198 165 
148 181 198 181 181 181 156 148 148 173 198 198 173 140 123 115 132 
140 156 165 173 156 132 132 189 222 206 214 214 198 181 165 148 156 189 
198 189 189 189 198 206 206 206 198 198 214 206 198 181 165 189 214 
222 231 239 239 247 231 222 214 206 189 181 189 214 231 222 222 222 214 
189 156 165 181 123  41  41 140 148 132 115  57  16   8  49 140 165 
165 132 239 173  99  90 173 123  24   8   0   8   8   0   0   8   8   0 
  0   8   8   8   8   0   0   0   0   0   0   0   0   0   8   0   0 
  0   0   0   0   0   0   0   0   0   0   0   0   0   0   0   0   0   0 
  0   0   0   0   0   0   0   0   0   0
  0 
  0   0   0   0   0   0   0   0   0   0   0   0   0   0   0   0   0 
  0   0   0   0   0   0   0   0   0   0   0   8   0   0   0   8   0   0 
  0   8   8   8   8   0   0   0   0   0   8   8   8   8   0   8   0 
  0   0   0  24  99 148 123 115 214 206 132 189 140  57  16   8  24  57 
 66  99 107  57  24  16  16  49 115 148 156 173 173 173 181 189 198 
222 239 222 206 181 181 206 214 206 206 206 189 173 189 189 181 189 156 
148 181 198 181 181 181 181 173 140 132 140 156 173 156 123 123 148 
148 140 148 148 115 115 181 214 198 189 181 181 181 165 148 173 189 181 
181 173 181 198 198 214 206 189 198 206 206 214 214 206 165 173 206 
222 239 247 239 231 222 206 198 189 173 198 231 231 239 247 239 231 206 
189 156 165 165  74  33 107 165 148 123  90  33   8  33  99 148 156 
140 198 222 173 107 156 165  74  16   0   0   0   0   8   8   0   0   0 
  0   0   0   0   0   0   8   0   0   0   0   0   0   0   8   0   0 
  8   8   0   0   0   0   0   0   0   0   0   0   0   0   0   0   0   0 
  0   0   0   0   0   0   0   0   0   0
  0 
  0   0   0   0   0   0   0   0   0   0   0   0   0   0   0   0   0 
  0   0   0   0   0   0   0   0   8   0   0   0   0   0   0   0   0   0 
  0   0   0   0   0   8   8   0   8   0   0   0   0   0   0   0   0 
  0   0   0   0  49 115 123 107 181 247 148 165 198 115  33   8   8  16 
 41  57  49  24   8   8  16  16  57 140 181 198 189 189 206 214 214 
222 222 231 214 198 206 214 214 222 214 214 214 189 198 206 189 181 148 
140 173 189 181 181 181 181 173 165 173 156 132 132 115  99 115 123 
115 123 123 115 132 173 206 181 173 181 181 189 165 165 189 189 189 181 
181 181 189 189 198 214 214 206 214 214 214 222 214 206 173 156 181 
214 222 222 231 231 206 198 206 206 214 222 222 239 239 247 239 222 222 
189 148 156  90  24  74 156 165 123 107  66  16   8  49 115 165 156 
173 247 206 123  90 165 132  33   0   0   0   0   0   0   0   0   0   8 
  0   0   8   0   0   0   0   0   0   0   8   0   0   0   0   8   0 
  0   0   0   0   0   0   0   0   0   0   0   0   0   0   0   0   0   0 
  0   0   0   0   0   0   0   0   0   0
  0 
  0   0   0   0   0   0   0   0   0   0   0   0   0   0   0   0   0 
  0   0   0   0   0   0   0   0   0   0   0   0   0   0   0   8   0   8 
  8   0   0   8   0   0   0   0   0   0   0   8   8   0   0   0   0 
  0   0   8   8  16  66 132  99 140 247 214 123 198 173  90  16   8   8 
 24  41  16   8   8   8   0   8  33 123 206 214 214 206 214 222 222 
231 239 239 231 222 214 222 239 231 222 222 214 206 198 198 198 198 173 
156 165 189 189 173 173 173 181 173 173 181 165 156 140  99  90 123 
148 165 173 165 181 198 181 173 181 173 165 165 165 181 198 198 181 165 
156 165 181 189 198 214 214 206 214 222 222 231 222 214 189 148 165 
222 231 222 206 189 206 222 231 239 239 239 239 231 239 239 239 231 206 
198 165  99  49  82 148 156 156 132  90  41   0  33  90 148 181 156 
222 214 173 132 148 165  66   8   0   0   8   0   8   0   0   0   0   0 
  0   8   8   8   8   0   0   0   8   8   8   0   0   0   8   0   0 
  0   8   0   0   0   0   0   0   0   0   0   0   0   0   0   0   0   0 
  0   0   0   0   0   0   0   0   0   0
  0 
  0   0   0   0   0   0   0   0   0   0   0   0   0   0   0   0   0 
  0   0   0   0   0   0   0   0   0   0   0   0   0   8   0   0   0   8 
  0   0   0   8   0   8   8   0   0   8   8   8   8   8   0   0   0 
  0   0   0   0   8  33 115 140  82 148 214 198 132 206 140  49   8  16 
  8  16   0  16  16  16   8  16  41  99 181 214 214 214 214 222 222 
231 231 231 231 231 239 247 239 239 231 239 239 214 206 198 198 206 198 
189 165 165 181 173 173 165 156 173 173 156 165 165 148 132 148 181 
181 173 181 181 165 148 156 156 156 165 173 181 198 189 181 181 165 140 
132 156 198 206 198 206 214 214 222 222 214 231 231 214 198 173 148 
156 198 198 198 206 231 239 239 239 247 255 255 255 239 231 239 222 214 
198 123  41  33  99 132 156 132  82  57  16   8  57 132 198 189 173 
255 214 132 123 173 123  24   0   0   0   0   8   8   8   0   0   0   8 
  0   0   8   8   0   0   8   8   0   0   0   0   0   0   0   0   0 
  0   8   0   0   0   0   0   0   0   0   0   0   0   0   0   0   0   0 
  0   0   0   0   0   0   0   0   0   0
  0 
  0   0   0   0   0   0   0   0   0   0   0   0   0   0   0   0   0 
  0   0   0   0   0   0   0   0   8   0   0   0   0   0   8   0   0   0 
  0   8   0   0   0   0   0   8   8   0   0   0   0   0   0   0   0 
  0   8   0   0   8  24  66 132 115  90 189 255 148 165 189 115  24   8 
  0   0  24  24  24  24  16  24  33  74 173 214 222 231 222 214 214 
222 231 231 239 239 239 239 239 239 239 239 231 222 206 206 214 214 214 
214 198 165 173 181 181 181 173 165 165 148 148 165 156 123 140 148 
140 148 148 156 132 115 123 115 123 156 173 181 181 173 173 173 181 173 
148 148 165 181 198 206 214 206 198 214 214 222 231 206 206 173 148 
173 198 198 214 222 239 239 255 255 255 247 255 255 247 239 222 198 198 
165  74  24  49 115 123 123 107  49  24   8  16  90 165 189 165 231 
255 189 107 156 173  74   0   8   8   8   0   0   8   0   0   0   0   0 
  0   8   0   0   0   8   0   0   0   0   0   0   0   8   0   0   8 
  8   0   0   0   0   0   0   0   0   0   0   0   0   0   0   0   0   0 
  0   0   0   0   0   0   0   0   0   0
  0 
  0   0   0   0   0   0   0   0   0   0   0   0   0   0   0   0   0 
  0   0   0   0   0   0   0   0   0   0   0   0   8   0   0   8   8   0 
  0   0   0   8   8   0   0   0   0   0   0   0   0   8   0   0   0 
  0   0   0   0   0  16  24  90 140 107 132 239 222 123 181 165  90  16 
  8   8   8  16  24  16   0   8  24  57 140 198 206 222 214 206 214 
214 222 231 231 239 231 231 231 231 231 231 231 231 214 214 214 206 214 
214 214 198 173 165 165 165 181 173 156 156 148 156 140 132 148 132 
115 132 132 132 123 107  99 107 132 156 156 173 173 165 181 198 198 189 
156 140 148 165 173 181 189 189 198 198 198 214 214 214 189 173 198 
222 222 231 231 239 255 255 255 255 255 239 247 247 239 239 206 189 173 
107  41   8  49  82  90  99  74  41  16   0  41 123 198 189 189 255 
222 148 132 165 115  24   8   0   0   0   0   0   8   8   8   0   0   0 
  8   0   8   0   8   0   0   0   8   0   0   0   8   0   0  16   8 
  8   8   0   0   0   0   0   0   0   0   0   0   0   0   0   0   0   0 
  0   0   0   0   0   0   0   0   0   0
  0 
  0   0   0   0   0   0   0   0   0   0   0   0   0   0   0   0   0 
  0   0   0   0   0   0   0   0   0   0   0   0   0   8   8   0   0   0 
  0   0   0   0   0   0   8   0   8   0   0   0   0   0   8   8   8 
  8   0   8   0   0   0   8  33 115 132  99 165 222 156 148 198 148  57 
 16   8   0  16  33  16  16  24  16  33 115 181 206 206 222 222 214 
214 222 222 214 222 222 222 231 239 231 222 214 198 189 206 222 222 231 
222 214 198 173 156 165 181 198 198 189 189 173 148 140 140 140 132 
132 132 123 107  99  99 107 132 148 165 165 165 173 181 198 198 181 181 
156 140 148 148 140 140 156 173 189 198 214 231 239 206 173 189 222 
231 239 247 247 247 255 255 255 239 239 255 247 247 247 214 189 198 140 
 66  33  16  49  57  49  82  66  16   0   0  74 173 206 165 255 255 
181 115 148 156  74   8   0   8   8   8   8   8   8   8   0   0   0   8 
  0   0   0   0   8   0   0   0   0   0   0   0   0   0   8   0   0 
  0   0   0   0   0   0   0   0   0   0   0   0   0   0   0   0   0   0 
  0   0   0   0   0   0   0   0   0   0
  0 
  0   0   0   0   0   0   0   0   0   0   0   0   0   0   0   0   0 
  0   0   0   0   0   0   0   0   0   8   8   0   0   0   0   0   0   0 
  0   0   0   0   0   0   0   0   8   8   0   0   0   0   0   0   0 
  0   0   0   0   8   0   0   0  66 132 115  99 173 206 140 148 173 148 
 66  24   8  16  24  16  24  16  24  33  66 140 198 198 214 231 231 
231 222 231 231 222 222 214 214 214 214 231 222 214 222 214 231 231 214 
214 214 214 198 165 156 189 206 198 189 173 156 165 181 156 132 107 
123 140 165 165 132  99  90 107 132 165 173 165 173 173 181 189 189 189 
165 148 156 148 165 189 198 206 214 222 231 222 214 206 181 198 222 
222 247 255 255 255 255 255 239 231 222 239 255 247 231 214 181 173  99 
 24  33  33  49  49  33  49  33   8   0  33 132 222 173 206 255 222 
148 115 173 132  24   8   8   0   0   0   0   8   0   0   0   8   0   0 
  0   0   0   0   0   8   8   0   0   8   0   0   0   0   0   0   8 
  0   0   0   0   0   0   0   0   0   0   0   0   0   0   0   0   0   0 
  0   0   0   0   0   0   0   0   0   0
  0 
  0   0   0   0   0   0   0   0   0   0   0   0   0   0   0   0   0 
  0   0   0   0   0   0   0   0   0   0   0   8   0   8   0   0   0   8 
  0   0   0   0   8   0   0   0   8   0   0   0   8   0   0   0   0 
  0   0   0   0   0   0   8   0  24  90 123  90 115 222 206 132 140 165 
132  57  16   8  16  24   8   8  33  49  33  90 165 206 206 222 231 
222 231 247 239 231 231 222 222 231 222 222 231 231 231 222 231 239 231 
222 222 222 206 181 165 165 189 198 189 198 165 148 156 148 140  90 
 41  57 148 181 173 148 132 123 132 173 173 181 189 181 181 173 156 173 
156 148 173 181 198 214 214 222 231 231 231 214 206 181 189 214 231 
247 255 239 247 255 255 255 247 231 231 239 231 247 222 189 189 148  33 
  8  33  16  24  16  24  49  24   8   8  82 206 206 156 255 255 148 
123 148 165  82   8   8   8   0   0   8   0   0   0   0   0   0   8   0 
  0   0   0   0   0   0   0   0   0   8   0   8   0   0   0   0   0 
  0   8   0   0   0   0   0   0   0   0   0   0   0   0   0   0   0   0 
  0   0   0   0   0   0   0   0   0   0
  0 
  0   0   0   0   0   0   0   0   0   0   0   0   0   0   0   0   0 
  0   0   0   0   0   0   0   0   0   0   0   0   8   0   0   0   0   8 
  0   0   0   0   0   0   0   0   8   8   0   0   0   0   0   0   0 
  0   0   0   0   0   0   0   8   0  41  99 123  74 156 239 231 140 132 
165 156  66  16  16  16   8   0   8  41  57  49  99 165 206 206 214 
222 214 222 222 222 231 222 214 214 222 214 214 222 222 222 222 222 231 
231 231 231 222 206 198 189 181 165 165 173 132 115 140 132 132 107 
 49  57 115 148 156 148 132 132 123 140 165 165 165 173 189 189 189 198 
173 165 198 206 214 231 239 231 222 231 222 206 189 181 206 222 231 
247 255 255 255 255 247 247 247 247 247 239 231 222 198 189 165  99  33 
 16  16   8   8   0   0   8   8   8  33 140 231 189 206 255 214 123 
132 173 115  24   8   0   0   0   8   8   0   0   0   8   0   0   0   8 
  0   0   0   8   0   0   0   8   8   8   0   0   0   8   8   0   8 
  0   0   0   0   0   0   0   0   0   0   0   0   0   0   0   0   0   0 
  0   0   0   0   0   0   0   0   0   0
  0 
  0   0   0   0   0   0   0   0   0   0   0   0   0   0   0   0   0 
  0   0   0   0   0   0   0   0   0   0   0   0   0   0   0   0   0   0 
  0   0   0   0   0   0   0   0   0   0   0   8   0   0   0   0   0 
  0   0   0   8   0   0   8   0   8   0  41 115 115 107 189 247 198 115 
115 148 173  99  49  33  16   8   8   0  66  74  57 123 181 198 206 
214 214 214 214 214 214 214 214 222 214 214 214 222 222 214 222 222 231 
231 231 231 222 222 214 198 206 198 181 173 132 132 156 140 140  99 
 33  33  66 107 148 165 156 140 132 148 165 165 173 189 198 198 206 206 
181 189 206 206 222 239 239 239 239 222 189 189 198 214 231 247 247 
247 247 247 255 255 247 247 247 239 239 231 214 198 173 165 107  41  24 
 16  16  33  41  33  24   0   0  16 107 231 206 181 255 255 173 123 
156 156  57   8   8   0   8   0   0   8   0   0   8   0   0   0   0   0 
  0   0   0   0   0   0   0   0   8   0   8   8   0   8   8   8   0 
  8   0   0   0   0   0   0   0   0   0   0   0   0   0   0   0   0   0 
  0   0   0   0   0   0   0   0   0   0
  0 
  0   0   0   0   0   0   0   0   0   0   0   0   0   0   0   0   0 
  0   0   0   0   0   0   0   0   0   0   0   0   0   0   0   0   8   0 
  8  16   0   8   8   0   0   0   8   0   0   0   0   0   0   0   0 
  0   0   0   0   8   8   0   0   0   0   8  57 140 123 115 165 214 173 
107  99 165 165 123  90  41  24   8   0  24  74  57  57 123 181 198 
206 222 214 214 214 198 214 214 206 214 214 214 206 206 198 198 222 239 
239 239 231 222 214 206 206 214 198 206 189 140 115 140 148 140  90 
 49  41  41  90 148 156 140 123 123 148 165 173 189 206 206 206 214 198 
181 189 206 214 214 222 222 214 198 173 206 231 239 239 239 255 255 
255 255 255 239 231 231 239 239 247 247 231 206 173 148 107  49  24  66 
 66  24  16  33  57  41   8   8  57 173 198 132 222 255 206 123 148 
156  90   0   8   8   0   0   0   0   0   0   0   0   0   0   0   0   0 
  0   0   0   0   0   0   8   8   0   8   0   0   0   0   8   0   8 
  0   0   0   0   0   0   0   0   0   0   0   0   0   0   0   0   0   0 
  0   0   0   0   0   0   0   0   0   0
  0 
  0   0   0   0   0   0   0   0   0   0   0   0   0   0   0   0   0 
  0   0   0   0   0   0   0   0   0   8   8   0   0   0   0   0   0   0 
  0   8   0   0   0   0   0   0   8   0   0   0   0   0   0   0   0 
  0   0   0   0   0   0   8   8   8   0   0  16  90 123 115  90 214 255 
222 140  99 132 181 173 115  66  24   0  16  41  90  66  49 107 173 
206 198 222 222 214 222 214 222 222 206 206 206 214 206 206 206 206 222 
231 222 214 214 214 214 206 206 189 189 165 132 140 165 156 132  99 
 82  82  66 107 148 165 165 148 156 181 173 181 181 189 214 214 214 189 
181 206 206 214 214 198 198 173 173 206 231 231 239 247 247 247 255 
255 239 247 239 231 239 231 247 247 239 222 173 123  74  41  49  82  82 
 57  33  16  16  33  24   8  49 165 206 140 165 247 255 165 123 165 
115  24  16   8   0   0   8   0   0   0   0   0   0   0   0   0   0   0 
  0   0   0   0   8   0   0   8   0   0   8   8   0   0   8   0   8 
  8   0   0   0   0   0   0   0   0   0   0   0   0   0   0   0   0   0 
  0   0   0   0   0   0   0   0   0   0
  0 
  0   0   0   0   0   0   0   0   0   0   0   0   0   0   0   0   0 
  0   0   0   0   0   0   0   0   0   0   0   0   0   0   0   0   0   0 
  8   0   0   8   0   0   0   0   0   0   0   0   0   0   0   0   0 
  0   8   0   0   0   0   0   8   0   0   0   0  33  99 148 107 115 189 
255 255 123  82 123 189 156 115  74  16   8  16  57  99  57  33  90 
165 214 214 222 231 222 222 214 222 231 231 222 222 222 198 198 206 222 
247 239 198 173 173 181 181 189 189 189 198 173 156 140 140 148 140 
123 123 132 140 165 173 173 173 173 173 181 189 198 206 206 198 206 198 
181 181 206 214 214 198 173 181 214 239 239 239 247 239 231 255 247 
247 247 239 239 231 231 239 239 239 222 181 148  90  33  57 115 132 123 
 57   8  16  16  33  16  16 123 181 148 173 247 247 189 107 140 156 
 66   8   0   0   0   0   0   0   0   0   0   0   0   0   0   0   0   0 
  0   0   0   0   8  16   0   0   0   0   8   8   0   0   8   0   0 
  0   8   0   0   0   0   0   0   0   0   0   0   0   0   0   0   0   0 
  0   0   0   0   0   0   0   0   0   0
  0 
  0   0   0   0   0   0   0   0   0   0   0   0   0   0   0   0   0 
  0   0   0   0   0   0   0   0   0   0   8   8   0   0   0   8   0   0 
  0   0   8   0   0   0   0   8   8   8   0   0   0   0   8   0   0 
  8   8   8   0   0   0   0   8   0   8   0   0   8  57 123 148 107 148 
247 255 181 123  90 107 189 181 123  57   8   8  16  57  99  66  49 
 82 156 198 198 222 222 222 214 222 231 214 222 239 222 214 198 189 198 
206 198 181 189 189 198 214 214 206 214 198 189 165 140 140 148 132 
123 132 140 148 165 181 173 173 181 198 189 189 198 214 222 214 214 214 
198 189 198 206 198 181 181 214 231 231 239 231 231 239 247 247 247 
239 231 231 239 239 239 239 231 231 189 132  90  49  41 107 140 107  82 
 57  24  24  33  41  49 107 173 165 156 222 255 189 115 123 165 107 
 33   8   8   8   8   0   8   8   8   0   0   0   0   8   8   0   8   0 
  8   8   0   0   0   0   8   0   0   0   0   0   0   0   0   0   0 
  0   0   0   0   0   0   0   0   0   0   0   0   0   0   0   0   0   0 
  0   0   0   0   0   0   0   0   0   0
  0 
  0   0   0   0   0   0   0   0   0   0   0   0   0   0   0   0   0 
  0   0   0   0   0   0   0   0   0   0   0   0   8   8  16   8   0   0 
  8   8   8   8   0   0   0   8   8   0   0   0   0   0   0   0   8 
  0   0   0   0   0   0   0   0   0   0   0   8   8   8  49 132 123  99 
140 206 247 222 156  99  82 165 173  99  57  16   8  24  74  99  74 
 57  99 140 198 214 214 206 206 231 214 198 214 222 231 231 222 198 148 
140 189 222 222 231 222 222 222 222 231 214 206 189 148 132 148 165 
148 140 165 165 156 165 173 189 189 189 198 198 206 214 198 198 189 173 
181 189 198 189 173 181 206 231 239 239 247 231 222 222 247 255 247 
247 239 231 231 239 239 231 222 181 107  82  57  41  99 140 123  82  33 
  8   0  16  49  57  99 156 181 132 181 255 198 132 132 173 132  49 
  8   0   0   0   0   8   8   8   8   0   0   0   0   0   8   0   8  16 
  8   8   0   0   8   8   0   0   0   0   0   0   0   0   0   0   8 
  8   0   0   0   0   0   0   0   0   0   0   0   0   0   0   0   0   0 
  0   0   0   0   0   0   0   0   0   0
  0 
  0   0   0   0   0   0   0   0   0   0   0   0   0   0   0   0   0 
  0   0   0   0   0   0   0   0   0   0   0   8   0   0   0   0   0   0 
  0   0   0   8   0   0   0   0   0   0   0   8   0   0   0   0   0 
  0   8   0   0   0   0   0   0   8   8   0   0   0   8   8  66 156 148 
 99 132 239 255 231 173  99  82 165 173  90  41  16  16   8  49 107 
 74  49  99 148 189 198 198 198 198 181 156 181 214 231 222 222 222 165 
140 206 239 231 239 231 231 222 214 214 206 198 181 173 165 181 189 
181 165 156 148 156 156 165 156 173 214 189 181 198 206 198 181 181 189 
181 181 181 148 165 189 214 231 231 214 206 189 198 231 247 239 239 
231 231 231 239 231 222 206 156 115  90  57  57  90 123 115  82  24  16 
  0   0  33  90 123 173 198 156 148 206 231 132  99 148 148  49   8 
  0   0   0   0   0   8   0   0   0   0   0   0   8   8   8   0   0   0 
  0   0   0   8   0   0   0   0   0   0   0   0   0   0   8   0   0 
  0   0   0   0   0   0   0   0   0   0   0   0   0   0   0   0   0   0 
  0   0   0   0   0   0   0   0   0   0
  0 
  0   0   0   0   0   0   0   0   0   0   0   0   0   0   0   0   0 
  0   0   0   0   0   0   0   0   0   8   0   0   0   0   0   0   8   0 
  0   0   0   0   0   0   0   0   0   0   0   0   0   0   0   0   0 
  8   0   8   0   0   0   0   0   0   8  16   0   0   8   8   8  90 148 
132  90 132 189 247 255 132  90  90 132 148  99  41  16   8  24  66 
107  74  57  82 132 156 173 198 181 165 173 189 222 239 231 247 231 181 
165 206 239 239 239 222 222 222 214 214 214 214 206 189 165 165 173 
173 156 148 148 148 156 173 173 148 173 198 214 214 206 206 181 148 156 
165 173 173 165 189 214 214 214 214 198 165 181 222 239 247 255 247 
239 231 214 206 189 165 132  99  90  90  66  74 123 123  82  33   8   0 
  8  24  66 156 181 173 148 181 255 231 156  99 148 156  82   8   0 
  0   0   0   0   0   0   0   0   0   0   8   0   0   0   0   0   0   0 
  0   0   0   0   0   0   0   8   8   8   8   0   0   0   0   0   0 
  0   0   0   0   0   0   0   0   0   0   0   0   0   0   0   0   0   0 
  0   0   0   0   0   0   0   0   0   0
  0 
  0   0   0   0   0   0   0   0   0   0   0   0   0   0   0   0   0 
  0   0   0   0   0   0   0   0   8   0   0   0   0   0   0   0   0   0 
  0   0   0   0   0   0   0   0   0   0   0   0   8   0   0   0   0 
  0   0   8   0   0   0   0   0   8   8   8   0   8   8   8   0  16  82 
140 140  99 123 198 239 198 189 123  49 115 140 107  33   8   8  24 
 41  82  74  41  41  82 115 132 165 198 214 222 206 231 231 222 231 189 
173 206 222 231 231 222 214 214 206 214 214 198 198 198 156 148 165 
181 181 165 156 156 156 156 173 156 140 156 173 189 198 189 173 148 165 
189 198 206 214 214 214 206 198 173 156 189 231 239 247 247 239 231 
231 247 222 181 148 123  90  74  90 107 132 123 115  90  33   8   0  33 
 33  66 156 189 165 148 123 255 255 165  90  99 165 115  24   8   0 
  8   0   8   0   0   0   8   8   0   0   0   8   8   0   0   0   0   8 
  8   0   0   0   0   0   0   8   8   0   0   0   0   0   0   0   0 
  0   0   0   0   0   0   0   0   0   0   0   0   0   0   0   0   0   0 
  0   0   0   0   0   0   0   0   0   0
  0 
  0   0   0   0   0   0   0   0   0   0   0   0   0   0   0   0   0 
  0   0   0   0   0   0   0   0   0   8   0   0   8   8   8   8   0   0 
  0   8   8   0   0   0   0   8   0   0   0   0   0   0   0   0   8 
  0   0   0   0   0   0   0   0   8   8   8   0   8   0   8   8   8  16 
 74 148 107  90  99 173 214 255 156 165 148 148 181 107   8   8   8 
 16  66 107 107  74  41  82 140 165 189 206 222 222 214 222 231 222 206 
189 206 239 231 222 206 198 214 222 198 189 214 198 181 173 165 173 
173 156 148 148 148 148 148 156 173 181 181 206 214 231 239 214 206 222 
231 239 231 222 222 231 214 173 189 222 222 239 239 239 247 239 239 
231 214 189 173 140  99  82  82 115 173 173 148 107  57  24   8   8   0 
 49 115 181 173 148 140 173 214 189  99 123 156 123  49  16   8   0 
  0   8   8   0   0   0   0   0   8   0   0   0   0   0   0   0   0   8 
  0   0   0   0   0   0   0   0   0   0   0   0   0   0   0   0   0 
  0   0   0   0   0   0   0   0   0   0   0   0   0   0   0   0   0   0 
  0   0   0   0   0   0   0   0   0   0
  0 
  0   0   0   0   0   0   0   0   0   0   0   0   0   0   0   0   0 
  0   0   0   0   0   0   0   0   8   0   8   0   8   8   8   0   0   0 
  0   0   0   0   0   0   0   0   0   0   0   0   8   0   0   8   8 
  0   0   0   0   0   0   0   0   0   0   0   0   8   0   0   0   8   8 
  8  82 156 132 107  99 173 247 255  90 123  90 123 173  82  41   8 
  8  24  57  82 115  99  74  82  99 156 198 206 198 214 222 222 231 214 
198 206 222 214 198 181 173 198 206 189 189 181 156 156 140 123 132 
140 148 140 148 165 181 165 165 189 222 222 222 214 231 239 222 222 231 
231 239 231 231 231 189 148 189 222 222 231 239 239 231 222 214 231 
231 206 165 132  99  66  66 115 173 198 189 140  57  33  24   8   8  49 
115 173 173 156 165 239 255 206 107 107 165 132  49   8   8   0   8 
  8   8   0   0   0   0   0   0   8   0   0   0   0   0   0   0   0   0 
  0   0   0   0   0   0   0   0   0   0   0   0   0   0   0   0   0 
  0   0   0   0   0   0   0   0   0   0   0   0   0   0   0   0   0   0 
  0   0   0   0   0   0   0   0   0   0
  0 
  0   0   0   0   0   0   0   0   0   0   0   0   0   0   0   0   0 
  0   0   0   0   0   0   0   0   0   0   8   0   0   0   0   8   0   0 
  0   0   0   0   0   8   0   0   0   0   8   8   0   8   0   0   0 
  0   0   8   0   8   0   0   0   0   0   0   8   8   8   0   8   0   0 
  0   8  66 132 140 115  99 181 239 255 198 115  82 123 165 107  33 
  0   0  16  41  66 132 140  99  82  90 123 156 181 198 206 206 222 222 
206 198 206 206 181 165 156 148 132 115 107 123 115  99  82  90  90 
 74  74  82 107 115 107 132 148 148 173 165 165 189 206 214 222 222 214 
222 239 231 206 173 140 181 239 239 231 231 231 239 239 239 214 214 
189 156 140 115  57  66 148 198 214 189 123  74  49  16   8   8  33  99 
165 165 123 181 247 222 165 107  82 132 123  49   8   0   0   0   0 
  0   0   0   8   0   0   0   0   0   0   0   0   0   8   0   0   0   0 
  0   0   0   0   0   0   0   0   0   0   0   0   8   0   0   8   0 
  0   0   0   0   0   0   0   0   0   0   0   0   0   0   0   0   0   0 
  0   0   0   0   0   0   0   0   0   0
  0 
  0   0   0   0   0   0   0   0   0   0   0   0   0   0   0   0   0 
  0   0   0   0   0   0   0   0   8   0   8   8   0   8   8   8   0   0 
  0   8   0   0   0   0   0   0   0   0   8   0   0   8   8   0   0 
  8   0   0   0   0   0   0   8   0   0   8   8   0   0   0   0   0   0 
  0   0  16  66 123 140 115  99 181 247 231 222 206 115 107 132  82 
 24  16   8   8  24  74 107 115 107  82  66  82 115 165 189 198 206 214 
206 189 189 181 148 132 132 123  99  74  90 107  90  90  99 107 107 
107 115  82  74  74  74  90 115 123 115 115 140 181 198 206 214 231 231 
239 239 214 181 173 214 247 239 222 231 239 231 231 214 189 173 173 
173 165 115  49  66 140 222 222 173 123  82  49  33   8   0  41 107 173 
181 156 173 239 239 181  99  82 132 140  74   8  16   8   0   0   0 
  0   8   8   8   0   0   8   0   0   0   0   0   0   0   0   0   0   0 
  0   0   0   0   0   0   0   8   8   0   8   8   0   0   0   0   0 
  0   0   0   0   0   0   0   0   0   0   0   0   0   0   0   0   0   0 
  0   0   0   0   0   0   0   0   0   0
  0 
  0   0   0   0   0   0   0   0   0   0   0   0   0   0   0   0   0 
  0   0   0   0   0   0   0   0   8   8   8   0   0   0   8   8   0   0 
  0   0   0   0   0   0   0   0   0   0   0   0   0   0   8   0   0 
  0   0   0   0   0   0   8   8   8   0   0   0   0   8   0   0   0   8 
  0   8   0  16  49 123 140 115  99 107 173 231 255 231 140  90  99 
 66  33  16  16   0  24  82 115 123 107  90  66  49  66 115 156 181 198 
189 173 156 123 115 123 123  99  74  82 107 107  99 115 132 140 140 
156 173 165 156 140 107  82  82  90 107 115 140 156 173 206 214 189 189 
189 206 181 165 198 231 239 239 222 222 214 198 189 173 165 148 140 
132  82  41  82 173 231 222 173 123  66  33  24   8   8  41  99 132 132 
140 173 239 255 198 107  74 115 140  90   8  16   8   0   0   0   8 
  8   8   0   0   0   0   0   0   8   0   0   0   0   0   8   0   0   8 
  0   0   0   0   8   8   0   8   8   0   0   0   0   8   0   0   0 
  0   0   0   0   0   0   0   0   0   0   0   0   0   0   0   0   0   0 
  0   0   0   0   0   0   0   0   0   0
  0 
  0   0   0   0   0   0   0   0   0   0   0   0   0   0   0   0   0 
  0   0   0   0   0   0   0   0   0   0   0   0   0   8   0   0   0   8 
  8   0   0   0   0   0   0   8   0   0   0   0   0   0   0   0   0 
  0   8   0   0   0   0   0   8   8   8   8   0   0   0   0   0   0   0 
  0   0   0   8   0  33 123 148 123 115 107 173 214 255 255 156  82 
 66  57  41  33   8   8   0  33  74  66  74 115  99  49  57  82 107 123 
132 115  90  74  82  99  99 107 107 123 148 140 156 173 173 189 198 
189 206 231 214 181 140 123  99  99  99  90  99 107 132 140 140 148 165 
189 189 140 140 181 206 198 198 206 198 165 156 148 140 132 115 123 
 99  57  90 181 206 173 132  90  57  41  33   8   0  16  82 132 132 132 
189 255 239 198 132  99 140 156  90  24   0   0   0   0   0   0   8 
  0   0   0   0   0   0   0   0   0   0   8   0   0   0   0   0   0   0 
  0   0   0   0   0   0   0   8   8   8   8   0   0   0   0   0   0 
  0   0   0   0   0   0   0   0   0   0   0   0   0   0   0   0   0   0 
  0   0   0   0   0   0   0   0   0   0
  0 
  0   0   0   0   0   0   0   0   0   0   0   0   0   0   0   0   0 
  0   0   0   0   0   0   0   0   0   0   0   0   0   0   0   0   0   0 
  8   0   0   0   8   8   8   8   0   0   0   0   0   0   0   0   0 
  0   0   8   8   0   0   0   0   0   0   8   0   0   0   8   0   8   8 
  0   0   0   0   8   8  41 123 165 132  99  99 148 206 239 255 206 
123  82  57  33  16   8   8   8   8  16  33  49 107 123 107  74  49  57 
 66  66  74  82  90 115 115 123 140 173 189 189 214 214 189 189 181 
181 198 198 198 206 214 173 132 107 115 115 123 115 107 115 123 115 115 
107  82  66  99 132 148 148 156 156 165 156 123 132 140 132 115  82 
 49  82 173 189 148  90  66  41  24   8  16  16  16  90 132 148 132 181 
239 206 173  99  74 115 148  90  24   0   0   0   0   0   0   8   0 
  0   0   0   0   0   0   0   0   0   0   0   0   0   0   8   8   0   0 
  0   0   0   0   0   0   0   0   0   0   0   0   0   8   8   0   8 
  0   0   0   0   0   0   0   0   0   0   0   0   0   0   0   0   0   0 
  0   0   0   0   0   0   0   0   0   0
  0 
  0   0   0   0   0   0   0   0   0   0   0   0   0   0   0   0   0 
  0   0   0   0   0   0   0   0   0   0   8   0   0   0   0   0   0   0 
  0   0   8   8   0   0   0   0   8   0   0   8   0   0   0   0   0 
  0   0   0   0   0   0   0   0   0   0   0   8   0   8   0   0   0   0 
  0   0   8   8   8   0   8  33  99 140 148 115  99 115 214 255 255 
255 148 107  57  24  24  24   8   0   8   8  16  33  66 107 123 123 140 
132 107 107 123 140 156 173 181 198 206 214 214 206 206 198 198 206 
198 206 214 206 189 181 189 181 156 156 140 107  90  82  66  57  66  74 
 66  82  82  82  99 115 132 140 132 123 140 132 115 123 107  57  41 
 99 189 181 123  74  33  16   8   8   8   8  33  90 115 123 173 239 255 
222 173  90  74 123 156 115  33   8   8   0   8   0   8   0   0   0 
  0   0   0   0   0   0   0   0   0   0   0   0   0   0   8   0   0   0 
  0   0   0   0   0   0   8   0   0   0   0   0   0   0   0   0   0 
  0   8   0   0   0   0   0   0   0   0   0   0   0   0   0   0   0   0 
  0   0   0   0   0   0   0   0   0   0
  0 
  0   0   0   0   0   0   0   0   0   0   0   0   0   0   0   0   0 
  0   0   0   0   0   0   0   0   0   0   8   0   0   8   0   0   0   0 
  0   0   8   0   0   0   0   0   0   0   0   0   0   0   0   0   8 
  0   0   0   0   0   0   0   0   0   0   0   0   8   8   0   0   8   0 
  8   0   8   8   0   8   0   0   8  41 107 132 123  99  99 189 247 
255 255 206 132  90  49  24  16  24   8   0   0   8   8  24  41  57  90 
107 107  99 115 140 148 148 156 165 181 198 214 206 206 206 198 206 
189 181 214 198 198 247 222 173 181 181 198 198 173 165 140 132 165 173 
165 156 132 115 107 107 123 115  90  82  99  99  90  57  66 107 123 
132 107  82  66  49  16   8   8   8  24  41  66  74 107 181 255 255 206 
148  90 107 156 148 107  33   8   8   8   8   0   0   0   0   8   0 
  0   0   8   0   8   0   0   8   0   0   8   0   0   8   0   0   0   8 
  0   0   0   0   8   0   0   0   0   0   8   0   0   0   0   0   0 
  0   0   0   0   0   0   0   0   0   0   0   0   0   0   0   0   0   0 
  0   0   0   0   0   0   0   0   0   0
  0 
  0   0   0   0   0   0   0   0   0   0   0   0   0   0   0   0   0 
  0   0   0   0   0   0   0   0   0   0   0   0   0   0   0   0   8   0 
  0   0   0   0   0   0   0   0   0   0   8   0   8   0   8   8   0 
  0   0   0   0   0   0   0   0   0   0   0   8   0   8   0   0   0   0 
  0   0   0   8   0   0   0   0   8   0  33  99 140 132 107  99 140 
206 247 255 239 181  99  90  66  49  33  24   8   8   8  16   8  16  24 
 24  41  57  66  82  82  90  99  99 107 107 123 140 132 148 165 156 
156 156 181 181 198 255 255 198 198 198 181 173 173 173 173 173 181 181 
198 198 173 165 148 132 123  90  82  90  90  99 115 140 156 115  90 
 66  66  66  24   0   8   8  16  33  57  74  99 123 222 255 231 181 123 
 82 115 156 165 107  24   0   0   0   0   0   0   0   0   0   0   0 
  0   0   0   0   0   0   0   0   0   0   0   0   0   0   0   0   0   0 
  8   0   0   8   8   8   0   0   0   8   0   0   8   8   0   8   8 
  0   0   0   0   0   0   0   0   0   0   0   0   0   0   0   0   0   0 
  0   0   0   0   0   0   0   0   0   0
  0 
  0   0   0   0   0   0   0   0   0   0   0   0   0   0   0   0   0 
  0   0   0   0   0   0   0   0   0   0   0   0   0   0   0   0   8   0 
  0   0   0   0   0   0   0   0   0   0   0   0   8   0   0   0   0 
  8   8   0   8   0   0   0   0   0   0   0   0   0   0   0   0   0   8 
  0   0   0   8   0   0   8   8   8   0   8  24  82 132 140 123  99 
115 173 231 255 255 206 156 148 123  99  66  24  16   8   0   0  16  24 
 24  16  16  24  33  24  16  24  41  41  33  41  66  74  74 107 115 
 99 107 132 132 140 181 214 189 173 165 148 156 140 148 165 148 156 189 
173 156 173 198 165 148 156 123  74  99 140 115  99  90  57  41  33 
 16   0   8   8   8   8  16  33  49 107 123 173 198 239 255 214 123  82 
115 140 140  82  24   0   8   8   0   0   0   0   0   0   0   0   0 
  0   0   8   8   0   8   0   0   0   0   0   0   8   0   8   8   8   0 
  0   0   0   0   0   0   0   0   0   8   8   0   0   0   0   0   0 
  0   0   0   0   0   0   0   0   0   0   0   0   0   0   0   0   0   0 
  0   0   0   0   0   0   0   0   0   0
  0 
  0   0   0   0   0   0   0   0   0   0   0   0   0   0   0   0   0 
  0   0   0   0   0   0   0   0   0   0   0   8   0   0   0   0   0   0 
  0   8   0   8   0   0   0   0   0   0   0   0   8   0   0   8   0 
  0   0   8   0   8   8   0   0   0   0   0   0   0   0   0   0   0   8 
  0   0   8   0   0   8   8   0   0   0   0   0   8  41  99 132 132 
123 107 132 181 231 255 255 255 156 115 123 115  90  41  24   0   8  16 
 16  16  16  24  16   8   8   8   8  16  16  16  16   8   8  16  33 
 41  41  49  66  74  90  99  90  74  82  99  82  66  90  90  90  99  90 
 99  99  99 107  99  90 115 115  82  82  74  57  41  16   0   8   0 
  8  24  16  16  24  41  57  74  90 156 231 255 231 214 181 123 107 140 
165 148  74   8   8   0   8   0   0   0   0   0   0   0   0   0   0 
  0   0   0   0   8   0   0   0   0   0   0   0   8   0   0   0   0   0 
  8   0   0   0   0   0   0   0   0   0   0   8   0   0   0   0   0 
  0   0   0   0   0   0   0   0   0   0   0   0   0   0   0   0   0   0 
  0   0   0   0   0   0   0   0   0   0
  0 
  0   0   0   0   0   0   0   0   0   0   0   0   0   0   0   0   0 
  0   0   0   0   0   0   0   0   0   0   0   0   0   8   8   0   0   8 
  8   0   8   0   0   0   0   0   0   0   0   0   0   0   0   0   8 
  0   0   0   0   8   8   0   0   0   0   8   0   0   0   0   0   0   0 
  0   0   8   0   0   0   8   8   8   8   0   8   8  16  24  66 115 
148 132 115 115 132 189 239 255 255 231 181 123 123 140 123  82  33   8 
  0   0   0   8   8   0   8   0   8   8   8  24  33  33  24  24  24 
 16  24  33  24  24  33  33  33  33  33  24  16  33  41  41  41  33  41 
 41  41  41  33  24  33  24  24  24  24  16  16  16  16   8   8   0 
  8  24  49  57  74 115 148 165 189 255 255 214 198 148  99 115 165 165 
115  49   0   0   0   8   8   8   8   0   0   0   8   0   0   0   0 
  0   8   8   0   8   0   0   0   0   0   0   0   0   0   0   0   0   0 
  8   0   0   0   0   0   0   0   0   0   0   0   0   0   8   0   0 
  0   0   0   0   0   0   0   0   0   0   0   0   0   0   0   0   0   0 
  0   0   0   0   0   0   0   0   0   0
  0 
  0   0   0   0   0   0   0   0   0   0   0   0   0   0   0   0   0 
  0   0   0   0   0   0   0   0   0   0   0   0   0   0   0   0   0   0 
  0   0   0   0   0   0   0   0   0   0   8   0   0   0   0   0   0 
  0   0   0   8   0   0   0   0   0   8   8   0   0   0   0  16   0   0 
  0   0   8   8   0   0   0   0   8   8   0   0   0   8  16  16  24 
 66 132 148 123 115  99 115 156 222 255 255 255 222 189 148 115 115 115 
115  66  33  24   8   8   8  16   8   8   0   0   0   8   8   8  24 
 24  16  16  33  41  33  24  24  24   8   8   8   0   0   0   0   0   0 
  0   8   0   0  16  16   8   8   8   8   8   0   8   8   8   8  16 
 41  57  74  99 123 173 255 255 247 206 222 156  90 107 123 156 173 107 
 24   8   0   0   0   8   0   0   0   0   0   0   8   8   0   0   0 
  8   0   0   0   0   8   0   8   8   0   0   0   0   0   0   0   8   8 
  0   0   0   8   0   0   0   8   0   0   0   0   0   8   8   8   0 
  0   0   0   0   0   0   0   0   0   0   0   0   0   0   0   0   0   0 
  0   0   0   0   0   0   0   0   0   0
  0 
  0   0   0   0   0   0   0   0   0   0   0   0   0   0   0   0   0 
  0   0   0   0   0   0   0   0   0   0   0   0   0   0   0   0   0   0 
  8   0   8   8   8   0   0   0   0   0   0   0   0   0   0   0   0 
  0   8   8   0   0   0   0   8   0   0   0   0   0   0   0   0   0   0 
  0   8   0   0   8   0   0   0   8   8   8   0   8   0   8   8   0 
  8  41 107 132 148 132 107 107 115 140 198 255 255 255 255 214 181 132 
115 107 107  99 115 123  90  82  66  49  41   8   8  16   8   0   8 
 16   8   8   8   8   8  16  16  16  16  24  24  16   8  24  24  16  24 
 16  16  16  16   8   8   0   0   0   0   0   0   8   8  16  41  66 
 90 115 123 189 255 255 255 255 247 156  99  90 132 156 165 148  90  16 
  0   0   0   0   8  16   0   0   0   0   0   8   8   8   0   8   8 
  8   0   8   0   0   0   0   8   0   0   0   8   0   0   0   0   8   0 
  0   0   0   8   0   0   0   8   0   0   8   0   0   0   0   0   0 
  0   0   0   0   0   0   0   0   0   0   0   0   0   0   0   0   0   0 
  0   0   0   0   0   0   0   0   0   0
  0 
  0   0   0   0   0   0   0   0   0   0   0   0   0   0   0   0   0 
  0   0   0   0   0   0   0   0   0   0   0   0   0   8   0   8   8   0 
  0   8   0   0   0   0   0   0   8   0   0   0   0   0   0   8   8 
  0   0   0   0   0   0   0   0   0   0   0   0   0   0   0   0   8   8 
  0   0   0   0   0   0  16  16   8   8   0   0   8   8   8   0   0 
  0   8   8  41  99 148 148 123 107 123 123 123 165 206 255 255 255 255 
255 222 165 140 115 123 115 107 115 115 132 123  82  57  57  33  16 
 16   8  16   8   8  16   8   8  16  16  24  33  24  24  24  16   8   8 
  8   0   0   0   8  16   8  24  24  16  33  41  66  99 107 107 107 
132 189 189 255 255 255 239 189 132  99 115 156 189 156  74  16   8   0 
  0   0   0   0   0   0   8   0   0   0   0   0   8   0   8   0   0 
  0   0   0   0   0   0   0   0   0   0   0   0   0   0   8   8   0   8 
  0   0   0   8   0   0   0   0  16   0   0   0   8   8   0   0   8 
  8   0   0   0   0   0   0   0   0   0   0   0   0   0   0   0   0   0 
  0   0   0   0   0   0   0   0   0   0
  0 
  0   0   0   0   0   0   0   0   0   0   0   0   0   0   0   0   0 
  0   0   0   0   0   0   0   0   0   0   0   8   0   0   0   0   0   0 
  8   8   8   0   0   0   0   0   0   0   0   0   0   0   0   0   0 
  0   0   0   8   0   0   0   0   0   0   8   0   0   0   0   0   0   0 
  8   8   0   0   0   0   0   0   0   0  16   8   8   0   0   8   0 
  0   8   8  16  16  41  99 148 148 140 132 107 107 107 132 181 231 255 
255 255 255 247 198 214 255 239 222 214 173 132 107  99 107 123 107 
 90  82  74  57  49  41  24  16  24  33  33  24  24  24  24  16   0   8 
 16  33  24  16  33  49  41  57  82  82  90 123 123 132 140 115 189 
247 214 214 255 247 189 132  90 115 165 165 140  99  49   8   0   0   0 
  0   8   8   0   0   8   0   8   0   0   0   8   0   0   0   0   0 
  8   0   0   0   0   0   0   0   0   0   0   0   0   0   0   0   0   0 
  0   8   8   8   0   0   0   0   0   0   0   0   8   8   0   0   0 
  0   0   0   0   0   0   0   0   0   0   0   0   0   0   0   0   0   0 
  0   0   0   0   0   0   0   0   0   0
  0 
  0   0   0   0   0   0   0   0   0   0   0   0   0   0   0   0   0 
  0   0   0   0   0   0   0   0   0   0   0   0   0   0   0   0   0   0 
  0   0   0   0   0   0   0   0   0   0   8  16   0   0   0   0   0 
  0   0   0   0   8   0   0   0   0   0   0   0   0   0   0   0   0   0 
  0   0   0   0   8   0   0   0   0   0   0   0   0   8   0   0   8 
 16   8   8  16   0  16  16  41  90 132 132 132 140 123 115 123 115 148 
189 222 247 222 222 247 255 255 255 255 255 255 255 239 189 214 173 
132 156 140 132 123 107 107 115 123 132 132 123 140 140 115 115 132 132 
123 123 132 132 115 123 148 148 140 115 115 156 189 247 255 255 255 
255 255 206 173 140  99 107 148 156 165 132  49   8   0   0   0   0   0 
  0   0   0   0   0   0   8   8   0   0   0   0   0   8   0   0   0 
  0   0   0   0   0   0   0   0   0   0   0   0   0   0   0   0   0   0 
  0   0   0   0   0   8   0   0   0   8   0   0   0   0   0   0   0 
  0   0   0   0   0   0   0   0   0   0   0   0   0   0   0   0   0   0 
  0   0   0   0   0   0   0   0   0   0
  0 
  0   0   0   0   0   0   0   0   0   0   0   0   0   0   0   0   0 
  0   0   0   0   0   0   0   0   0   0   0   0   0   0   0   8   0   8 
  0   0   0   0   0   0   0   0   0   0   0   0   0   0   0   0   0 
  0   0   0   0   0   0   0   0   0   0   8   8   8   8   0   0   0   8 
  8   0   0   0   0   0   0   0   0   0   0   0   0   0   0   0   0 
  8   8   0   8   0   8  16  24  16  24  57 115 148 156 148 123 115 107 
 99 107 123 173 181 173 189 214 239 255 255 255 255 255 255 255 255 
255 255 255 255 255 222 198 206 206 198 165 148 140 140 132 132 132 140 
140 132 140 148 156 173 181 198 239 231 222 255 255 255 255 239 198 
156 123 107 107 132 165 181 181 140  74  24   8   8   0   0   8   0   0 
  0   0   0   0   0   0   0   8   8   0   0   8   0   8   8   0   0 
  0   0   0   0   0   0   8   0   0   0   8   8   8   0   0   0   0   0 
  0   0   0   0   0   0   0   0   0   0   0   0   0   0   8   0   0 
  0   0   0   0   0   0   0   0   0   0   0   0   0   0   0   0   0   0 
  0   0   0   0   0   0   0   0   0   0
  0 
  0   0   0   0   0   0   0   0   0   0   0   0   0   0   0   0   0 
  0   0   0   0   0   0   0   0   0   0   8   0   0   0   0   0   0   0 
  0   0   0   0   0   0   0   0   0   0   0   0   0   0   0   0   0 
  8   0   0   0   0   0   0   0   0   8   0   0   0   0   0   0   8   0 
  0   8   0   0   8   8   0   0   0   0   8   0   0   0   0   0   0 
  8   0   8   0   0   0   0   8   8   8  16  24  49  90 132 148 148 140 
123 140 115  90  90  99  90  99 140 173 198 214 231 239 239 255 255 
255 255 181  99 173 255 255 255 255 255 255 255 255 255 255 255 247 231 
255 255 255 255 255 255 255 255 255 255 214 189 189 148 115 107  99 
 99 132 165 189 189 156 115  57  24   8   0   8   0   0   0   0   8   8 
  0   0   0   0   0   8   0   0   0   0   0   0   0   0   0   0   8 
  0   0   0   0   0   0   0   0   0   0   0   0   0   0   0   0   0   0 
  0   0   8   0   0   0   8   0   0   8   8   0   0   0   0   0   0 
  0   0   0   0   0   0   0   0   0   0   0   0   0   0   0   0   0   0 
  0   0   0   0   0   0   0   0   0   0
  0 
  0   0   0   0   0   0   0   0   0   0   0   0   0   0   0   0   0 
  0   0   0   0   0   0   0   0   0   8   0   0   0   0   0   0   0   0 
  0   0   0   0   0   0   0   0   0   8   0   0   8   8   8   0   0 
  0   0   0   0   0   0   0   0   0   0   0   0   0   8   8   8   0   0 
  0   0   0   0   0   8   0   0   0   0   0   0   0   0   0   0   0 
  0   0   8   8   0   0   0   0   0   8   0   8   8  24  33  57  90 123 
140 165 165 156 148 123 115 107  99 107  99 107 107 123 148 173 189 
198 189 140 132 189 255 255 255 255 255 255 255 255 255 255 255 255 231 
206 214 198 214 198 165 198 181 140 140 115 115 107  99 132 165 173 
173 173 165 132  74  33  16  16  16   0   8   0   0   0   0   0   0   0 
  0   0   0   0   0   0   0   0   8   8   0   0   0   0   0   0   8 
  0   0   0   8   0   8   0   8   0   0   0   0   0   0   8   8   0   0 
  0   8   8   0   0   0   0   0   0   0   0   0   8   0   0   8   8 
  0   8   0   0   0   0   0   0   0   0   0   0   0   0   0   0   0   0 
  0   0   0   0   0   0   0   0   0   0
  0 
  0   0   0   0   0   0   0   0   0   0   0   0   0   0   0   0   0 
  0   0   0   0   0   0   0   0   0   8   0   0   0   0   0   0   0   0 
  0   0   0   0   0   0   0   0   8   8   0   0   0   0   0   0   0 
  0   0   0   0   0   0   8   0   0   0   8   0   0   0   0   8   0   0 
  0   8   0   0   0   0   0   0   0   0   0   0   8   0   0   8   0 
  0   0   0   0   0   0   8   0   0   0   0   8   0   8   8  16  16  16 
 41  66 107 132 148 148 148 140 132 123 107 123 132 123 115  90  90 
 99  90  82 115 140 123 140 165 165 173 156 140 173 189 156 140 140 123 
115 123 115 115 107 115 107  99 123 123 123 148 165 173 181 165 140 
123  90  49  24  24   0   0   0   0   8   8   0   0   0   0   0   0   0 
  0   0   0   0   0   0   0   0   8   8   0   0   0   0   0   0   0 
  0   0   0   0   0   0   0   0   0   0   0   0   0   0   0   0   0   0 
  8   0   0   0   0   0   0   0   0   0   0   0   0   0   8   0   0 
  0   0   0   0   0   0   0   0   0   0   0   0   0   0   0   0   0   0 
  0   0   0   0   0   0   0   0   0   0
  0 
  0   0   0   0   0   0   0   0   0   0   0   0   0   0   0   0   0 
  0   0   0   0   0   0   0   0   8   0   0   0   0   8   0   0   8   8 
  8   8   0   8   0   0   0   0   0   0   8   0   0   0   0   0   0 
  0   8   0   0   0   0   0   0   0   0   8   8   0   0   0   0   0   0 
  0   0   0   0   0   0   0   0   0   0   0   0   0   0   0   0   8 
  8   0   0   0   0   0   0   8   8   0   0   0   0   8   0   8   8   8 
 16  16   8  16  41  66  99 132 148 156 156 148 156 148 132 140 140 
140 123 115 132 140 140 132 123 132 132 132 132 123 123 123 123 140 132 
107 107 123 140 148 156 165 173 173 189 181 173 165 132  82  41  24 
 16   8   8   8   0   0   0   8   0   8   0   0   0   8   8   0   8   0 
  8   0   0   0   0   0   0   0   0   0   0   8   8   0   0   0   0 
  0   0   0   0   0   0   0   0   0   0   0   0   0   0   8   0   0   8 
  0   0   0   0   0   0  16   0   8   0   0   8  16   0   0   8   0 
  0   0   0   0   0   0   0   0   0   0   0   0   0   0   0   0   0   0 
  0   0   0   0   0   0   0   0   0   0
  0 
  0   0   0   0   0   0   0   0   0   0   0   0   0   0   0   0   0 
  0   0   0   0   0   0   0   0   0   0   8   0   0   0   0   0   0   0 
  0   0   0   0   0   0   0   0   0   8   0   8   8   8   0   0   0 
  0   0   0   0   0   0   0   0   8   8   0   8   0   0   0   8   0   0 
  0   0   0   0   0   0   8   8   0   0   0   8   0   0   0   0   0 
  0   0   0   8   8   0   8   0   0   8   0   8   8   0   8   0   0   0 
  0   0   0   8   8   8   8  24  41  66  90 107 132 148 156 165 165 
165 181 181 165 156 165 173 165 156 165 165 165 181 173 173 181 181 181 
181 189 181 173 165 148 148 140 115  99  74  41  24  16   8   8   8 
  8   0   0   0   0   0   8   8   0   0   0   0   0   0   0   0   8   8 
  0   0   0   0   0   0   0   0   0   0   0   0   0   0   0   0   0 
  0   0   0   0   0   0   0   0   0   0   0   0   0   0   0   0   0   0 
  0   8   0   0   0   0   8   0   0   0   0   0   0   0   0   0   0 
  0   0   0   0   0   0   0   0   0   0   0   0   0   0   0   0   0   0 
  0   0   0   0   0   0   0   0   0   0
  0 
  0   0   0   0   0   0   0   0   0   0   0   0   0   0   0   0   0 
  0   0   0   0   0   0   0   0   0   0   0   8   0   0   0   8   8   8 
  0   8   0   0   0   0   0   8   0   0   0   0   0   8   0   0   0 
  8   8   0   0   0   0   0   0   0   0   0   0   0   0   0   0   0   0 
  0   0   0   0   0   0   0   8   0   0   8   0   0   0   0   0   0 
  0   0   0   0   0   0   0   0   8   0   8   8   8   0   0   8   0   0 
 16   8   8   0   8   8   8   0   8  16  16  16  16  33  57  74  99 
107 123 123 132 140 140 140 148 140 140 132 123 140 156 148 140 123  99 
 82  74  74  57  33  24  16  16  16  16   8  16   8   0   0   0   0 
  0   0   0   0   8   0   0   0   0   0   0   0   0   0   0   0   0   0 
  0   0   0   0   0   8   8   0   0   0   8   8   0   0   0   8   0 
  0   0   0   0   0   0   0   0   0   0   0   0   0   0   0   0   0   8 
  0   0   0   0   0   0   0   8   0   0   0   0   0   0   8   0   0 
  0   0   0   0   0   0   0   0   0   0   0   0   0   0   0   0   0   0 
  0   0   0   0   0   0   0   0   0   0
  0 
  0   0   0   0   0   0   0   0   0   0   0   0   0   0   0   0   0 
  0   0   0   0   0   0   0   0   0   0   0   0   0   0   0   0   0   8 
  8   8   0   0   0   0   0   0   0   8   0   0   0   0   8   0   0 
  0   0   0   0   0   0   0   8   8   0   0   8   8   0   8   8   0   0 
  0   0   0   0   8   8   0   0   0   0   0   8   0   0   0   0   8 
  0   0   0   0   0   8   0   0   0   0   0   0   0   0   0   0   8   0 
  0   0   0   0   0   0   0   0   0   0   8   0   8   8   0   8   8 
  8  16  24   8   8  16  16  16  24  24  24  24  24  16  16  16   8   8 
  8   8  16   8   8  16   8   0   8   8   0   0   8   0   0   0   8 
  0   0   0   0   0   0   0   0   0   0   8   0   0   0   0   0   0   0 
  0   0   0   0   0   0   0   8   0   0   0   0   0   0   0   0   0 
  0   0   0   8   0   0   0   0   8   0   8   8   0   0   0   0   0   8 
  8   0   0   0   0   0   0   0   0   0   8   0   0   0   0   0   0 
  0   0   0   0   0   0   0   0   0   0   0   0   0   0   0   0   0   0 
  0   0   0   0   0   0   0   0   0   0
  0 
  0   0   0   0   0   0   0   0   0   0   0   0   0   0   0   0   0 
  0   0   0   0   0   0   0   0   0   0   0   8   0   0   0   0   0   0 
  0   0   8   0   0   0   0   0   0   0   8   8   0   0   0   0   0 
  8   0   0   8   0   0   0   0   0   0   8   8   0   0   0   0   0   0 
  8   0   0   0   8   8   8   0   0   0   0   0   0   8   8   8   0 
  0   8   0   0   0   0   0   0   0   0   8   0   0   8   0   0   8   0 
  0   0   0   0   0   0   0   0   0   0   0   8   0   0   0   8   8 
  0   0   0   0   0   8   8   0   8   8   8   0   0   8   0   8   8   0 
  0   0   0   0   0   0   8   0   0   8   8   0   8   8   0   8   0 
  0   0   0   0   0   0   0   0   0   0   0   0   8   0   0   0   0   0 
  0   0   0   0   0   0   0   0   0   0   0   0   0   0   0   0   0 
  0   8   0   0   0   0   0   0   0   0   0   0   0   0   0   0   0   0 
  0   0   0   8   8   0   0   0   0   0   0   0   0   0   0   0   0 
  0   0   0   0   0   0   0   0   0   0   0   0   0   0   0   0   0   0 
  0   0   0   0   0   0   0   0   0   0
  0 
  0   0   0   0   0   0   0   0   0   0   0   0   0   0   0   0   0 
  0   0   0   0   0   0   0   0   0   8   0   0   0   0   0   0   0   0 
  0   0   0   0   8   0   8   0   0   0   0   0   8   0   8   8   0 
  0   0   0   0   0   0   8   0   8   0   0   0   0   0   0   0   0   0 
  0   0   0   8   8   8   0   0   0   0   0   0   0   0   0   0   0 
  0   0   0   0   0   0   0   0   0   0   0   0   0   0   8   0   0   0 
  8   8   0   0   0   0   0   8   0   0   8   8   0   0   0   8   0 
  8   0   0   0   0   0   8   0   0   0   0   0   0   0   0   0   0   8 
  0   0   0   0   0   0   0   0   0   0   0   0   0   0   0   8   0 
  8   8   0   0   0   0   0   0   0   8   8   8   0   0   0   0   0   0 
  0   0   0   0   0   0   0   0   0   0   0   8   8   0   0   0   8 
  0   0   0   0   0   8   0   8   0   0   8   8   0   0   0   0   0   0 
  0   0   0   8   0   0   0   0   0   0   0   0   0   0   0   0   0 
  0   0   0   0   0   0   0   0   0   0   0   0   0   0   0   0   0   0 
  0   0   0   0   0   0   0   0   0   0
  0 
  0   0   0   0   0   0   0   0   0   0   0   0   0   0   0   0   0 
  0   0   0   0   0   0   0   0   0   0   0   0   0   0   0   0   0   8 
  0   8   0   0   0   0   0   0   0   0   0   8   0   0   8   0   0 
  0   0   8   8   0   0   0   0   8   8   0   0   0   0   0   0   0   8 
  0   0   0   0   0   0   0   8   0   0   0   0   0   0   0   0   0 
  0   0   0   0   0   0   0   8   8   0   0   0   0   0   0   0   0   0 
  0   0   0   0   0   0   8   0   0   0   0   0   0   0   8   8   0 
  8   0   0   0   0   8   0   0   8   8   0   8   8   8   0   0   0   0 
  0   0   0   0   0   8   0   0   0   0   0   0   0   0   0   0   0 
  0   0   0   0   0   0   0   0   0   0   0   0   0   0   0   0   0   0 
  8   8   0   8   0   0   8   0   0   0   0   0   8   0   0   0   0 
  0   0   0   0   0   0   0   8   0   8   0   0   0   0   0   0   0   0 
  8   0   0   0   0   0   0   0   0   0   0   8   0   0   0   0   0 
  0   0   0   0   0   0   0   0   0   0   0   0   0   0   0   0   0   0 
  0   0   0   0   0   0   0   0   0   0
  0 
  0   0   0   0   0   0   0   0   0   0   0   0   0   0   0   0   0 
  0   0   0   0   0   0   0   0   0   0   8   0   8   0   0   0   0   0 
  0   0   0   0   0   0   0   0   0   0   8   8   0   0   0   0   0 
  0   0   0   0   0   0   0   0   0   0   0   0   0   0   0   0   0   0 
  0   0   0   0   8   0   0   8   0   0   0   0   0   0   0   0   0 
  0   0   0   0   0   0   0   0   8   0   8   8   0   0   0   0   0   8 
  0   8   0   0   0   0   0   8   0   0   0   0   8   8   0   0   0 
  0   0   8   0   0   0   0   0   8   0   0   8   0   0   0   8   8   0 
  0   0   0   0   0   0   0   0   0   0   0   0   0   0   0   0   8 
  0   0   0   0   8   0   0   0   8   0   8   8   8   8  16   0   0   8 
  0   0   0   0   0   0   0   0   0   0   8   0   0   0   0   8   0 
  0   0   8   0   0   0   0   0   0   0   0   0   0   0   0   0   0   0 
  0   0   0   0   0   0   0   0   0   0   0   0   8   8   0   0   8 
  0   0   0   0   0   0   0   0   0   0   0   0   0   0   0   0   0   0 
  0   0   0   0   0   0   0   0   0   0
  0 
  0   0   0   0   0   0   0   0   0   0   0   0   0   0   0   0   0 
  0   0   0   0   0   0   0   0   0   0   0   0   0   0   0   0   0   0 
  0   0   0   0   0   0   0   0   0   8   0   0   0   0   0   0   0 
  8   0   0   0   0   0   8   8   0   0   0   8   0   0   0   0   0   0 
  8   0   0   8   0   0   0   0   0   0   8   0   8   0   0   0   0 
  0   0   0   0   8   0   0   8   8   0   0   0   0   0   0   0   0   0 
  0   0   0   0   0   0   0   0   8   8   0   0   0   0   0   0   0 
  0   0   0   0   0   0   8   0   0   0   0   0   0   0   0   0   0   0 
  0   0   0   0   0   0   0   8   0   8   0   0   0   0   0   0   0 
  0   0   0   0   0   0   8   8   0   0   0   0   0   0   0   0   0   0 
  0   0   8   0   0   0   0   0   0   8   8   0   0   8   0   0   0 
  0   8   8   0   0   0   8   8   0   8   0   0   0   0   0   0   0   0 
  0   8   8   0   0   0   8   0   0   0   0   0   0   0   0   0   0 
  0   0   0   0   0   0   0   0   0   0   0   0   0   0   0   0   0   0 
  0   0   0   0   0   0   0   0   0   0
  0 
  0   0   0   0   0   0   0   0   0   0   0   0   0   0   0   0   0 
  0   0   0   0   0   0   0   0   0   0   0   8   8   0   8   0   0   0 
  0   0   0   0   0   0   0   0   0   8   8   0   0   0   0   0   0 
  0   0   8   0   0   0   0   0   0   0   0   0   8   8   0   0   0   0 
  0   8   0   0   0   0   0   8   0   0   0   0   0   0   0   0   0 
  0   8   0   0   8   0   0   0   0   0   0   0   0   0   0   0   0   8 
  8   0   0   8   8   0   0   0   0   0   0   0   0   0   0   8   0 
  8   8   0   0   0   0   0   8   0   8   8   0   8   0   0   0   8   8 
  0   0   0   0   0   0   0  16   8   0   0   0   8   8   0   8   0 
  0   0   0   0   0   0   0   0   0   0   0   0   0   0   0   8   0   0 
  0   0   0   8   0   0   0   0   0   0   0   0   0   0   0   0   0 
  0   8   0   0   0   0   0   0   0   0   0   0   0   8   0   0   8   0 
  0   0   0   0   0   0   0   0   0   8   0   0   0   0   0   0   0 
  8   8   0   0   0   0   0   0   0   0   0   0   0   0   0   0   0   0 
  0   0   0   0   0   0   0   0   0   0
  0 
  0   0   0   0   0   0   0   0   0   0   0   0   0   0   0   0   0 
  0   0   0   0   0   0   0   0   0   0   0   0   0   0   0   0   0   0 
  0   8   8   8   0   0   0   0   0   0   0   0   0   8   0   0   0 
  0   8   0   0   0   0   0   0   0   0   8   0   8   0   0   0   0   0 
  0   8   0   0   0   0   0   0   0   0   0   0   0   0   0   0   0 
  0   0   0   0   0   0   0   0   0   0   0   0   0   0   0   0   0   0 
  0   0   0   0   0   0   0   8   0   0   0   8   8   0   0   0   0 
  0   0   0   0   0   8   8   0   0   8   0   0   0   0   0   0   0   0 
  0   0   0   0   0   0   0   0   0   8   0   0   0   0   8   0   0 
  0   0   0   0   0   0   0   0   0   0   0   0   0   0   8   0   0   0 
  0   0   0   0   0   0   8   0   0   0   0   8   8   8   8   0   8 
  0   0   0   0   0   0   0   0   0   0   0   0   0   0   0   0   0   0 
  0   0   0   0   0   0   0   8   0   0   0   0   0   0   0   8   8 
  0   0   0   0   0   0   0   0   0   0   0   0   0   0   0   0   0   0 
  0   0   0   0   0   0   0   0   0   0
  0 
  0   0   0   0   0   0   0   0   0   0   0   0   0   0   0   0   0 
  0   0   0   0   0   0   0   0   0   8   0   8   8   0   0   0   0   8 
  0   0   8   0   0   8   0   0   0   0   0   0   0   0   0   0   0 
  0   0   0   0   0   0   8   0   0   0   0   8   0   0   0   0   0   8 
  0   0   0   0   0   0   8   8   0   0   0   0   0   0   8   8   0 
  0   0   0   0   0   0   8   0   0   0   0   0   0   0   0   0   0   8 
  0   0   0   8   0   0   0   0   8   0   0   0   0   0   0   0   0 
  0   0   0   0   0   0   0   0   0   0   0   0   0   0   0   0   0   8 
  0   0   0   0   0   0   0   0   0   0   0   0   0   0   0   0   0 
  0   0   0   0   0   0   0   0   8   8   0   0   0   0   0   0   0   0 
  0   0   0   0   0   0   0   0   0   8   0   0   0   0   8   8   8 
  0   0   0   0   0   0   0   0   0   0   8   0   0   0   8   8   0   0 
  0   0   0   0   0   0   8   0   0   8   0   0   8   0   0   0   8 
  0   0   0   0   0   0   0   0   0   0   0   0   0   0   0   0   0   0 
  0   0   0   0   0   0   0   0   0   0
  0 
  0   0   0   0   0   0   0   0   0   0   0   0   0   0   0   0   0 
  0   0   0   0   0   0   0   0   0   0   8   8   8   0   0   0   0   0 
  0   0   8   0   0   0   0   0   8   0   0   0   0   8   0   0   0 
  0   0   0   0   0   0   0   0   0   0   0   0   0   0   0   0   8   0 
  0   0   0   0   0   0   0   0   0   0   0   0   8   8   8   0   0 
  0   0   0   0   8   0   0   0   0   0   0   0   0   0   0   0   0   0 
  0   0   0   0   0   8   0   0   0   0   8   0   8   0   0   0   0 
  0   8   8   0   0   0   0   8   0   0   0   0   8   0   0   0   0   0 
  0   0   0   0   0   0   0   0   0   0   0   0   0   0   0   0   0 
  0   8   8   8   0   0   0   0   0   0   0   0   0   0   8   8   0   0 
  0   0   0   0   0   0   0   0   0   0   0   0   0   0   8   8   0 
  0   0   0   8   0   0   0   0   0   0   0   0   0   0   0   0   0   0 
  0   0   8   0   0   0   0   0   0   0   0   8   0   0   0   0   8 
  8   8   0   0   0   0   0   0   0   0   0   0   0   0   0   0   0   0 
  0   0   0   0   0   0   0   0   0   0
  0 
  0   0   0   0   0   0   0   0   0   0   0   0   0   0   0   0   0 
  0   0   0   0   0   0   0   0   0   0   8   8   0   0   0   0   0   0 
  0   0   0   0   8   0   0   0   0   0   0   0   0   0   0   0   0 
  0   0   0   0   0   0   0   8   8   0   0   0   0   0   0   8   8   0 
  0   0   0   0   0   8   0   8   8   0   0   0   0   0   0   0   0 
  0   0   0   0   0   0   0   0   0   0   0   0   0   0   0   0   0   0 
  0   0   0   0   0   0   8   0   0   0   0   0   0   0   0   0   0 
  0   0   0   0   0   8   8   8   0   8   0   0   0   0   0   0   0   0 
  0   0   8   0   0   0   8   8   0   0   0   0   0   0   0   0   0 
  0   0   0   0   0   0   0   8   8   0   0   0   0   0   0   0   0   0 
  8   0   0   8   8   8   0   8   8   0   0   0   0   0   0   0   0 
  0   0   0   0   0   0   0   0   0   0   0   0   0   0   8   0   0   0 
  0   0   0   0   0   0   0   0   0   8   8   0   0   0   0   0   0 
  0   0   0   0   0   0   0   0   0   0   0   0   0   0   0   0   0   0 
  0   0   0   0   0   0   0   0   0   0
  0 
  0   0   0   0   0   0   0   0   0   0   0   0   0   0   0   0   0 
  0   0   0   0   0   0   0   0   0   0   0   0   0   0   0   0   0   8 
  0   0   0   8   8   8   0   0   0   0   8   0   0   8   0   0   0 
  0   0   8   0   0   0   0   0   0   0   0   0   0   0   0   0   0   0 
  0   0   0   0   0   0   0   0   0   8   0   0   0   0   0   0   0 
  0   0   0   8   0   0   0   0   0   8   0   0   0   0   0   0   0   0 
  0   0   0   0   0   8   0   0   0   0   0   0   0   0   0   0   0 
  8   8   0   0   0   0   0   0   0   0   0   8   8   8   0   0   0   8 
  0   0   0   0   8   0   0   0   0   0   0   0   0   0   0   0   0 
  0   0   0   0   0   0   8   0   0   0   0   0   0   0   0   0   0   0 
  0   0   0   0   8   0   0   0   0   0   0   0   0   0   0   0   0 
  0   0   8   8   0   0   0   0   0   0   0   0   0   0   0   0   0   0 
  0   0   8   8   0   0   0   0   8   0   0   0   0   0   0   0   8 
  0   0   0   0   0   0   0   0   0   0   0   0   0   0   0   0   0   0 
  0   0   0   0   0   0   0   0   0   0
  0 
  0   0   0   0   0   0   0   0   0   0   0   0   0   0   0   0   0 
  0   0   0   0   0   0   0   0   0   0   0   0   0   0   0   0   0   8 
  0   0   0   0   0   0   0   0   8   0   8   0   0   0   0   0   0 
  0   8   0   0   0   0   0   0   0   0   0   0   0   0   8   0   0   0 
  0   0   0   0   0   0   0   0   0   0   0   0   0   0   0   8   0 
  0   0   0   8   8   8   8   0   0   0   0   0   0   0   0   0   0   0 
  0   0   0   0   0   0   8   0   0   0   0   0   0   8   0   0   0 
  0   8   0   0   0   0   0   0   0   0   8   0   0   8   0   0   0   0 
  0   0   0   0   0   0   0   0   8   0   0   0   0   0   0   0   0 
  0   0   0   0   0   0   0   0   8   0   0   0   0   0   0   0   0   0 
  0   0   0   0   0   0   0   0   0   0   0   0   0   0   0   0   0 
  0   0   0   0   8   8   0   0   0   0   0   0   0   0   0   0   0   0 
  0   0   0   0   0   0   0   0   0   0   0   0   0   0   0   0   0 
  0   0   0   0   0   0   0   0   0   0   0   0   0   0   0   0   0   0 
  0   0   0   0   0   0   0   0   0   0
  0 
  0   0   0   0   0   0   0   0   0   0   0   0   0   0   0   0   0 
  0   0   0   0   0   0   0   0   0   0   0   0   0   8   0   0   0   0 
  0   0   0   0   0   0   0   8   0   0   8   0   0   0   0   0   0 
  0   0   8   0   8   8   0   0   0   0   0   0   0   0   0   0   0   0 
  0   0   0   0   0   0   0   0   0   0   0   0   0   0   0   8   8 
  8   0   0   0   0   0   0   0   8   0   0   0   0   0   8   0   0   0 
  0   8   0   0   8   0   8   0   0   8   0   8   0   0   0   0   0 
  0   8   0   0   0   0   0   0   0   0   8   0   8   0   0   0   0   0 
  8   8   8   0   0   8   0   0   0   0   0   0   0   0   0   0   0 
  0   0   0   0   0   0   0   0   0   0   0   0   0   0   0   0   0   0 
  0   0   8   0   0   0   0   0   8   0   0   8   8   0   0   0   0 
  0   0   0   0   0   0   0   0   0   0   0   0   0   0   8   8   8   0 
  0   0   0   8   0   0   8   0   0   0   0   0   0   0   0   0   0 
  0   8   0   0   0   0   0   0   0   0   0   0   0   0   0   0   0   0 
  0   0   0   0   0   0   0   0   0   0
  0 
  0   0   0   0   0   0   0   0   0   0   0   0   0   0   0   0   0 
  0   0   0   0   0   0   0   0   0   0   0   0   0   0   0   0   8   0 
  0   0   0   0   0   0   0   0   0   0   0   0   0   0   0   0   0 
  0   0   0   0   8   0   0   8   8   0   0   0   0   0   0   0   0   0 
  0   0   0   0   0   0   0   0   0   0   0   8   0   0   0   0   8 
  0   8   8   8   0   0   0   0   0   0   0   0   0   0   8   0   0   8 
  0   8   8   0   0   0   0   0   0   0   8   8   0   8   0   0   0 
  8   8   0   8   0   0   0   0   8   8   0   0   0   0   0   0   0   0 
  8   8   0   0   0   8   0   8   0   0   0   0   0   0   0   0   0 
  0   0   0   0   8   8   8   0   0   0   0   0   8   0   8   0   0   0 
  0   0   8   8   0   0   0   0   8   0   0   0   0   0   8   0   0 
  0   0   0   0   0   0   0   0   0   0   0   8   0   0   0   0   0   8 
  8   0   0   0   0   0   0   0   0   0   0   0   0   0   0   0   0 
  8   0   0   0   0   0   0   0   0   0   0   0   0   0   0   0   0   0 
  0   0   0   0   0   0   0   0   0   0
  0 
  0   0   0   0   0   0   0   0   0   0   0   0   0   0   0   0   0 
  0   0   0   0   0   0   0   0   0   8   0   0   8   8   0   8   8   8 
  0   0   0   0   0   8   0   0   0   0   0   0   0   0   0   0   0 
  0   0   8   0   0   0   0   0   0   0   0   0   0   0   0   0   0   0 
  0   0   8   0   0   0   0   0   0   0   0   0   0   8   0   0   0 
  0   0   0   0   0   0   0   0   0   0   0   0   0   0   0   0   8   0 
  0   0   0   0   0   0   0   8   0   0   0   0   0   0   8   0   0 
  0   0   0   0   0   0   0   8   8   0   0   0   8   0   0   0   0   0 
  0   0   0   0   0   0   0   0   0   0   0   8   0   0   0   0   0 
  0   0   0   0   0   0   0   0   0   8   0   0   0   8   8   0   8   8 
  0   0   0   0   0   0   0   0   0   0   0   0   0   0   0   0   8 
  0   0   8   0   0   0   0   0   0   0   0   0   0   0   0   0   0   0 
  0   0   0   0   0   0   0   0   8   8   0   0   8   0   8   0   0 
  0   0   0   0   0   0   0   0   0   0   0   0   0   0   0   0   0   0 
  0   0   0   0   0   0   0   0   0   0
  0 
  0   0   0   0   0   0   0   0   0   0   0   0   0   0   0   0   0 
  0   0   0   0   0   0   0   0   0   0   0   0   0   0   0   0   0   8 
  0   0   8   8   0   8   8   0   0   0   0   0   0   0   0   0   0 
  0   0   0   0   0   8   8   8   0   0   0   0   0   0   8   8   0   0 
  0   0   0   0   0   0   0   0   0   0   0   8   8   0   0   0   0 
  0   0   0   0   0   0   0   0   0   0   0   0   0   8   0   0   0   0 
  0   8   0   0   0   0   0   0   0   0   0   0   0   0   0   0   0 
  0   0   0   0   0   0   8   0   0   0   0   0   0   0   0   0   0   0 
  0   0   0   8   0   0   0   0   0   0   0   0   0   8   0   0   0 
  0   0   0   0   0   0   0   0   8   0   0   0   0   0   0   0   0   0 
  0   8   0   0   8   0   0   0   0   0   0   0   0   0   8   0   8 
  0   0   0   0   0   0   0   8   0   0   0   8   8   0   0   0   0   0 
  0   0   0   0   0   0   0   0   0   0   0   0   0   0   8   0   0 
  8   0   0   0   0   0   0   0   0   0   0   0   0   0   0   0   0   0 
  0   0   0   0   0   0   0   0   0   0
  0 
  0   0   0   0   0   0   0   0   0   0   0   0   0   0   0   0   0 
  0   0   0   0   0   0   0   0   0   0   0   0   8   8   0   0   0   0 
  0   0   0   0   0   0   0   0   0   0   0   0   0   0   8   0   0 
  0   0   0   0   0   0   0   0   0   0   8   8   0   0   0   0   0   0 
  0   0   0   0   0   0   0   0   0   0   0   0   8   0   8   0   0 
  0   0   0   0   0   0   0   0   0   0   0   0   8   8   0   0   0   0 
  0   0   0   0   0   0   0   0   0   0   0   0   0   0   0   0   0 
  0   0   0   0   0   0   8   8   0   0   0   0   8   0   0   0   0   0 
  0   0   8   8   0   0   0   0   8   0   0   0   0   0   0   0   0 
  0   0   0   0   0   0   0   0   0   0   0   0   8   8   8   8   0   0 
  0   0   0   0   0   8   0   0   0   0   0   0   0   0   0   0   0 
  0   0   0   8   8   0   0   0   0   0   8   8   8   0   0   0   0   8 
  0   0   0   0   0   8   0   0   0   0   0   0   0   0   0   8   0 
  0   0   0   0   0   0   0   0   0   0   0   0   0   0   0   0   0   0 
  0   0   0   0   0   0   0   0   0   0
  0 
  0   0   0   0   0   0   0   0   0   0   0   0   0   0   0   0   0 
  0   0   0   0   0   0   0   0   0   0   0   8   0   0   0   0   0   0 
  0   0   0   0   0   0   0   0   0   0   0   0   0   8   8   0   0 
  0   0   0   0   0   0   0   0   0   0   0   0   0   0   0   0   0   0 
  0   0   0   0   0   0   0   0   0   0   0   0   0   0   0   0   0 
  8   0   0   0   0   0   0   0   0   0   0   0   0   0   8   0   8   0 
  0   0   0   0   0   0   0   8   8   8   0   0   0   0   0   8   0 
  0   0   0   0   0   0   0   0   0   8   0   0   0   0   0   0   0   0 
  0   0   0   0   0   8   0   0   0   0   0   0   0   0   0   0   0 
  0   0   0   0   0   0   0   0   0   0   0   0   0   0   0   0   0   0 
  0   0   0   0   0   0   0   0   0   0   0   0   0   0   8   0   8 
  0   0   0   0   0   0   0   0   0   0   0   0   0   8   0   0   0   0 
  0   0   0   0   0   0   0   0   0   0   0   8   0   0   0   0   8 
  0   0   0   0   0   0   0   0   0   0   0   0   0   0   0   0   0   0 
  0   0   0   0   0   0   0   0   0   0
  0 
  0   0   0   0   0   0   0   0   0   0   0   0   0   0   0   0   0 
  0   0   0   0   0   0   0   0   0   0   0   0   0   8   0   0   8   0 
  0   0   0   0   8   0   0   0   0   0   8   0   0   0   0   8   0 
  0   0   0   0   0   0   0   0   0   8   0   0   8   0   0   0   8   0 
  0   0   0   0   0   8   0   0   0   0   0   0   0   0   0   0   0 
  0   0   0   0   0   0   0   0   8   0   0   8   0   0   0   0   0   0 
  8   0   0   0   0   0   0   0   0   0   0   0   0   0   8   8   0 
  0   8   0   0   0   0   0   0   0   0   0   0   0   0   0   0   0   0 
  0   0   0   0   0   8   8   0   0   0   0   0   0   0   0   0   0 
  0   0   0   0   8   8   0   0   0   0   0   0   0   0   8   0   0   8 
  0   0   0   0   0   0   0   0   0   0   0   0   0   0   0   0   0 
  0   0   0   0   0   8   0   0   0   8   0   8   0   8   0   0   0   8 
  8   0   0   0   0   0   0   0   0   0   0   0   0   0   0   0   0 
  0   8   0   0   0   0   0   0   0   0   0   0   0   0   0   0   0   0 
  0   0   0   0   0   0   0   0   0   0
  0 
  0   0   0   0   0   0   0   0   0   0   0   0   0   0   0   0   0 
  0   0   0   0   0   0   0   0   0   0   0   0   0   8   8   8   0   0 
  0   0   0   0   0   0   0   0   0   0   0   0   0   0   0   0   0 
  0   0   0   0   0   0   0   0   0   0   0   0   0   0   0   0   0   0 
  0   0   0   0   0   0   0   0   0   0   0   0   0   0   0   0   0 
  0   0   0   0   8   0   0   0   0   0   0   0   0   0   0   8   0   0 
  0   0   0   0   0   0   0   0   0   8   0   8   0   0   0   0   0 
  0   0   0   0   0   0   8   0   0   0   0   0   0   0   8   0   8   0 
  0   0   8   0   0   0   0   8   0   0   0   0   0   0   0   0   0 
  8   0   0   0   0   0   0   0   0   0   0   0   0   0   0   0   0   0 
  0   0   0   0   0   0   0   0   0   0   0   0   0   0   0   0   0 
  0   0   0   8   0   0   0   0   8   8   0   0   0   0   8   0   8   0 
  8   0   0   0   0   0   0   0   0   0   0   0   0   0   0   0   0 
  0   0   0   0   0   0   0   0   0   0   0   0   0   0   0   0   0   0 
  0   0   0   0   0   0   0   0   0   0
  0 
  0   0   0   0   0   0   0   0   0   0   0   0   0   0   0   0   0 
  0   0   0   0   0   0   0   0   0   0   0   0   0   0   0   0   0   0 
  0   0   0   0   0   0   0   0   0   0   0   0   0   0   0   0   0 
  0   0   0   0   0   0   0   0   0   0   8   0   0   8   0   8   0   0 
  8   0   0   0   0   0   0   0   0   0   8   0   0   0   0   0   0 
  0   0   8   0   0   0   0   0   0   0   0   0   0   8   0   0   0   0 
  0   0   0   0   0   0   0   0   0   8   0   0   0   0   0   0   0 
  0   0   0   0   8   8   0   0   0   0   0   0   0   0   0   0   8   8 
  0   0   0   0   0   0   0   0   0   0   0   0   0   0   8   0   0 
  0   8   0   0   0   0   0   0   0   0   8   0   0   0   0   0   0   8 
  0   0   0   0   8   0   8   0   8   0   0   0   0   8   0   0   0 
  0   0   8   8   8   0   8   0   0   0   0   0   0   0   8   0   0   0 
  0   0   0   0   0   0   0   0   0   0   0   0   0   0   0   0   0 
  8   0   0   0   0   0   0   0   0   0   0   0   0   0   0   0   0   0 
  0   0   0   0   0   0   0   0   0   0
  0 
  0   0   0   0   0   0   0   0   0   0   0   0   0   0   0   0   0 
  0   0   0   0   0   0   0   0   0   0   0   0   0   0   0   0   0   0 
  0   0   0   0   0   8   0   0   0   0   0   0   0   0   0   0   0 
  0   0   0   0   0   0   0   0   0   0   0   0   0   0   0   0   8   0 
  0   0   0   0   0   0   0   0   0   0   0   0   0   8   8   0   0 
  0   0   0   0   0   0   0   0   8   0   8   0   0   0   8   0   0   0 
  0   8   0   0   0   0   0   0   8   0   8   0   0   0   0   0   0 
  0   0   0   8   8   0   0   0   0   0   0   0   0   0   0   0   0   0 
  0   0   0   0   0   0   0   0   0   0   0   0   0   0   0   0   0 
  0   0   0   0   0   8   8   0   0   0   8   0   0   0   0   0   0   0 
  0   0   0   0   0   0   8   0   0   0   0   0   8   8   0   8   0 
  0   8   0   0   0   0   0   0   0   0   0   0   0   0   0   0   0   0 
  0   0   8   0   0   0   0   0   0   0   0   0   0   0   0   8   0 
  0   0   0   0   0   0   0   0   0   0   0   0   0   0   0   0   0   0 
  0   0   0   0   0   0   0   0   0   0
  0 
  0   0   0   0   0   0   0   0   0   0   0   0   0   0   0   0   0 
  0   0   0   0   0   0   0   0   0   0   0   0   0   0   0   0   0   0 
  8   0   0   0   0   0   0   0   8   8   0   0   0   8   8   0   0 
  0   0   0   0   0   0   0   0   0   0   0   0   0   0   0   0   0   0 
  0   0   0   0   0   0   0   0   0   0   8   8   0   0   0   0   0 
  0   0   0   0   0   0   0   0   0   0   0   0   0   0   0   0   8   8 
  0   8   8   0   0   0   0   0   0   0   0   0   0   0   8   8   0 
  0   0   0   0   0   0   0   0   0   0   0   0   0   8   8   0   0   0 
  8   0   0   8   0   0   0   0   8   8   8   0   0   0   0   0   0 
  0   0   0   0   0   0   0   0   0   0   0   0   0   0   0   0   0   0 
  0   0   0   8   0   0   8   8   8   8   0   0   0   0   0   0   0 
  0   0   0   0   0   8   0   0   0   0   0   0   0   0   0   0   0   0 
  0   0   0   0   8   0   0   0   0   0   0   0   0   0   0   0   0 
  8   8   0   0   0   0   0   0   0   0   0   0   0   0   0   0   0   0 
  0   0   0   0   0   0   0   0   0   0
  0 
  0   0   0   0   0   0   0   0   0   0   0   0   0   0   0   0   0 
  0   0   0   0   0   0   0   0   0   0   0   0   0   0   0   0   0   0 
  0   0   0   0   0   0   0   8   0   0   8   0   0   0   0   0   0 
  0   0   0   0   0   0   0   0   0   0   0   0   0   0   0   0   0   0 
  8   0   0   0   0   0   0   0   0   0   0   0   0   0   8   0   0 
  0   0   8   8   0   0   0   0   0   0   0   0   0   0   0   0   0   0 
  0   0   0   0   0   0   0   0   8   0   0   0   0   0   0   0   8 
  0   8   0   0   8   8   0   0   0   0   8   0   0   0   0   0   0   0 
  0   0   0   0   0   0   0   0   0   0   0   0   0   0   0   0   0 
  0   0   0   0   0   0   0   8   0   0   0   0   0   0   0   0   0   0 
  0   8   0   8   8   0   0   0   0   0   0   0   0   0   8   0   0 
  0   0   8   8   0   0   0   0   8   8   0   0   0   0   0   0   0   0 
  0   0   0   0   0   0   0   0   0   0   0   0   0   0   0   0   0 
  0   0   0   0   0   0   0   0   0   0   0   0   0   0   0   0   0   0 
  0   0   0   0   0   0   0   0   0   0
  0 
  0   0   0   0   0   0   0   0   0   0   0   0   0   0   0   0   0 
  0   0   0   0   0   0   0   0   0   0   0   0   0   0   0   0   0   0 
  0   0   0   0   0   0   0   0   0   0   0   0   0   0   0   0   0 
  0   0   0   0   8   0   0   0   0   0   0   8   8   8   0   0   0   0 
  8   8   8   0   0   0   0   0   0   0   0   0   0   0   0   0   0 
  0   0   0   0   0   0   0   0   0   0   0   0   0   8   0   0   0   0 
  0   0   0   0   0   0   0   0   0   0   0   0   0   0   0   0   0 
  0   0   0   0   0   8   0   0   0   0   8   0   0   0   0   8   0   0 
  0   0   0   0   0   0   0   0   0   8   8   0   0   0   0   0   0 
  0   0   0   0   0   0   0   8   8   0   0   0   0   8   0   0   0   0 
  0   0   0   8   0   0   0   0   0   0   0   0   0   0   0   0   0 
  0   0   0   0   0   0   8   8   8   0   0   0   0   0   0   0   0   0 
  8   0   0   0   0   0   8   0   0   0   0   0   0   8   8   0   8 
  8   0   0   0   0   0   0   0   0   0   0   0   0   0   0   0   0   0 
  0   0   0   0   0   0   0   0   0   0
  0 
  0   0   0   0   0   0   0   0   0   0   0   0   0   0   0   0   0 
  0   0   0   0   0   0   0   0   0   0   0   0   0   0   0   0   0   0 
  0   0   8   0   8   0   8   0   0   0   0   0   0   0   0   0   0 
  0   0   0   0   0   0   0   0   0   0   0   0   0   0   0   0   0   0 
  8   8   0   0   0   0   0   0   0   8   0   8   0   0   0   0   8 
  8   0   8   8   0   0   8   0   0   0   0   0   0   0   0   0   0   0 
  0   0   0   0   0   0   0   0   0   0   0   0   0   0   0   0   0 
  0   0   0   0   8   0   0   0   0   0   0   0   8   0   0   0   0   0 
  0   0   0   0   0   0   0   0   0   0   0   0   0   0   0   0   0 
  0   0   0   0   0   0   0   0   0   0   0   0   0   0   0   8   8   8 
  8   0   0   0   0   0   0   8   0   0   0   0   0   0   0   8   0 
  0   0   0   8   8   0   0   0   0   0   0   0   0   8   8   0   0   0 
  0   0   0   8   0   0   0   0   0   0   0   0   0   0   0   0   0 
  0   0   0   0   0   0   0   0   0   0   0   0   0   0   0   0   0   0 
  0   0   0   0   0   0   0   0   0   0
  0 
  0   0   0   0   0   0   0   0   0   0   0   0   0   0   0   0   0 
  0   0   0   0   0   0   0   0   0   0   0   0   8   0   0   0   0   0 
  0   0   0   8   8   0   0   0   0   0   0   8   8   0   0   8   0 
  0   0   0   0   0   0   0   0   0   0   8   8   0   8   8   8   0   8 
  0   0   0   0   0   0   0   0   0   8   0   0   8   8   0   0   0 
  0   0   0   0   8   0   0   0   0   0   0   0   0   8   8   8   0   8 
  0   0   0   0   0   0   0   0   0   0   0   0   0   0   0   0   0 
  8   8   0   0   0   0   0   0   0   0   0   0   0   0   0   0   0   0 
  0   0   0   0   0   0   0   0   0   0   0   0   0   0   0   0   0 
  0   0   8   8   0   0   0   0   0   0   0   0   8   0   0   0   8   0 
  0   0   0   0   0   0   0   0   0   0   0   0   0   0   0   0   0 
  0   0   0   0   8   0   0   0   0   0   0   8   0   8   0   0   0   0 
  0   0   8   8   0   0   8   0   0   0   0   0   0   0   0   0   0 
  0   0   0   0   0   0   0   0   0   0   0   0   0   0   0   0   0   0 
  0   0   0   0   0   0   0   0   0   0
  0 
  0   0   0   0   0   0   0   0   0   0   0   0   0   0   0   0   0 
  0   0   0   0   0   0   0   0   0   0   0   0   0   0   0   0   0   0 
  0   8   0   8   0   0   0   0   0   0   0   0   0   8   0   0   0 
  0   0   0   0   0   0   0   0   0   0   8   0   0   8   0   0   0   0 
  0   0   8   0   0   0   0   0   0   0   0   0   0   0   8   8   0 
  0   0   0   0   8   0   0   0   0   0   0   0   0   0   0   0   0   8 
  8   0   0   0   8   0   0   0   8   0   0   0   0   0   0   0   0 
  0   0   0   0   0   0   0   0   0   0   0   0   0   0   0   0   0   0 
  8   0   0   0   0   0   0   0   0   0   8   0   0   0   0   0   0 
  0   0   0   0   0   0   0   0   0   0   0   0   0   0   0   0   0   0 
  0   0   0   0   0   0   0   0   0   8   0   0   0   0   0   0   0 
  0   0   0   0   0   8   0   0   0   0   0   0   0   0   0   0   0   0 
  0   0   8   8   0   0   0   0   0   0   0   8   0   0   0   0   0 
  0   0   0   0   0   0   0   0   0   0   0   0   0   0   0   0   0   0 
  0   0   0   0   0   0   0   0   0   0
  0 
  0   0   0   0   0   0   0   0   0   0   0   0   0   0   0   0   0 
  0   0   0   0   0   0   0   0   0   0   0   0   0   0   0   0   0   0 
  0   0   0   0   0   0   0   0   8   0   0   0   0   0   0   0   8 
  0   0   8   8   8   0   0   0   0   0   0   8   8   0   0   0   0   0 
  0   0   0   0   0   0   0   0   0   0   0   0   0   0   0   0   0 
  0   0   8   0   0   0   0   0   0   0   0   0   0   0   0   0   0   0 
  0   0   0   0   0   0   8   0   0   0   0   0   0   0   0   0   0 
  0   8   0   0   0   0   8   0   0   0   0   0   0   0   0   0   0   0 
  0   0   8   8   0   0   0   0   0   0   0   0   0   0   0   0   0 
  8   0   0   0   0   0   0   8   0   0   0   0   0   0   0   0   0   0 
  0   0   0   8   8   0   0   0   0   0   0   8   0   0   0   0   0 
  0   0   0   0   0   8   0   0   0   0   0   0   0   0   0   0   8   0 
  0   0   0   0   0   0   0   0   0   0   0   0   8   0   0   0   0 
  0   0   0   0   0   0   0   0   0   0   0   0   0   0   0   0   0   0 
  0   0   0   0   0   0   0   0   0   0
  0 
  0   0   0   0   0   0   0   0   0   0   0   0   0   0   0   0   0 
  0   0   0   0   0   0   0   0   0   0   0   8   0   0   0   0   0   0 
  0   0   0   0   0   0   0   0   0   0   0   0   0   0   0   0   8 
  8   0   0   0   0   0   0   0   0   0   0   0   0   0   0   0   0   0 
  8   0   0   0   8   8   0   0   0   0   0   0   0   0   0   0   0 
  0   0   0   0   0   0   0   0   0   0   0   0   8   8   8   0   0   0 
  0   8   0   8   0   8   0   0   0   0   0   0   8   0   0   8   0 
  0   0   0   0   0   0   0   0   0   0   0   8   0   0   0   8   0   8 
  0   0   0   0   0   0   0   0   0   0   0   0   0   0   0   0   0 
  0   0   0   0   0   0   0   0   0   0   0   0   0   0   0   0   0   0 
  0   0   0   0   0   0   8   8   8   0   0   0   8   0   8   0   0 
  0   0   8   0   8   0   0   0   0   0   0   0   0   0   0   8   0   0 
  0   0   0   0   0   0   0   0   0   0   0   0   0   0   8   0   0 
  0   0   0   0   0   0   0   0   0   0   0   0   0   0   0   0   0   0 
  0   0   0   0   0   0   0   0   0   0
